;FLAVOR:RepRap
;TIME:2053
;Filament used: 4.27247m
;Layer height: 0.2
;MINX:-20.25
;MINY:-28.25
;MINZ:0.4
;MAXX:59.264
;MAXY:30.25
;MAXZ:19
;POSTPROCESSED
;Generated with Cura_SteamEngine 4.13.1
T0
M190 S60
M104 S215
M109 S215
M82 ;absolute extrusion mode
G28 ;Home
G1 Z15.0 F6000 ;Move the platform down 15mm
;Prime the extruder
G92 E0
G1 F200 E3
G92 E0
M83 ;relative extrusion mode
G1 F1500 E-6.5
;LAYER_COUNT:94
;LAYER:0
M107 P1
M204 T5000
M566 X1800 Y1800
G0 F3600 X14.087 Y-20.225 Z0.4
M204 P3000
M566 X1200 Y1200
;TYPE:SKIRT
G1 F1500 E6.5
G1 F3000 X14.355 Y-20.213 E0.02231
G1 X15.23 Y-20.095 E0.07342
G1 X16.091 Y-19.898 E0.07344
G1 X16.93 Y-19.623 E0.07342
G1 X17.741 Y-19.274 E0.07341
G1 X18.517 Y-18.854 E0.07337
G1 X19.252 Y-18.364 E0.07345
G1 X19.94 Y-17.81 E0.07345
G1 X20.574 Y-17.196 E0.07339
G1 X21.151 Y-16.528 E0.0734
G1 X21.665 Y-15.81 E0.07342
G1 X22.111 Y-15.048 E0.07342
G1 X22.48 Y-14.264 E0.07205
G1 X49.48 Y-14.302 E2.24506
G1 X50.363 Y-14.263 E0.07349
G1 X51.238 Y-14.145 E0.07342
G1 X52.098 Y-13.948 E0.07336
G1 X52.938 Y-13.674 E0.07347
G1 X53.749 Y-13.325 E0.07341
G1 X54.525 Y-12.904 E0.07341
G1 X55.26 Y-12.414 E0.07345
G1 X55.947 Y-11.861 E0.07333
G1 X56.582 Y-11.247 E0.07345
G1 X57.159 Y-10.578 E0.07346
G1 X57.672 Y-9.86 E0.07337
G1 X58.119 Y-9.098 E0.07346
G1 X58.495 Y-8.3 E0.07335
G1 X58.797 Y-7.47 E0.07344
G1 X59.023 Y-6.616 E0.07345
G1 X59.171 Y-5.746 E0.07338
G1 X59.244 Y-4.565 E0.09839
G1 X59.264 Y10.435 E1.24726
G1 X59.225 Y11.317 E0.07341
G1 X59.107 Y12.192 E0.07342
G1 X58.91 Y13.053 E0.07344
G1 X58.635 Y13.892 E0.07342
G1 X58.286 Y14.703 E0.07341
G1 X57.866 Y15.479 E0.07337
G1 X57.376 Y16.214 E0.07345
G1 X56.822 Y16.902 E0.07345
G1 X56.208 Y17.536 E0.07339
G1 X55.54 Y18.113 E0.0734
G1 X54.822 Y18.627 E0.07342
G1 X54.06 Y19.073 E0.07342
G1 X53.261 Y19.449 E0.07343
G1 X52.431 Y19.751 E0.07344
G1 X51.578 Y19.977 E0.07337
G1 X50.707 Y20.125 E0.07346
G1 X49.527 Y20.198 E0.0983
G1 X20.25 Y20.239 E2.43439
G1 X20.25 Y20.5 E0.0217
G1 X20.21 Y21.382 E0.07341
G1 X20.09 Y22.257 E0.07344
G1 X19.892 Y23.117 E0.07338
G1 X19.617 Y23.956 E0.07342
G1 X19.267 Y24.767 E0.07345
G1 X18.845 Y25.542 E0.07338
G1 X18.354 Y26.277 E0.0735
G1 X17.8 Y26.964 E0.07338
G1 X17.185 Y27.597 E0.07339
G1 X16.516 Y28.173 E0.07341
G1 X15.797 Y28.686 E0.07344
G1 X15.034 Y29.131 E0.07345
G1 X14.235 Y29.506 E0.07339
G1 X13.405 Y29.807 E0.07341
G1 X12.551 Y30.032 E0.07343
G1 X11.68 Y30.178 E0.07343
G1 X10.5 Y30.25 E0.0983
G1 X-10.5 Y30.25 E1.74616
G1 X-11.382 Y30.21 E0.07341
G1 X-12.257 Y30.09 E0.07344
G1 X-13.117 Y29.892 E0.07338
G1 X-13.956 Y29.617 E0.07342
G1 X-14.767 Y29.267 E0.07345
G1 X-15.542 Y28.845 E0.07338
G1 X-16.277 Y28.354 E0.0735
G1 X-16.964 Y27.8 E0.07338
G1 X-17.597 Y27.185 E0.07339
G1 X-18.173 Y26.516 E0.07341
G1 X-18.686 Y25.797 E0.07344
G1 X-19.131 Y25.034 E0.07345
G1 X-19.506 Y24.235 E0.07339
G1 X-19.807 Y23.405 E0.07341
G1 X-20.032 Y22.551 E0.07343
G1 X-20.178 Y21.68 E0.07343
G1 X-20.25 Y20.5 E0.0983
G1 X-20.25 Y-18.5 E3.24286
G1 X-20.21 Y-19.382 E0.07341
G1 X-20.09 Y-20.257 E0.07344
G1 X-19.892 Y-21.117 E0.07338
G1 X-19.617 Y-21.956 E0.07342
G1 X-19.267 Y-22.767 E0.07345
G1 X-18.845 Y-23.542 E0.07338
G1 X-18.354 Y-24.277 E0.0735
G1 X-17.8 Y-24.964 E0.07338
G1 X-17.185 Y-25.597 E0.07339
G1 X-16.516 Y-26.173 E0.07341
G1 X-15.797 Y-26.686 E0.07344
G1 X-15.034 Y-27.131 E0.07345
G1 X-14.235 Y-27.506 E0.07339
G1 X-13.405 Y-27.807 E0.07341
G1 X-12.551 Y-28.032 E0.07343
G1 X-11.68 Y-28.178 E0.07343
G1 X-10.5 Y-28.25 E0.0983
G1 X4.5 Y-28.25 E1.24726
G1 X5.382 Y-28.21 E0.07341
G1 X6.257 Y-28.09 E0.07344
G1 X7.117 Y-27.892 E0.07338
G1 X7.956 Y-27.617 E0.07342
G1 X8.767 Y-27.267 E0.07345
G1 X9.542 Y-26.845 E0.07338
G1 X10.277 Y-26.354 E0.0735
G1 X10.964 Y-25.8 E0.07338
G1 X11.597 Y-25.185 E0.07339
G1 X12.173 Y-24.516 E0.07341
G1 X12.686 Y-23.797 E0.07344
G1 X13.131 Y-23.034 E0.07345
G1 X13.506 Y-22.235 E0.07339
G1 X13.807 Y-21.405 E0.07341
G1 X14.032 Y-20.551 E0.07343
G1 X14.087 Y-20.225 E0.02749
M566 X1800 Y1800
G0 F3600 X13.608 Y-20.117
M566 X1200 Y1200
G1 F3000 X13.656 Y-19.744 E0.03127
G1 X14.333 Y-19.713 E0.05635
G1 X15.185 Y-19.595 E0.07152
G1 X16.022 Y-19.398 E0.0715
G1 X16.837 Y-19.124 E0.07149
G1 X17.623 Y-18.775 E0.07151
G1 X18.374 Y-18.355 E0.07155
G1 X19.082 Y-17.867 E0.0715
G1 X19.742 Y-17.316 E0.07149
G1 X20.347 Y-16.705 E0.0715
G1 X20.894 Y-16.041 E0.07153
G1 X21.376 Y-15.329 E0.07149
G1 X21.791 Y-14.576 E0.07149
G1 X22.133 Y-13.787 E0.0715
G1 X22.141 Y-13.764 E0.00202
G1 X49.481 Y-13.802 E2.27333
G1 X50.34 Y-13.763 E0.0715
G1 X51.192 Y-13.645 E0.07152
G1 X52.029 Y-13.448 E0.0715
G1 X52.844 Y-13.174 E0.07149
G1 X53.631 Y-12.825 E0.07159
G1 X54.381 Y-12.406 E0.07143
G1 X55.089 Y-11.918 E0.0715
G1 X55.749 Y-11.366 E0.07154
G1 X56.355 Y-10.756 E0.0715
G1 X56.902 Y-10.092 E0.07153
G1 X57.384 Y-9.38 E0.07149
G1 X57.798 Y-8.626 E0.07152
G1 X58.141 Y-7.837 E0.07154
G1 X58.409 Y-7.02 E0.0715
G1 X58.599 Y-6.182 E0.07145
G1 X58.711 Y-5.329 E0.07154
G1 X58.744 Y-4.564 E0.06367
G1 X58.764 Y10.436 E1.24726
G1 X58.725 Y11.295 E0.0715
G1 X58.607 Y12.147 E0.07152
G1 X58.41 Y12.984 E0.0715
G1 X58.136 Y13.799 E0.07149
G1 X57.787 Y14.585 E0.07151
G1 X57.367 Y15.336 E0.07155
G1 X56.879 Y16.044 E0.0715
G1 X56.328 Y16.704 E0.07149
G1 X55.717 Y17.309 E0.0715
G1 X55.053 Y17.856 E0.07153
G1 X54.341 Y18.338 E0.07149
G1 X53.588 Y18.753 E0.07149
G1 X52.799 Y19.095 E0.0715
G1 X51.982 Y19.363 E0.0715
G1 X51.143 Y19.553 E0.07153
G1 X50.29 Y19.665 E0.07154
G1 X49.527 Y19.698 E0.0635
G1 X19.75 Y19.739 E2.47597
G1 X19.75 Y20.5 E0.06328
G1 X19.71 Y21.359 E0.0715
G1 X19.59 Y22.211 E0.07154
G1 X19.392 Y23.048 E0.07152
G1 X19.117 Y23.862 E0.07144
G1 X18.768 Y24.648 E0.07151
G1 X18.347 Y25.398 E0.07152
G1 X17.858 Y26.106 E0.07155
G1 X17.306 Y26.765 E0.07148
G1 X16.694 Y27.37 E0.07156
G1 X16.029 Y27.915 E0.07149
G1 X15.317 Y28.397 E0.07149
G1 X14.563 Y28.81 E0.07148
G1 X13.773 Y29.151 E0.07155
G1 X12.956 Y29.418 E0.07147
G1 X12.117 Y29.608 E0.07153
G1 X11.264 Y29.718 E0.07151
G1 X10.5 Y29.75 E0.06358
G1 X-10.5 Y29.75 E1.74616
G1 X-11.359 Y29.71 E0.0715
G1 X-12.211 Y29.59 E0.07154
G1 X-13.048 Y29.392 E0.07152
G1 X-13.862 Y29.117 E0.07144
G1 X-14.648 Y28.768 E0.07151
G1 X-15.398 Y28.347 E0.07152
G1 X-16.106 Y27.858 E0.07155
G1 X-16.765 Y27.306 E0.07148
G1 X-17.37 Y26.694 E0.07156
G1 X-17.915 Y26.029 E0.07149
G1 X-18.397 Y25.317 E0.07149
G1 X-18.81 Y24.563 E0.07148
G1 X-19.151 Y23.773 E0.07155
G1 X-19.418 Y22.956 E0.07147
G1 X-19.608 Y22.117 E0.07153
G1 X-19.718 Y21.264 E0.07151
G1 X-19.75 Y20.5 E0.06358
G1 X-19.75 Y-18.5 E3.24286
G1 X-19.71 Y-19.359 E0.0715
G1 X-19.59 Y-20.211 E0.07154
G1 X-19.392 Y-21.048 E0.07152
G1 X-19.117 Y-21.862 E0.07144
G1 X-18.768 Y-22.648 E0.07151
G1 X-18.347 Y-23.398 E0.07152
G1 X-17.858 Y-24.106 E0.07155
G1 X-17.306 Y-24.765 E0.07148
G1 X-16.694 Y-25.37 E0.07156
G1 X-16.029 Y-25.915 E0.07149
G1 X-15.317 Y-26.397 E0.07149
G1 X-14.563 Y-26.81 E0.07148
G1 X-13.773 Y-27.151 E0.07155
G1 X-12.956 Y-27.418 E0.07147
G1 X-12.117 Y-27.608 E0.07153
G1 X-11.264 Y-27.718 E0.07151
G1 X-10.5 Y-27.75 E0.06358
G1 X4.5 Y-27.75 E1.24726
G1 X5.359 Y-27.71 E0.0715
G1 X6.211 Y-27.59 E0.07154
G1 X7.048 Y-27.392 E0.07152
G1 X7.862 Y-27.117 E0.07144
G1 X8.648 Y-26.768 E0.07151
G1 X9.398 Y-26.347 E0.07152
G1 X10.106 Y-25.858 E0.07155
G1 X10.765 Y-25.306 E0.07148
G1 X11.37 Y-24.694 E0.07156
G1 X11.915 Y-24.029 E0.07149
G1 X12.397 Y-23.317 E0.07149
G1 X12.81 Y-22.563 E0.07148
G1 X13.151 Y-21.773 E0.07155
G1 X13.418 Y-20.956 E0.07147
G1 X13.608 Y-20.117 E0.07153
M566 X1800 Y1800
G0 F3600 X12.598 Y-20.075
M566 X1200 Y1200
G1 F3000 X12.714 Y-19.271 E0.06755
G1 X12.738 Y-18.751 E0.04328
G1 X13.475 Y-18.752 E0.06128
G1 X14.286 Y-18.713 E0.06751
G1 X15.09 Y-18.595 E0.06757
G1 X15.878 Y-18.398 E0.06754
G1 X16.642 Y-18.124 E0.06749
G1 X17.377 Y-17.777 E0.06758
G1 X18.073 Y-17.359 E0.06751
G1 X18.725 Y-16.875 E0.06752
G1 X19.326 Y-16.329 E0.06752
G1 X19.871 Y-15.727 E0.06752
G1 X20.354 Y-15.073 E0.0676
G1 X20.77 Y-14.376 E0.06749
G1 X21.115 Y-13.641 E0.06751
G1 X21.387 Y-12.876 E0.06751
G1 X21.415 Y-12.763 E0.00968
G1 X49.483 Y-12.802 E2.33387
G1 X50.294 Y-12.763 E0.06751
G1 X51.097 Y-12.645 E0.06749
G1 X51.885 Y-12.448 E0.06754
G1 X52.65 Y-12.174 E0.06757
G1 X53.384 Y-11.827 E0.06751
G1 X54.081 Y-11.41 E0.06754
G1 X54.733 Y-10.925 E0.06757
G1 X55.334 Y-10.379 E0.06752
G1 X55.879 Y-9.777 E0.06752
G1 X56.361 Y-9.124 E0.06749
G1 X56.778 Y-8.426 E0.06761
G1 X57.123 Y-7.692 E0.06744
G1 X57.395 Y-6.926 E0.06759
G1 X57.59 Y-6.138 E0.0675
G1 X57.707 Y-5.334 E0.06756
G1 X57.744 Y-4.563 E0.06418
G1 X57.764 Y10.437 E1.24726
G1 X57.725 Y11.248 E0.06751
G1 X57.607 Y12.052 E0.06757
G1 X57.41 Y12.84 E0.06754
G1 X57.136 Y13.604 E0.06749
G1 X56.789 Y14.339 E0.06758
G1 X56.371 Y15.035 E0.06751
G1 X55.887 Y15.687 E0.06752
G1 X55.341 Y16.288 E0.06752
G1 X54.739 Y16.833 E0.06752
G1 X54.085 Y17.316 E0.0676
G1 X53.388 Y17.732 E0.06749
G1 X52.653 Y18.077 E0.06751
G1 X51.888 Y18.349 E0.06751
G1 X51.099 Y18.544 E0.06758
G1 X50.296 Y18.661 E0.06747
G1 X49.525 Y18.698 E0.06418
G1 X18.75 Y18.741 E2.55895
G1 X18.75 Y20.5 E0.14626
G1 X18.71 Y21.311 E0.06752
G1 X18.59 Y22.114 E0.06751
G1 X18.393 Y22.902 E0.06754
G1 X18.118 Y23.667 E0.0676
G1 X17.77 Y24.4 E0.06747
G1 X17.351 Y25.096 E0.06755
G1 X16.866 Y25.747 E0.0675
G1 X16.319 Y26.348 E0.06757
G1 X15.716 Y26.892 E0.06753
G1 X15.062 Y27.374 E0.06755
G1 X14.364 Y27.789 E0.06752
G1 X13.629 Y28.134 E0.06751
G1 X12.863 Y28.404 E0.06753
G1 X12.075 Y28.598 E0.06748
G1 X11.271 Y28.714 E0.06755
G1 X10.5 Y28.75 E0.06418
G1 X-10.5 Y28.75 E1.74616
G1 X-11.311 Y28.71 E0.06752
G1 X-12.114 Y28.59 E0.06751
G1 X-12.902 Y28.393 E0.06754
G1 X-13.667 Y28.118 E0.0676
G1 X-14.4 Y27.77 E0.06747
G1 X-15.096 Y27.351 E0.06755
G1 X-15.747 Y26.866 E0.0675
G1 X-16.348 Y26.319 E0.06757
G1 X-16.892 Y25.716 E0.06753
G1 X-17.374 Y25.062 E0.06755
G1 X-17.789 Y24.364 E0.06752
G1 X-18.134 Y23.629 E0.06751
G1 X-18.404 Y22.863 E0.06753
G1 X-18.598 Y22.075 E0.06748
G1 X-18.714 Y21.271 E0.06755
G1 X-18.75 Y20.5 E0.06418
G1 X-18.75 Y-18.5 E3.24286
G1 X-18.71 Y-19.311 E0.06752
G1 X-18.59 Y-20.114 E0.06751
G1 X-18.393 Y-20.902 E0.06754
G1 X-18.118 Y-21.667 E0.0676
G1 X-17.77 Y-22.4 E0.06747
G1 X-17.351 Y-23.096 E0.06755
G1 X-16.866 Y-23.747 E0.0675
G1 X-16.319 Y-24.348 E0.06757
G1 X-15.716 Y-24.892 E0.06753
G1 X-15.062 Y-25.374 E0.06755
G1 X-14.364 Y-25.789 E0.06752
G1 X-13.629 Y-26.134 E0.06751
G1 X-12.863 Y-26.404 E0.06753
G1 X-12.075 Y-26.598 E0.06748
G1 X-11.271 Y-26.714 E0.06755
G1 X-10.5 Y-26.75 E0.06418
G1 X4.5 Y-26.75 E1.24726
G1 X5.311 Y-26.71 E0.06752
G1 X6.114 Y-26.59 E0.06751
G1 X6.902 Y-26.393 E0.06754
G1 X7.667 Y-26.118 E0.0676
G1 X8.4 Y-25.77 E0.06747
G1 X9.096 Y-25.351 E0.06755
G1 X9.747 Y-24.866 E0.0675
G1 X10.348 Y-24.319 E0.06757
G1 X10.892 Y-23.716 E0.06753
G1 X11.374 Y-23.062 E0.06755
G1 X11.789 Y-22.364 E0.06752
G1 X12.134 Y-21.629 E0.06751
G1 X12.404 Y-20.863 E0.06753
G1 X12.598 Y-20.075 E0.06748
M566 X1800 Y1800
G0 F3600 X12.165 Y-19.645
M566 X1200 Y1200
G1 F3000 X12.25 Y-18.5 E0.09547
G1 X12.25 Y-18.25 E0.02079
G1 X13.476 Y-18.252 E0.10194
G1 X14.262 Y-18.213 E0.06544
G1 X15.04 Y-18.095 E0.06543
G1 X15.802 Y-17.898 E0.06544
G1 X16.54 Y-17.625 E0.06543
G1 X17.247 Y-17.278 E0.06549
G1 X17.915 Y-16.862 E0.06543
G1 X18.537 Y-16.38 E0.06543
G1 X19.108 Y-15.837 E0.06552
G1 X19.62 Y-15.239 E0.06546
G1 X20.069 Y-14.593 E0.06542
G1 X20.45 Y-13.904 E0.06547
G1 X20.759 Y-13.18 E0.06545
G1 X20.993 Y-12.428 E0.06549
G1 X21.026 Y-12.262 E0.01407
G1 X49.483 Y-12.302 E2.36621
G1 X50.269 Y-12.263 E0.06544
G1 X51.048 Y-12.145 E0.06551
G1 X51.81 Y-11.948 E0.06544
G1 X52.548 Y-11.675 E0.06543
G1 X53.255 Y-11.328 E0.06549
G1 X53.923 Y-10.912 E0.06543
G1 X54.545 Y-10.43 E0.06543
G1 X55.115 Y-9.887 E0.06546
G1 X55.627 Y-9.289 E0.06546
G1 X56.076 Y-8.643 E0.06542
G1 X56.457 Y-7.954 E0.06547
G1 X56.767 Y-7.23 E0.06549
G1 X57.001 Y-6.479 E0.06541
G1 X57.157 Y-5.707 E0.06549
G1 X57.244 Y-4.562 E0.09548
G1 X57.264 Y10.438 E1.24726
G1 X57.225 Y11.224 E0.06544
G1 X57.107 Y12.002 E0.06543
G1 X56.91 Y12.764 E0.06544
G1 X56.637 Y13.502 E0.06543
G1 X56.29 Y14.209 E0.06549
G1 X55.874 Y14.877 E0.06543
G1 X55.392 Y15.499 E0.06543
G1 X54.849 Y16.07 E0.06552
G1 X54.251 Y16.582 E0.06546
G1 X53.605 Y17.031 E0.06542
G1 X52.916 Y17.412 E0.06547
G1 X52.192 Y17.721 E0.06545
G1 X51.44 Y17.955 E0.06549
G1 X50.669 Y18.111 E0.06541
G1 X49.525 Y18.198 E0.0954
G1 X18.25 Y18.241 E2.60053
G1 X18.25 Y20.5 E0.18784
G1 X18.21 Y21.286 E0.06544
G1 X18.091 Y22.064 E0.06544
G1 X17.893 Y22.826 E0.06546
G1 X17.619 Y23.564 E0.06546
G1 X17.271 Y24.27 E0.06545
G1 X16.854 Y24.938 E0.06548
G1 X16.371 Y25.559 E0.06542
G1 X15.827 Y26.129 E0.06552
G1 X15.229 Y26.64 E0.06541
G1 X14.582 Y27.088 E0.06544
G1 X13.892 Y27.468 E0.0655
G1 X13.168 Y27.776 E0.06542
G1 X12.416 Y28.009 E0.06546
G1 X11.645 Y28.165 E0.06541
G1 X10.5 Y28.25 E0.09547
G1 X-10.5 Y28.25 E1.74616
G1 X-11.286 Y28.21 E0.06544
G1 X-12.064 Y28.091 E0.06544
G1 X-12.826 Y27.893 E0.06546
G1 X-13.564 Y27.619 E0.06546
G1 X-14.27 Y27.271 E0.06545
G1 X-14.938 Y26.854 E0.06548
G1 X-15.559 Y26.371 E0.06542
G1 X-16.129 Y25.827 E0.06552
G1 X-16.64 Y25.229 E0.06541
G1 X-17.088 Y24.582 E0.06544
G1 X-17.468 Y23.892 E0.0655
G1 X-17.776 Y23.168 E0.06542
G1 X-18.009 Y22.416 E0.06546
G1 X-18.165 Y21.645 E0.06541
G1 X-18.25 Y20.5 E0.09547
G1 X-18.25 Y-18.5 E3.24286
G1 X-18.21 Y-19.286 E0.06544
G1 X-18.091 Y-20.064 E0.06544
G1 X-17.893 Y-20.826 E0.06546
G1 X-17.619 Y-21.564 E0.06546
G1 X-17.271 Y-22.27 E0.06545
G1 X-16.854 Y-22.938 E0.06548
G1 X-16.371 Y-23.559 E0.06542
G1 X-15.827 Y-24.129 E0.06552
G1 X-15.229 Y-24.64 E0.06541
G1 X-14.582 Y-25.088 E0.06544
G1 X-13.892 Y-25.468 E0.0655
G1 X-13.168 Y-25.776 E0.06542
G1 X-12.416 Y-26.009 E0.06546
G1 X-11.645 Y-26.165 E0.06541
G1 X-10.5 Y-26.25 E0.09547
G1 X4.5 Y-26.25 E1.24726
G1 X5.286 Y-26.21 E0.06544
G1 X6.064 Y-26.091 E0.06544
G1 X6.826 Y-25.893 E0.06546
G1 X7.564 Y-25.619 E0.06546
G1 X8.27 Y-25.271 E0.06545
G1 X8.938 Y-24.854 E0.06548
G1 X9.559 Y-24.371 E0.06542
G1 X10.129 Y-23.827 E0.06552
G1 X10.64 Y-23.229 E0.06541
G1 X11.088 Y-22.582 E0.06544
G1 X11.468 Y-21.892 E0.0655
G1 X11.776 Y-21.168 E0.06542
G1 X12.009 Y-20.416 E0.06546
G1 X12.165 Y-19.645 E0.06541
M566 X1800 Y1800
G0 F3600 X11.598 Y-19.976
M566 X1200 Y1200
G1 F3000 X11.714 Y-19.224 E0.06327
G1 X11.75 Y-18.5 E0.06028
G1 X11.75 Y-17.75 E0.06236
G1 X13.476 Y-17.752 E0.14352
G1 X14.237 Y-17.713 E0.06336
G1 X14.989 Y-17.595 E0.06329
G1 X15.724 Y-17.398 E0.06327
G1 X16.435 Y-17.125 E0.06333
G1 X17.113 Y-16.779 E0.06329
G1 X17.751 Y-16.364 E0.06329
G1 X18.343 Y-15.885 E0.06332
G1 X18.88 Y-15.346 E0.06326
G1 X19.359 Y-14.753 E0.06338
G1 X19.772 Y-14.114 E0.06326
G1 X20.116 Y-13.435 E0.06329
G1 X20.387 Y-12.724 E0.06327
G1 X20.582 Y-11.988 E0.06331
G1 X20.617 Y-11.762 E0.01902
G1 X49.484 Y-11.802 E2.4003
G1 X50.244 Y-11.763 E0.06328
G1 X50.996 Y-11.645 E0.06329
G1 X51.732 Y-11.448 E0.06335
G1 X52.443 Y-11.175 E0.06333
G1 X53.121 Y-10.83 E0.06325
G1 X53.759 Y-10.415 E0.06329
G1 X54.35 Y-9.935 E0.06331
G1 X54.888 Y-9.396 E0.06332
G1 X55.366 Y-8.804 E0.06327
G1 X55.78 Y-8.165 E0.06331
G1 X56.124 Y-7.485 E0.06337
G1 X56.395 Y-6.774 E0.06327
G1 X56.59 Y-6.038 E0.06331
G1 X56.707 Y-5.286 E0.06328
G1 X56.744 Y-4.562 E0.06028
G1 X56.764 Y10.438 E1.24726
G1 X56.725 Y11.199 E0.06336
G1 X56.607 Y11.951 E0.06329
G1 X56.41 Y12.686 E0.06327
G1 X56.137 Y13.397 E0.06333
G1 X55.791 Y14.075 E0.06329
G1 X55.376 Y14.713 E0.06329
G1 X54.897 Y15.305 E0.06332
G1 X54.358 Y15.842 E0.06326
G1 X53.765 Y16.321 E0.06338
G1 X53.126 Y16.734 E0.06326
G1 X52.447 Y17.078 E0.06329
G1 X51.736 Y17.349 E0.06327
G1 X51 Y17.544 E0.06331
G1 X50.247 Y17.661 E0.06336
G1 X49.524 Y17.698 E0.0602
G1 X17.75 Y17.742 E2.64202
G1 X17.75 Y20.5 E0.22933
G1 X17.71 Y21.26 E0.06328
G1 X17.591 Y22.012 E0.06331
G1 X17.393 Y22.747 E0.06329
G1 X17.119 Y23.458 E0.06336
G1 X16.773 Y24.136 E0.06329
G1 X16.357 Y24.773 E0.06326
G1 X15.876 Y25.364 E0.06336
G1 X15.337 Y25.901 E0.06326
G1 X14.744 Y26.378 E0.06328
G1 X14.104 Y26.791 E0.06333
G1 X13.424 Y27.134 E0.06333
G1 X12.712 Y27.404 E0.06332
