;FLAVOR:RepRap
;TIME:7012
;Filament used: 20.6595m
;Layer height: 0.3
;MINX:-33.75
;MINY:-43.001
;MINZ:0.4
;MAXX:33.75
;MAXY:56.499
;MAXZ:100
;POSTPROCESSED
;Generated with Cura_SteamEngine 4.13.1
T0
M190 S60
M104 S220
M109 S220
M82 ;absolute extrusion mode
G28 ;Home
G1 Z15.0 F6000 ;Move the platform down 15mm
;Prime the extruder
G92 E0
G1 F200 E3
G92 E0
M83 ;relative extrusion mode
G1 F1500 E-6.5
;LAYER_COUNT:333
;LAYER:0
M107 P1
M204 T5000
M566 X1800 Y1800
G0 F3600 X29.347 Y-32.001 Z0.4
M204 P3000
M566 X1200 Y1200
;TYPE:SKIRT
G1 F1500 E6.5
G1 F3000 X30.045 Y-31.991 E0.05804
G1 X30.59 Y-31.943 E0.04549
G1 X31.122 Y-31.816 E0.04548
G1 X31.631 Y-31.613 E0.04557
G1 X32.104 Y-31.339 E0.04545
G1 X32.533 Y-30.998 E0.04557
G1 X32.907 Y-30.599 E0.04547
G1 X33.219 Y-30.149 E0.04553
G1 X33.463 Y-29.659 E0.04552
G1 X33.632 Y-29.138 E0.04554
G1 X33.74 Y-28.346 E0.06646
G1 X33.75 Y-27.921 E0.03535
G1 X33.75 Y41.059 E5.73571
G1 X33.741 Y41.786 E0.06045
G1 X33.694 Y42.332 E0.04557
G1 X33.568 Y42.865 E0.04554
G1 X33.367 Y43.373 E0.04543
G1 X33.093 Y43.847 E0.04552
G1 X32.753 Y44.276 E0.04552
G1 X32.354 Y44.651 E0.04553
G1 X31.905 Y44.965 E0.04556
G1 X31.416 Y45.209 E0.04544
G1 X30.895 Y45.379 E0.04557
G1 X30.096 Y45.489 E0.06706
G1 X29.67 Y45.499 E0.03543
G1 X-29.341 Y45.499 E4.90678
G1 X-30.039 Y45.49 E0.05804
G1 X-30.585 Y45.443 E0.04557
G1 X-31.117 Y45.317 E0.04546
G1 X-31.626 Y45.115 E0.04553
G1 X-32.1 Y44.841 E0.04552
G1 X-32.529 Y44.501 E0.04552
G1 X-32.904 Y44.102 E0.04553
G1 X-33.217 Y43.653 E0.04551
G1 X-33.461 Y43.163 E0.04552
G1 X-33.631 Y42.643 E0.04549
G1 X-33.74 Y41.841 E0.0673
G1 X-33.75 Y41.407 E0.0361
G1 X-33.75 Y-27.628 E5.74028
G1 X-33.741 Y-28.293 E0.0553
G1 X-33.693 Y-28.838 E0.04549
G1 X-33.567 Y-29.371 E0.04554
G1 X-33.365 Y-29.879 E0.04546
G1 X-33.09 Y-30.353 E0.04557
G1 X-32.75 Y-30.782 E0.04552
G1 X-32.351 Y-31.156 E0.04547
G1 X-31.902 Y-31.469 E0.04551
G1 X-31.412 Y-31.713 E0.04552
G1 X-30.891 Y-31.882 E0.04554
G1 X-30.096 Y-31.991 E0.06672
G1 X-29.67 Y-32.001 E0.03543
G1 X29.347 Y-32.001 E4.90728
M566 X1800 Y1800
G0 F3600 X29.34 Y-31.501
M566 X1200 Y1200
G1 F3000 X30.038 Y-31.491 E0.05804
G1 X30.545 Y-31.443 E0.04235
G1 X31.039 Y-31.318 E0.04237
G1 X31.507 Y-31.116 E0.04238
G1 X31.937 Y-30.844 E0.04231
G1 X32.32 Y-30.508 E0.04236
G1 X32.646 Y-30.116 E0.04239
G1 X32.906 Y-29.678 E0.04235
G1 X33.095 Y-29.205 E0.04235
G1 X33.207 Y-28.708 E0.04236
G1 X33.249 Y-28.012 E0.05798
G1 X33.25 Y41.053 E5.74278
G1 X33.241 Y41.78 E0.06045
G1 X33.195 Y42.288 E0.04241
G1 X33.07 Y42.782 E0.04237
G1 X32.869 Y43.25 E0.04235
G1 X32.598 Y43.681 E0.04233
G1 X32.262 Y44.065 E0.04243
G1 X31.871 Y44.391 E0.04233
G1 X31.433 Y44.652 E0.0424
G1 X30.961 Y44.842 E0.04231
G1 X30.464 Y44.955 E0.04238
G1 X29.761 Y44.998 E0.05856
G1 X-29.335 Y44.999 E4.91385
G1 X-30.033 Y44.99 E0.05804
G1 X-30.54 Y44.943 E0.04234
G1 X-31.034 Y44.818 E0.04237
G1 X-31.502 Y44.617 E0.04235
G1 X-31.934 Y44.346 E0.0424
G1 X-32.317 Y44.01 E0.04236
G1 X-32.643 Y43.619 E0.04233
G1 X-32.904 Y43.181 E0.0424
G1 X-33.093 Y42.708 E0.04235
G1 X-33.207 Y42.211 E0.0424
G1 X-33.249 Y41.495 E0.05964
G1 X-33.25 Y-27.621 E5.74702
G1 X-33.241 Y-28.286 E0.0553
G1 X-33.194 Y-28.793 E0.04234
G1 X-33.068 Y-29.287 E0.04239
G1 X-32.867 Y-29.755 E0.04235
G1 X-32.595 Y-30.186 E0.04238
G1 X-32.259 Y-30.569 E0.04236
G1 X-31.868 Y-30.895 E0.04233
G1 X-31.43 Y-31.156 E0.0424
G1 X-30.957 Y-31.345 E0.04235
G1 X-30.46 Y-31.458 E0.04238
G1 X-29.761 Y-31.5 E0.05823
G1 X29.34 Y-31.501 E4.91427
M566 X1800 Y1800
G1 F1500 E-6.5
;MESH:RoboCol25-LidarMnt.3mf
G0 F3600 X29.236 Y-28.916
G0 X29.236 Y-27.487
G1 F1500 E6.5
G0 F3600 X29.75 Y-28.001
M566 X1200 Y1200
;TYPE:WALL-OUTER
G1 F3000 X29.75 Y41.499 E5.77895
G1 X-29.75 Y41.499 E4.94745
G1 X-29.75 Y-28.001 E5.77895
G1 X29.75 Y-28.001 E4.94745
M566 X1800 Y1800
G0 F3600 X29.75 Y-27.751
G0 X29.18 Y-27.431
G0 X24.032 Y-15.322
G0 X23.437 Y-15.247
M566 X1200 Y1200
G1 F3000 X23.254 Y-15.711 E0.04147
G1 X22.964 Y-16.113 E0.04122
G1 X22.581 Y-16.434 E0.04155
G1 X22.134 Y-16.648 E0.04121
G1 X21.648 Y-16.745 E0.04121
G1 X21.052 Y-16.7 E0.0497
G1 X20.584 Y-16.529 E0.04143
G1 X20.175 Y-16.249 E0.04121
G1 X19.845 Y-15.875 E0.04147
G1 X19.62 Y-15.432 E0.04131
G1 X19.51 Y-14.948 E0.04127
G1 X19.523 Y-14.448 E0.04159
G1 X19.657 Y-13.971 E0.0412
G1 X19.908 Y-13.541 E0.0414
G1 X20.256 Y-13.185 E0.0414
G1 X20.68 Y-12.927 E0.04127
G1 X21.156 Y-12.782 E0.04138
G1 X21.653 Y-12.757 E0.04138
G1 X22.141 Y-12.857 E0.04142
G1 X22.587 Y-13.072 E0.04117
G1 X22.968 Y-13.393 E0.04143
G1 X23.258 Y-13.798 E0.04142
G1 X23.439 Y-14.26 E0.04126
G1 X23.5 Y-14.754 E0.04139
G1 X23.437 Y-15.247 E0.04133
M566 X1800 Y1800
G0 F3600 X23.346 Y-15.479
G0 X23.904 Y-15.698
G0 X23.362 Y-16.483
G0 X22.875 Y-16.891
G0 X22.305 Y-17.163
G0 X-21.234 Y-17.333
G0 X-21.352 Y-16.745
M566 X1200 Y1200
G1 F3000 X-21.948 Y-16.7 E0.0497
G1 X-22.416 Y-16.529 E0.04143
G1 X-22.825 Y-16.249 E0.04121
G1 X-23.155 Y-15.875 E0.04147
G1 X-23.38 Y-15.432 E0.04131
G1 X-23.49 Y-14.948 E0.04127
G1 X-23.477 Y-14.448 E0.04159
G1 X-23.343 Y-13.971 E0.0412
G1 X-23.092 Y-13.541 E0.0414
G1 X-22.744 Y-13.185 E0.0414
G1 X-22.32 Y-12.927 E0.04127
G1 X-21.844 Y-12.782 E0.04138
G1 X-21.347 Y-12.757 E0.04138
G1 X-20.859 Y-12.857 E0.04142
G1 X-20.413 Y-13.072 E0.04117
G1 X-20.032 Y-13.393 E0.04143
G1 X-19.742 Y-13.798 E0.04142
G1 X-19.561 Y-14.26 E0.04126
G1 X-19.5 Y-14.754 E0.04139
G1 X-19.563 Y-15.247 E0.04133
G1 X-19.746 Y-15.711 E0.04147
G1 X-20.036 Y-16.113 E0.04122
G1 X-20.419 Y-16.434 E0.04155
G1 X-20.866 Y-16.648 E0.04121
G1 X-21.352 Y-16.745 E0.04121
M566 X1800 Y1800
G0 F3600 X-21.601 Y-16.727
G0 X-21.645 Y-17.324
G0 X-22.665 Y-17.012
G0 X-23.185 Y-16.655
G0 X-23.605 Y-16.18
G0 X-23.891 Y-15.616
G0 X-22.153 Y25.737
G0 X-21.948 Y26.3
M566 X1200 Y1200
G1 F3000 X-22.416 Y26.471 E0.04143
G1 X-22.825 Y26.751 E0.04121
G1 X-23.155 Y27.125 E0.04147
G1 X-23.38 Y27.568 E0.04131
G1 X-23.49 Y28.052 E0.04127
G1 X-23.477 Y28.552 E0.04159
G1 X-23.343 Y29.029 E0.0412
G1 X-23.092 Y29.459 E0.0414
G1 X-22.744 Y29.815 E0.0414
G1 X-22.32 Y30.073 E0.04127
G1 X-21.844 Y30.218 E0.04138
G1 X-21.347 Y30.243 E0.04138
G1 X-20.859 Y30.143 E0.04142
G1 X-20.412 Y29.927 E0.04128
G1 X-20.032 Y29.607 E0.04131
G1 X-19.742 Y29.202 E0.04142
G1 X-19.561 Y28.74 E0.04126
G1 X-19.5 Y28.246 E0.04139
G1 X-19.563 Y27.753 E0.04133
G1 X-19.746 Y27.289 E0.04147
G1 X-20.036 Y26.887 E0.04122
G1 X-20.419 Y26.566 E0.04155
G1 X-20.866 Y26.352 E0.04121
G1 X-21.353 Y26.255 E0.04129
G1 X-21.948 Y26.3 E0.04962
M566 X1800 Y1800
G0 F3600 X-22.182 Y26.385
G0 X-22.387 Y25.822
G0 X-21.427 Y25.723
G0 X19.944 Y30.326
G0 X20.256 Y29.815
M566 X1200 Y1200
G1 F3000 X20.68 Y30.073 E0.04127
G1 X21.156 Y30.218 E0.04138
G1 X21.653 Y30.243 E0.04138
G1 X22.141 Y30.143 E0.04142
G1 X22.588 Y29.927 E0.04128
G1 X22.968 Y29.607 E0.04131
G1 X23.258 Y29.202 E0.04142
G1 X23.439 Y28.74 E0.04126
G1 X23.5 Y28.246 E0.04139
G1 X23.437 Y27.753 E0.04133
G1 X23.254 Y27.289 E0.04147
G1 X22.964 Y26.887 E0.04122
G1 X22.581 Y26.566 E0.04155
G1 X22.134 Y26.352 E0.04121
G1 X21.647 Y26.255 E0.04129
G1 X21.052 Y26.3 E0.04962
G1 X20.584 Y26.471 E0.04143
G1 X20.175 Y26.751 E0.04121
G1 X19.845 Y27.125 E0.04147
G1 X19.62 Y27.568 E0.04131
G1 X19.51 Y28.052 E0.04127
G1 X19.523 Y28.552 E0.04159
G1 X19.657 Y29.029 E0.0412
G1 X19.908 Y29.459 E0.0414
G1 X20.256 Y29.815 E0.0414
M566 X1800 Y1800
G0 F3600 X20.469 Y29.945
G0 X19.507 Y29.764
M566 X1200 Y1200
;TYPE:WALL-INNER
G1 F3000 X19.942 Y30.209 E0.05174
G1 X20.474 Y30.533 E0.05179
G1 X21.069 Y30.714 E0.05171
G1 X21.691 Y30.746 E0.05179
G1 X22.302 Y30.62 E0.05187
G1 X22.862 Y30.35 E0.05169
G1 X23.338 Y29.949 E0.05175
G1 X23.701 Y29.442 E0.05185
G1 X23.928 Y28.864 E0.05163
G1 X24.004 Y28.245 E0.05186
G1 X23.925 Y27.628 E0.05172
G1 X23.696 Y27.047 E0.05193
G1 X23.333 Y26.544 E0.05158
G1 X22.854 Y26.142 E0.052
G1 X22.293 Y25.874 E0.0517
G1 X21.678 Y25.751 E0.05215
G1 X20.945 Y25.807 E0.06113
G1 X20.353 Y26.023 E0.0524
G1 X19.841 Y26.374 E0.05162
G1 X19.428 Y26.842 E0.0519
G1 X19.146 Y27.397 E0.05176
G1 X19.009 Y28.002 E0.05158
G1 X19.025 Y28.627 E0.05199
G1 X19.193 Y29.226 E0.05173
G1 X19.507 Y29.764 E0.0518
M566 X1800 Y1800
G0 F3600 X19.428 Y29.824
G0 X-21.302 Y30.845
G0 X-21.309 Y30.746
M566 X1200 Y1200
G1 F3000 X-20.698 Y30.62 E0.05187
G1 X-20.138 Y30.35 E0.05169
G1 X-19.662 Y29.949 E0.05175
G1 X-19.299 Y29.442 E0.05185
G1 X-19.072 Y28.864 E0.05163
G1 X-18.996 Y28.245 E0.05186
G1 X-19.075 Y27.628 E0.05172
G1 X-19.304 Y27.047 E0.05193
G1 X-19.667 Y26.544 E0.05158
G1 X-20.146 Y26.142 E0.052
G1 X-20.707 Y25.874 E0.0517
G1 X-21.322 Y25.751 E0.05215
G1 X-22.055 Y25.807 E0.06113
G1 X-22.647 Y26.023 E0.0524
G1 X-23.159 Y26.374 E0.05162
G1 X-23.572 Y26.842 E0.0519
G1 X-23.854 Y27.397 E0.05176
G1 X-23.991 Y28.002 E0.05158
G1 X-23.975 Y28.627 E0.05199
G1 X-23.807 Y29.226 E0.05173
G1 X-23.493 Y29.764 E0.0518
G1 X-23.058 Y30.209 E0.05174
G1 X-22.526 Y30.533 E0.05179
G1 X-21.931 Y30.714 E0.05171
G1 X-21.309 Y30.746 E0.05179
M566 X1800 Y1800
G0 F3600 X-21.302 Y30.845
G0 X-20.686 Y30.657
G0 X-20.117 Y30.383
G0 X-19.633 Y29.976
G0 X-19.264 Y29.461
G0 X-19.034 Y28.873
G0 X-24.09 Y-15.007
G0 X-23.991 Y-14.998
M566 X1200 Y1200
G1 F3000 X-23.975 Y-14.373 E0.05199
G1 X-23.807 Y-13.774 E0.05173
G1 X-23.493 Y-13.236 E0.0518
G1 X-23.058 Y-12.791 E0.05174
G1 X-22.526 Y-12.467 E0.05179
G1 X-21.931 Y-12.286 E0.05171
G1 X-21.309 Y-12.254 E0.05179
G1 X-20.698 Y-12.38 E0.05187
G1 X-20.139 Y-12.649 E0.05158
G1 X-19.662 Y-13.051 E0.05187
G1 X-19.299 Y-13.558 E0.05185
G1 X-19.072 Y-14.136 E0.05163
G1 X-18.996 Y-14.755 E0.05186
G1 X-19.075 Y-15.372 E0.05172
G1 X-19.304 Y-15.953 E0.05193
G1 X-19.667 Y-16.456 E0.05158
G1 X-20.146 Y-16.858 E0.052
G1 X-20.707 Y-17.126 E0.0517
G1 X-21.321 Y-17.249 E0.05207
G1 X-22.055 Y-17.193 E0.06121
G1 X-22.647 Y-16.977 E0.0524
G1 X-23.159 Y-16.626 E0.05162
G1 X-23.572 Y-16.158 E0.0519
G1 X-23.854 Y-15.603 E0.05176
G1 X-23.991 Y-14.998 E0.05158
M566 X1800 Y1800
G0 F3600 X-24.09 Y-15.007
G0 X-29.18 Y-27.431
G0 X-29.25 Y-27.501
M566 X1200 Y1200
G1 F3000 X29.25 Y-27.501 E4.86429
G1 X29.25 Y40.999 E5.6958
G1 X-29.25 Y40.999 E4.86429
G1 X-29.25 Y-27.501 E5.6958
M566 X1800 Y1800
G0 F3600 X-29.18 Y-27.431
G0 X21.063 Y-12.247
G0 X21.694 Y-12.215
G0 X22.915 Y-12.566
G0 X22.861 Y-12.649
M566 X1200 Y1200
G1 F3000 X23.338 Y-13.051 E0.05187
G1 X23.701 Y-13.558 E0.05185
G1 X23.928 Y-14.136 E0.05163
G1 X24.004 Y-14.755 E0.05186
G1 X23.925 Y-15.372 E0.05172
G1 X23.696 Y-15.953 E0.05193
G1 X23.333 Y-16.456 E0.05158
G1 X22.854 Y-16.858 E0.052
G1 X22.293 Y-17.126 E0.0517
G1 X21.679 Y-17.249 E0.05207
G1 X20.945 Y-17.193 E0.06121
G1 X20.353 Y-16.977 E0.0524
G1 X19.841 Y-16.626 E0.05162
G1 X19.428 Y-16.158 E0.0519
G1 X19.146 Y-15.603 E0.05176
G1 X19.009 Y-14.998 E0.05158
G1 X19.025 Y-14.373 E0.05199
G1 X19.193 Y-13.774 E0.05173
G1 X19.507 Y-13.236 E0.0518
G1 X19.942 Y-12.791 E0.05174
G1 X20.474 Y-12.467 E0.05179
G1 X21.069 Y-12.286 E0.05171
G1 X21.691 Y-12.254 E0.05179
G1 X22.302 Y-12.38 E0.05187
G1 X22.861 Y-12.649 E0.05158
M566 X1800 Y1800
G0 F3600 X23.13 Y-12.234
M566 X1200 Y1200
;TYPE:SKIN
G1 F3000 X23.701 Y-12.716 E0.06213
G1 X24.134 Y-13.323 E0.062
G1 X24.406 Y-14.014 E0.06175
G1 X24.498 Y-14.757 E0.06225
G1 X24.403 Y-15.495 E0.06187
G1 X24.129 Y-16.19 E0.06212
G1 X23.695 Y-16.793 E0.06178
G1 X23.121 Y-17.273 E0.06222
G1 X22.45 Y-17.594 E0.06185
G1 X21.709 Y-17.743 E0.06285
G1 X20.841 Y-17.677 E0.07238
G1 X20.127 Y-17.416 E0.06321
G1 X19.514 Y-16.996 E0.06179
G1 X19.02 Y-16.436 E0.06209
G1 X18.682 Y-15.771 E0.06203
G1 X18.517 Y-15.047 E0.06174
G1 X18.537 Y-14.299 E0.06222
G1 X18.738 Y-13.582 E0.06192
G1 X19.115 Y-12.936 E0.06219
G1 X19.634 Y-12.405 E0.06174
G1 X20.272 Y-12.016 E0.06213
G1 X20.984 Y-11.8 E0.06187
G1 X21.728 Y-11.762 E0.06194
G1 X22.46 Y-11.912 E0.06213
G1 X23.13 Y-12.234 E0.06181
M566 X1800 Y1800
G0 F3600 X23.806 Y-13.766
G0 X28.76 Y-27.011
M566 X1200 Y1200
G1 F3000 X28.76 Y40.509 E5.61431
G1 X-28.76 Y40.509 E4.78281
G1 X-28.76 Y-27.011 E5.61431
G1 X28.76 Y-27.011 E4.78281
M566 X1800 Y1800
G0 F3600 X-18.502 Y-14.757
M566 X1200 Y1200
G1 F3000 X-18.597 Y-15.495 E0.06187
G1 X-18.871 Y-16.19 E0.06212
G1 X-19.305 Y-16.793 E0.06178
G1 X-19.879 Y-17.273 E0.06222
G1 X-20.55 Y-17.594 E0.06185
G1 X-21.291 Y-17.743 E0.06285
G1 X-22.159 Y-17.677 E0.07238
G1 X-22.873 Y-17.416 E0.06321
G1 X-23.486 Y-16.996 E0.06179
G1 X-23.98 Y-16.436 E0.06209
G1 X-24.318 Y-15.771 E0.06203
G1 X-24.483 Y-15.047 E0.06174
G1 X-24.463 Y-14.299 E0.06222
G1 X-24.262 Y-13.582 E0.06192
G1 X-23.885 Y-12.936 E0.06219
G1 X-23.366 Y-12.405 E0.06174
G1 X-22.728 Y-12.016 E0.06213
G1 X-22.016 Y-11.8 E0.06187
G1 X-21.272 Y-11.762 E0.06194
G1 X-20.54 Y-11.912 E0.06213
G1 X-19.87 Y-12.234 E0.06181
G1 X-19.299 Y-12.716 E0.06213
G1 X-18.866 Y-13.323 E0.062
G1 X-18.594 Y-14.014 E0.06175
G1 X-18.502 Y-14.757 E0.06225
M566 X1800 Y1800
G0 F3600 X-19.305 Y26.207
M566 X1200 Y1200
G1 F3000 X-19.879 Y25.727 E0.06222
G1 X-20.551 Y25.406 E0.06192
G1 X-21.292 Y25.257 E0.06285
G1 X-22.159 Y25.323 E0.0723
G1 X-22.873 Y25.584 E0.06321
G1 X-23.486 Y26.004 E0.06179
G1 X-23.98 Y26.564 E0.06209
G1 X-24.318 Y27.229 E0.06203
G1 X-24.483 Y27.953 E0.06174
G1 X-24.463 Y28.701 E0.06222
G1 X-24.262 Y29.418 E0.06192
G1 X-23.885 Y30.064 E0.06219
G1 X-23.366 Y30.595 E0.06174
G1 X-22.728 Y30.984 E0.06213
G1 X-22.016 Y31.2 E0.06187
G1 X-21.272 Y31.238 E0.06194
G1 X-20.54 Y31.088 E0.06213
G1 X-19.869 Y30.765 E0.06192
G1 X-19.299 Y30.284 E0.06202
G1 X-18.866 Y29.677 E0.062
G1 X-18.594 Y28.986 E0.06175
G1 X-18.502 Y28.243 E0.06225
G1 X-18.597 Y27.505 E0.06187
G1 X-18.871 Y26.81 E0.06212
G1 X-19.305 Y26.207 E0.06178
M566 X1800 Y1800
G0 F3600 X21.708 Y25.257
M566 X1200 Y1200
G1 F3000 X20.841 Y25.323 E0.0723
G1 X20.127 Y25.584 E0.06321
G1 X19.514 Y26.004 E0.06179
G1 X19.02 Y26.564 E0.06209
G1 X18.682 Y27.229 E0.06203
G1 X18.517 Y27.953 E0.06174
G1 X18.537 Y28.701 E0.06222
G1 X18.738 Y29.418 E0.06192
G1 X19.115 Y30.064 E0.06219
G1 X19.634 Y30.595 E0.06174
G1 X20.272 Y30.984 E0.06213
G1 X20.984 Y31.2 E0.06187
G1 X21.728 Y31.238 E0.06194
G1 X22.46 Y31.088 E0.06213
G1 X23.131 Y30.765 E0.06192
G1 X23.701 Y30.284 E0.06202
G1 X24.134 Y29.677 E0.062
G1 X24.406 Y28.986 E0.06175
G1 X24.498 Y28.243 E0.06225
G1 X24.403 Y27.505 E0.06187
G1 X24.129 Y26.81 E0.06212
G1 X23.695 Y26.207 E0.06178
G1 X23.121 Y25.727 E0.06222
G1 X22.449 Y25.406 E0.06192
G1 X21.708 Y25.257 E0.06285
M566 X1800 Y1800
G0 F3600 X-28.284 Y40.032
M566 X1200 Y1200
G1 F3000 X-27.849 Y40.032 E0.03617
G1 X-28.284 Y39.597 E0.05115
G1 X-28.284 Y38.89 E0.05879
G1 X-27.142 Y40.032 E0.13429
G1 X-26.435 Y40.032 E0.05879
G1 X-28.284 Y38.183 E0.21743
G1 X-28.284 Y37.475 E0.05887
G1 X-25.728 Y40.032 E0.30062
G1 X-25.02 Y40.032 E0.05887
G1 X-28.284 Y36.768 E0.38382
G1 X-28.284 Y36.061 E0.05879
G1 X-24.313 Y40.032 E0.46696
G1 X-23.606 Y40.032 E0.05879
G1 X-28.284 Y35.354 E0.5501
G1 X-28.284 Y34.647 E0.05879
G1 X-22.899 Y40.032 E0.63323
G1 X-22.192 Y40.032 E0.05879
G1 X-28.284 Y33.94 E0.71637
G1 X-28.284 Y33.233 E0.05879
G1 X-21.485 Y40.032 E0.79951
G1 X-20.778 Y40.032 E0.05879
G1 X-28.284 Y32.526 E0.88265
G1 X-28.284 Y31.819 E0.05879
G1 X-20.071 Y40.032 E0.96579
G1 X-19.364 Y40.032 E0.05879
G1 X-28.284 Y31.111 E1.04898
G1 X-28.284 Y30.404 E0.05879
G1 X-18.657 Y40.032 E1.13212
G1 X-17.949 Y40.032 E0.05887
G1 X-28.284 Y29.697 E1.21532
G1 X-28.284 Y28.99 E0.05879
G1 X-17.242 Y40.032 E1.29845
G1 X-16.535 Y40.032 E0.05879
G1 X-28.284 Y28.283 E1.38159
G1 X-28.284 Y27.576 E0.05879
G1 X-15.828 Y40.032 E1.46473
G1 X-15.121 Y40.032 E0.05879
G1 X-28.284 Y26.869 E1.54787
G1 X-28.284 Y26.162 E0.05879
G1 X-24.505 Y29.941 E0.44438
G1 X-24.265 Y30.353 E0.03965
G1 X-23.664 Y30.968 E0.0715
M566 X1800 Y1800
G0 F3600 X-23.188 Y31.259
M566 X1200 Y1200
G1 F3000 X-14.414 Y40.032 E1.0317
G1 X-13.707 Y40.032 E0.05879
G1 X-22.067 Y31.672 E0.98307
G1 X-21.322 Y31.71 E0.06203
G1 X-13 Y40.032 E0.9786
G1 X-12.293 Y40.032 E0.05879
G1 X-20.716 Y31.609 E0.99048
G1 X-20.387 Y31.541 E0.02793
G1 X-20.177 Y31.44 E0.01938
G1 X-11.585 Y40.032 E1.01035
G1 X-10.878 Y40.032 E0.05879
G1 X-19.7 Y31.21 E1.0374
G1 X-19.609 Y31.166 E0.0084
