;FLAVOR:RepRap
;TIME:514
;Filament used: 1.34201m
;Layer height: 0.3
;MINX:-29.25
;MINY:-11.25
;MINZ:0.4
;MAXX:29.25
;MAXY:11.25
;MAXZ:9.1
;POSTPROCESSED
;Generated with Cura_SteamEngine 4.13.1
T0
M190 S60
M104 S220
M109 S220
M82 ;absolute extrusion mode
G28 ;Home
G1 Z15.0 F6000 ;Move the platform down 15mm
;Prime the extruder
G92 E0
G1 F200 E3
G92 E0
M83 ;relative extrusion mode
G1 F1500 E-6.5
;LAYER_COUNT:30
;LAYER:0
M107 P1
M204 T5000
M566 X1800 Y1800
G0 F3600 X9.866 Y-11.25 Z0.4
M204 P3000
M566 X1200 Y1200
;TYPE:SKIRT
G1 F1500 E6.5
G1 F3000 X11.083 Y-11.233 E0.1012
G1 X13.827 Y-11.233 E0.22816
G1 X14.536 Y-11.248 E0.05897
G1 X14.783 Y-11.25 E0.02054
G1 X24.847 Y-11.25 E0.83682
G1 X25.545 Y-11.24 E0.05804
G1 X26.09 Y-11.192 E0.04549
G1 X26.622 Y-11.065 E0.04548
G1 X27.131 Y-10.862 E0.04557
G1 X27.604 Y-10.588 E0.04545
G1 X28.033 Y-10.247 E0.04557
G1 X28.407 Y-9.848 E0.04547
G1 X28.719 Y-9.398 E0.04553
G1 X28.963 Y-8.908 E0.04552
G1 X29.132 Y-8.387 E0.04554
G1 X29.24 Y-7.595 E0.06646
G1 X29.25 Y-7.17 E0.03535
G1 X29.25 Y6.81 E1.16244
G1 X29.241 Y7.537 E0.06045
G1 X29.194 Y8.083 E0.04557
G1 X29.068 Y8.616 E0.04554
G1 X28.867 Y9.124 E0.04543
G1 X28.593 Y9.598 E0.04552
G1 X28.253 Y10.027 E0.04552
G1 X27.854 Y10.402 E0.04553
G1 X27.405 Y10.716 E0.04556
G1 X26.916 Y10.96 E0.04544
G1 X26.395 Y11.13 E0.04557
G1 X25.596 Y11.24 E0.06706
G1 X25.17 Y11.25 E0.03543
G1 X15.129 Y11.25 E0.83491
G1 X13.912 Y11.233 E0.1012
G1 X11.168 Y11.233 E0.22816
G1 X10.459 Y11.248 E0.05897
G1 X10.212 Y11.25 E0.02054
G1 X-9.868 Y11.25 E1.66966
G1 X-11.083 Y11.233 E0.10104
G1 X-13.823 Y11.233 E0.22783
G1 X-14.514 Y11.248 E0.05747
G1 X-14.785 Y11.25 E0.02253
G1 X-24.841 Y11.25 E0.83616
G1 X-25.539 Y11.241 E0.05804
G1 X-26.085 Y11.194 E0.04557
G1 X-26.617 Y11.068 E0.04546
G1 X-27.126 Y10.866 E0.04553
G1 X-27.6 Y10.592 E0.04552
G1 X-28.029 Y10.252 E0.04552
G1 X-28.404 Y9.853 E0.04553
G1 X-28.717 Y9.404 E0.04551
G1 X-28.961 Y8.914 E0.04552
G1 X-29.131 Y8.394 E0.04549
G1 X-29.24 Y7.592 E0.0673
G1 X-29.25 Y7.158 E0.0361
G1 X-29.25 Y-6.882 E1.16743
G1 X-29.24 Y-7.547 E0.0553
G1 X-29.191 Y-8.093 E0.04558
G1 X-29.064 Y-8.625 E0.04548
G1 X-28.861 Y-9.133 E0.04549
G1 X-28.586 Y-9.607 E0.04557
G1 X-28.245 Y-10.035 E0.0455
G1 X-27.846 Y-10.409 E0.04547
G1 X-27.396 Y-10.721 E0.04553
G1 X-26.905 Y-10.964 E0.04555
G1 X-26.385 Y-11.133 E0.04546
G1 X-25.595 Y-11.24 E0.06629
G1 X-25.17 Y-11.25 E0.03535
G1 X-15.132 Y-11.25 E0.83466
G1 X-13.917 Y-11.233 E0.10104
G1 X-11.177 Y-11.233 E0.22783
G1 X-10.486 Y-11.248 E0.05747
G1 X-10.215 Y-11.25 E0.02253
G1 X9.866 Y-11.25 E1.66974
M566 X1800 Y1800
G0 F3600 X9.859 Y-10.75
M566 X1200 Y1200
G1 F3000 X11.076 Y-10.733 E0.1012
G1 X13.838 Y-10.733 E0.22966
G1 X14.54 Y-10.748 E0.05838
G1 X14.787 Y-10.75 E0.02054
G1 X24.84 Y-10.75 E0.83591
G1 X25.538 Y-10.74 E0.05804
G1 X26.045 Y-10.692 E0.04235
G1 X26.539 Y-10.567 E0.04237
G1 X27.007 Y-10.365 E0.04238
G1 X27.437 Y-10.093 E0.04231
G1 X27.82 Y-9.757 E0.04236
G1 X28.146 Y-9.365 E0.04239
G1 X28.406 Y-8.927 E0.04235
G1 X28.595 Y-8.454 E0.04235
G1 X28.707 Y-7.957 E0.04236
G1 X28.749 Y-7.261 E0.05798
G1 X28.75 Y6.804 E1.16951
G1 X28.741 Y7.531 E0.06045
G1 X28.695 Y8.039 E0.04241
G1 X28.57 Y8.533 E0.04237
G1 X28.369 Y9.001 E0.04235
G1 X28.098 Y9.432 E0.04233
G1 X27.762 Y9.816 E0.04243
G1 X27.371 Y10.142 E0.04233
G1 X26.933 Y10.403 E0.0424
G1 X26.461 Y10.593 E0.04231
G1 X25.964 Y10.706 E0.04238
G1 X25.261 Y10.749 E0.05856
G1 X15.136 Y10.75 E0.8419
G1 X13.919 Y10.733 E0.1012
G1 X11.157 Y10.733 E0.22966
G1 X10.455 Y10.748 E0.05838
G1 X10.208 Y10.75 E0.02054
G1 X-9.861 Y10.75 E1.66874
G1 X-11.076 Y10.733 E0.10104
G1 X-13.834 Y10.733 E0.22933
G1 X-14.518 Y10.748 E0.05689
G1 X-14.789 Y10.75 E0.02253
G1 X-24.835 Y10.75 E0.83533
G1 X-25.533 Y10.741 E0.05804
G1 X-26.04 Y10.694 E0.04234
G1 X-26.534 Y10.569 E0.04237
G1 X-27.002 Y10.368 E0.04235
G1 X-27.434 Y10.097 E0.0424
G1 X-27.817 Y9.761 E0.04236
G1 X-28.143 Y9.37 E0.04233
G1 X-28.404 Y8.932 E0.0424
G1 X-28.593 Y8.459 E0.04235
G1 X-28.707 Y7.962 E0.0424
G1 X-28.749 Y7.246 E0.05964
G1 X-28.75 Y-6.875 E1.17417
G1 X-28.74 Y-7.54 E0.0553
G1 X-28.692 Y-8.047 E0.04235
G1 X-28.566 Y-8.541 E0.04239
G1 X-28.364 Y-9.009 E0.04238
G1 X-28.091 Y-9.439 E0.04235
G1 X-27.755 Y-9.822 E0.04236
G1 X-27.363 Y-10.147 E0.04234
G1 X-26.925 Y-10.407 E0.04235
G1 X-26.451 Y-10.596 E0.04243
G1 X-25.954 Y-10.708 E0.04236
G1 X-25.261 Y-10.749 E0.05772
G1 X-15.139 Y-10.75 E0.84165
G1 X-13.924 Y-10.733 E0.10104
G1 X-11.166 Y-10.733 E0.22933
G1 X-10.482 Y-10.748 E0.05689
G1 X-10.211 Y-10.75 E0.02253
G1 X9.859 Y-10.75 E1.66883
M566 X1800 Y1800
G1 F1500 E-6.5
;MESH:RoboCol25-VregClip2.3mf
G0 F3600 X9.731 Y-8.165
G0 X9.731 Y-6.736
G1 F1500 E6.5
G0 F3600 X10.245 Y-7.25
M566 X1200 Y1200
;TYPE:WALL-OUTER
G1 F3000 X10.245 Y7.25 E1.20568
G1 X-10.25 Y7.25 E1.70417
G1 X-10.25 Y-7.25 E1.20568
G1 X10.245 Y-7.25 E1.70417
M566 X1800 Y1800
G0 F3600 X10.245 Y-7
G0 X9.675 Y-6.68
G0 X2.042 Y2.198
G0 X1.518 Y2.555
G0 X0.918 Y2.758
G0 X-.433 Y2.651
G0 X-.138 Y2.129
M566 X1200 Y1200
G1 F3000 X0.331 Y2.242 E0.04011
G1 X0.819 Y2.222 E0.04061
G1 X1.276 Y2.068 E0.0401
G1 X1.677 Y1.795 E0.04034
G1 X1.987 Y1.423 E0.04026
G1 X2.182 Y0.981 E0.04017
G1 X2.25 Y0.498 E0.04056
G1 X2.182 Y0.017 E0.04039
G1 X1.985 Y-.425 E0.04024
G1 X1.675 Y-.797 E0.04026
G1 X1.272 Y-1.071 E0.04052
G1 X0.813 Y-1.222 E0.04018
G1 X0.524 Y-1.25 E0.02414
G1 X0.041 Y-1.19 E0.04047
G1 X-.403 Y-.999 E0.04019
G1 X-.78 Y-.693 E0.04037
G1 X-1.06 Y-.295 E0.04046
G1 X-1.217 Y0.162 E0.04018
G1 X-1.244 Y0.647 E0.04039
G1 X-1.137 Y1.121 E0.0404
G1 X-.903 Y1.546 E0.04034
G1 X-.563 Y1.89 E0.04022
G1 X-.138 Y2.129 E0.04054
M566 X1800 Y1800
G0 F3600 X0.105 Y2.187
G0 X0.282 Y2.744
M566 X1200 Y1200
;TYPE:WALL-INNER
G1 F3000 X0.911 Y2.719 E0.05234
G1 X1.501 Y2.52 E0.05177
G1 X2.016 Y2.169 E0.05182
G1 X2.416 Y1.689 E0.05195
G1 X2.667 Y1.119 E0.05179
G1 X2.755 Y0.498 E0.05215
G1 X2.667 Y-.122 E0.05207
G1 X2.413 Y-.692 E0.05189
G1 X2.014 Y-1.171 E0.05184
G1 X1.495 Y-1.524 E0.05219
G1 X0.916 Y-1.714 E0.05067
G1 X0.517 Y-1.753 E0.03334
G1 X-0.091 Y-1.677 E0.05095
G1 X-.664 Y-1.431 E0.05185
G1 X-1.149 Y-1.037 E0.05196
G1 X-1.51 Y-.525 E0.05209
G1 X-1.712 Y0.065 E0.05185
G1 X-1.747 Y0.689 E0.05197
G1 X-1.609 Y1.3 E0.05208
G1 X-1.307 Y1.848 E0.05203
G1 X-.869 Y2.291 E0.0518
G1 X-.323 Y2.599 E0.05213
G1 X0.282 Y2.744 E0.05173
M566 X1800 Y1800
G0 F3600 X0.273 Y2.843
G0 X9.675 Y6.68
G0 X9.745 Y6.75
M566 X1200 Y1200
G1 F3000 X-9.75 Y6.75 E1.62102
G1 X-9.75 Y-6.75 E1.12253
G1 X9.745 Y-6.75 E1.62102
G1 X9.745 Y6.75 E1.12253
M566 X1800 Y1800
G0 F3600 X9.255 Y6.26
M566 X1200 Y1200
;TYPE:SKIN
G1 F3000 X-9.26 Y6.26 E1.53953
G1 X-9.26 Y-6.26 E1.04104
G1 X9.255 Y-6.26 E1.53953
G1 X9.255 Y6.26 E1.04104
M566 X1800 Y1800
G0 F3600 X2.837 Y1.95
M566 X1200 Y1200
G1 F3000 X3.143 Y1.254 E0.06322
G1 X3.25 Y0.498 E0.06349
G1 X3.143 Y-.259 E0.06357
G1 X2.833 Y-.953 E0.0632
G1 X2.347 Y-1.537 E0.06318
G1 X1.713 Y-1.969 E0.06379
G1 X1.018 Y-2.196 E0.06079
G1 X0.511 Y-2.246 E0.04236
G1 X-.221 Y-2.155 E0.06133
G1 X-.921 Y-1.854 E0.06336
G1 X-1.51 Y-1.374 E0.06318
G1 X-1.951 Y-.75 E0.06354
G1 X-2.198 Y-0.029 E0.06337
G1 X-2.241 Y0.73 E0.06321
G1 X-2.072 Y1.476 E0.0636
G1 X-1.703 Y2.144 E0.06346
G1 X-1.169 Y2.685 E0.06321
G1 X-.504 Y3.06 E0.06348
G1 X0.233 Y3.236 E0.063
G1 X1.001 Y3.205 E0.06391
G1 X1.721 Y2.963 E0.06316
G1 X2.349 Y2.535 E0.06319
G1 X2.837 Y1.95 E0.06335
M566 X1800 Y1800
G0 F3600 X2.795 Y0.498
G0 X1.924 Y-2.399
M566 X1200 Y1200
G1 F3000 X2.669 Y-1.891 E0.07498
G1 X3.239 Y-1.205 E0.07416
G1 X3.402 Y-.84 E0.03324
G1 X8.779 Y4.536 E0.63224
G1 X8.779 Y5.243 E0.05879
G1 X3.677 Y0.142 E0.5999
G1 X3.727 Y0.497 E0.02981
G1 X3.678 Y0.849 E0.02955
G1 X8.613 Y5.784 E0.58032
G1 X7.906 Y5.784 E0.05879
G1 X3.573 Y1.451 E0.50953
G1 X3.357 Y1.943 E0.04468
G1 X7.199 Y5.784 E0.45173
G1 X6.491 Y5.784 E0.05887
G1 X3.092 Y2.385 E0.3997
G1 X2.77 Y2.77 E0.04173
G1 X5.784 Y5.784 E0.35442
G1 X5.077 Y5.784 E0.05879
G1 X2.38 Y3.087 E0.31715
G1 X1.96 Y3.374 E0.0423
G1 X4.37 Y5.784 E0.2834
G1 X3.663 Y5.784 E0.05879
G1 X1.437 Y3.558 E0.26176
G1 X1.088 Y3.676 E0.03063
G1 X0.857 Y3.686 E0.01923
G1 X2.956 Y5.784 E0.24677
G1 X2.249 Y5.784 E0.05879
G1 X0.173 Y3.709 E0.24406
G1 X-.678 Y3.505 E0.07277
G1 X-.811 Y3.431 E0.01266
G1 X1.542 Y5.784 E0.27669
G1 X0.835 Y5.784 E0.05879
G1 X-8.784 Y-3.834 E1.13106
G1 X-8.784 Y-3.127 E0.05879
G1 X0.127 Y5.784 E1.04787
G1 X-.579 Y5.784 E0.0587
G1 X-8.784 Y-2.42 E0.96479
G1 X-8.784 Y-1.713 E0.05879
G1 X-1.286 Y5.784 E0.88165
G1 X-1.993 Y5.784 E0.05879
G1 X-8.784 Y-1.006 E0.79851
G1 X-8.784 Y-.299 E0.05879
G1 X-2.7 Y5.784 E0.71537
G1 X-3.407 Y5.784 E0.05879
G1 X-8.784 Y0.408 E0.63224
G1 X-8.784 Y1.115 E0.05879
G1 X-4.114 Y5.784 E0.5491
G1 X-4.821 Y5.784 E0.05879
G1 X-8.784 Y1.822 E0.46596
G1 X-8.784 Y2.529 E0.05879
G1 X-5.528 Y5.784 E0.38282
G1 X-6.235 Y5.784 E0.05879
G1 X-8.784 Y3.236 E0.29968
G1 X-8.784 Y3.943 E0.05879
G1 X-6.943 Y5.784 E0.21649
G1 X-7.65 Y5.784 E0.05879
G1 X-8.784 Y4.65 E0.13335
G1 X-8.784 Y5.357 E0.05879
G1 X-8.357 Y5.784 E0.05021
G1 X-8.784 Y5.784 E0.03551
M566 X1800 Y1800
G0 F3600 X-1.46 Y3.066
M566 X1200 Y1200
G1 F3000 X-2.086 Y2.43 E0.0742
G1 X-2.424 Y1.817 E0.05821
G1 X-8.784 Y-4.541 E0.74777
G1 X-8.784 Y-5.248 E0.05879
G1 X-2.704 Y0.83 E0.71484
G1 X-2.718 Y0.77 E0.00512
G1 X-2.682 Y0.145 E0.05206
G1 X-8.613 Y-5.784 E0.69732
G1 X-7.906 Y-5.784 E0.05879
G1 X-2.559 Y-.437 E0.62877
G1 X-2.378 Y-.964 E0.04633
G1 X-7.199 Y-5.784 E0.56685
G1 X-6.491 Y-5.784 E0.05887
G1 X-2.086 Y-1.379 E0.51799
G1 X-1.859 Y-1.701 E0.03276
G1 X-1.772 Y-1.772 E0.00934
G1 X-5.784 Y-5.784 E0.47178
G1 X-5.077 Y-5.784 E0.05879
G1 X-1.383 Y-2.09 E0.43439
G1 X-1.17 Y-2.263 E0.02282
G1 X-.946 Y-2.36 E0.0203
G1 X-4.37 Y-5.784 E0.40264
G1 X-3.663 Y-5.784 E0.05879
G1 X-.451 Y-2.572 E0.37771
G1 X-.347 Y-2.617 E0.00942
G1 X0.149 Y-2.679 E0.04156
G1 X-2.956 Y-5.784 E0.36512
G1 X-2.249 Y-5.784 E0.05879
G1 X0.845 Y-2.689 E0.36389
G1 X1.116 Y-2.662 E0.02265
G1 X1.803 Y-2.438 E0.06008
G1 X-1.542 Y-5.784 E0.39341
G1 X-.835 Y-5.784 E0.05879
G1 X8.779 Y3.829 E1.13047
G1 X8.779 Y3.122 E0.05879
G1 X-.127 Y-5.784 E1.04728
G1 X0.579 Y-5.784 E0.0587
G1 X8.779 Y2.415 E0.9642
G1 X8.779 Y1.708 E0.05879
G1 X1.286 Y-5.784 E0.88106
G1 X1.993 Y-5.784 E0.05879
G1 X8.779 Y1.001 E0.79792
G1 X8.779 Y0.294 E0.05879
G1 X2.7 Y-5.784 E0.71479
G1 X3.407 Y-5.784 E0.05879
G1 X8.779 Y-.412 E0.63171
G1 X8.779 Y-1.12 E0.05887
G1 X4.114 Y-5.784 E0.54851
G1 X4.821 Y-5.784 E0.05879
G1 X8.779 Y-1.827 E0.46537
G1 X8.779 Y-2.534 E0.05879
G1 X5.528 Y-5.784 E0.38223
G1 X6.235 Y-5.784 E0.05879
G1 X8.779 Y-3.241 E0.2991
G1 X8.779 Y-3.948 E0.05879
G1 X6.943 Y-5.784 E0.2159
G1 X7.65 Y-5.784 E0.05879
G1 X8.779 Y-4.655 E0.13276
G1 X8.779 Y-5.362 E0.05879
G1 X8.357 Y-5.784 E0.04962
G1 X8.779 Y-5.785 E0.03509
M566 X1800 Y1800
G1 F1500 E-6.5
;MESH:RoboCol25-VregClip1.3mf
G0 F3600 X9.725 Y-6.68
G0 X11.16 Y-6.68
G0 X13.835 Y-6.68
G0 X15.27 Y-6.68
G1 F1500 E6.5
G0 F3600 X14.75 Y-7.25
M566 X1200 Y1200
;TYPE:WALL-OUTER
G1 F3000 X25.25 Y-7.25 E0.87308
G1 X25.25 Y7.25 E1.20568
G1 X14.75 Y7.25 E0.87308
G1 X14.75 Y-7.25 E1.20568
M566 X1800 Y1800
G0 F3600 X15 Y-7.25
G0 X15.32 Y-6.68
G0 X19.661 Y1.871
G0 X20.107 Y2.322
G0 X21.191 Y2.824
G0 X21.331 Y2.242
M566 X1200 Y1200
G1 F3000 X21.819 Y2.222 E0.04061
G1 X22.276 Y2.068 E0.0401
G1 X22.677 Y1.795 E0.04034
G1 X22.987 Y1.423 E0.04026
G1 X23.182 Y0.981 E0.04017
G1 X23.25 Y0.498 E0.04056
G1 X23.182 Y0.017 E0.04039
G1 X22.985 Y-.425 E0.04024
G1 X22.675 Y-.797 E0.04026
G1 X22.272 Y-1.071 E0.04052
G1 X21.813 Y-1.222 E0.04018
G1 X21.524 Y-1.25 E0.02414
G1 X21.041 Y-1.19 E0.04047
G1 X20.597 Y-.999 E0.04019
G1 X20.22 Y-.693 E0.04037
G1 X19.94 Y-.295 E0.04046
G1 X19.783 Y0.162 E0.04018
G1 X19.756 Y0.647 E0.04039
G1 X19.863 Y1.121 E0.0404
G1 X20.097 Y1.546 E0.04034
G1 X20.437 Y1.89 E0.04022
G1 X20.862 Y2.129 E0.04054
G1 X21.331 Y2.242 E0.04011
M566 X1800 Y1800
G0 F3600 X21.581 Y2.232
G0 X21.603 Y2.832
G0 X22.518 Y2.555
G0 X23.042 Y2.198
G0 X23.763 Y1.146
G0 X23.667 Y1.119
M566 X1200 Y1200
;TYPE:WALL-INNER
G1 F3000 X23.755 Y0.498 E0.05215
G1 X23.667 Y-.122 E0.05207
G1 X23.413 Y-.692 E0.05189
G1 X23.014 Y-1.171 E0.05184
G1 X22.495 Y-1.524 E0.05219
G1 X21.916 Y-1.714 E0.05067
G1 X21.517 Y-1.753 E0.03334
G1 X20.909 Y-1.677 E0.05095
G1 X20.336 Y-1.431 E0.05185
G1 X19.851 Y-1.037 E0.05196
G1 X19.49 Y-.525 E0.05209
G1 X19.288 Y0.065 E0.05185
G1 X19.253 Y0.689 E0.05197
G1 X19.391 Y1.3 E0.05208
G1 X19.693 Y1.848 E0.05203
G1 X20.131 Y2.291 E0.0518
G1 X20.677 Y2.599 E0.05213
G1 X21.282 Y2.744 E0.05173
G1 X21.911 Y2.719 E0.05234
G1 X22.501 Y2.52 E0.05177
G1 X23.016 Y2.169 E0.05182
G1 X23.416 Y1.689 E0.05195
G1 X23.667 Y1.119 E0.05179
M566 X1800 Y1800
G0 F3600 X23.763 Y1.146
G0 X23.795 Y0.498
G0 X23.705 Y-.133
G0 X23.446 Y-.713
G0 X15.32 Y-6.68
G0 X15.25 Y-6.75
M566 X1200 Y1200
G1 F3000 X24.75 Y-6.75 E0.78993
G1 X24.75 Y6.75 E1.12253
G1 X15.25 Y6.75 E0.78993
G1 X15.25 Y-6.75 E1.12253
M566 X1800 Y1800
G0 F3600 X15.74 Y-6.26
M566 X1200 Y1200
;TYPE:SKIN
G1 F3000 X24.26 Y-6.26 E0.70844
G1 X24.26 Y6.26 E1.04104
G1 X15.74 Y6.26 E0.70844
G1 X15.74 Y-6.26 E1.04104
M566 X1800 Y1800
G0 F3600 X19.49 Y-1.374
M566 X1200 Y1200
G1 F3000 X19.049 Y-.75 E0.06354
G1 X18.802 Y-0.029 E0.06337
G1 X18.759 Y0.73 E0.06321
G1 X18.928 Y1.476 E0.0636
G1 X19.297 Y2.144 E0.06346
G1 X19.831 Y2.685 E0.06321
G1 X20.496 Y3.06 E0.06348
G1 X21.233 Y3.236 E0.063
G1 X22.001 Y3.205 E0.06391
G1 X22.721 Y2.963 E0.06316
G1 X23.349 Y2.535 E0.06319
G1 X23.837 Y1.95 E0.06335
G1 X24.143 Y1.254 E0.06322
G1 X24.25 Y0.498 E0.06349
G1 X24.143 Y-.259 E0.06357
G1 X23.833 Y-.953 E0.0632
G1 X23.347 Y-1.537 E0.06318
G1 X22.713 Y-1.969 E0.06379
G1 X22.018 Y-2.196 E0.06079
G1 X21.511 Y-2.246 E0.04236
G1 X20.779 Y-2.155 E0.06133
G1 X20.079 Y-1.854 E0.06336
G1 X19.49 Y-1.374 E0.06318
M566 X1800 Y1800
G0 F3600 X23.784 Y-5.207
M566 X1200 Y1200
G1 F3000 X23.206 Y-5.784 E0.06791
G1 X23.784 Y-5.785 E0.04806
M566 X1800 Y1800
G0 F3600 X23.206 Y-5.784
M566 X1200 Y1200
G1 F3000 X22.499 Y-5.784 E0.05879
G1 X23.784 Y-4.5 E0.15105
G1 X23.784 Y-3.792 E0.05887
G1 X21.792 Y-5.784 E0.23424
G1 X21.085 Y-5.784 E0.05879
G1 X23.784 Y-3.085 E0.31738
G1 X23.784 Y-2.378 E0.05879
G1 X20.378 Y-5.784 E0.40052
G1 X19.671 Y-5.784 E0.05879
G1 X23.338 Y-2.117 E0.43121
G1 X22.922 Y-2.399 E0.04179
G1 X22.116 Y-2.662 E0.0705
G1 X22.082 Y-2.666 E0.00285
G1 X18.963 Y-5.784 E0.36671
G1 X18.256 Y-5.784 E0.05879
G1 X21.338 Y-2.703 E0.36236
G1 X20.709 Y-2.625 E0.0527
G1 X17.549 Y-5.784 E0.37153
G1 X16.842 Y-5.784 E0.05879
G1 X20.202 Y-2.424 E0.39511
G1 X19.829 Y-2.263 E0.03378
G1 X19.733 Y-2.186 E0.01023
G1 X16.214 Y-5.705 E0.41381
G1 X16.214 Y-4.998 E0.05879
G1 X19.344 Y-1.868 E0.36806
G1 X19.139 Y-1.7 E0.02204
G1 X19.001 Y-1.504 E0.01993
G1 X16.214 Y-4.291 E0.32773
G1 X16.214 Y-3.584 E0.05879
G1 X18.707 Y-1.091 E0.29316
G1 X18.62 Y-.968 E0.01253
G1 X18.494 Y-.597 E0.03258
G1 X16.214 Y-2.877 E0.26811
G1 X16.214 Y-2.17 E0.05879
G1 X18.327 Y-0.057 E0.24847
G1 X18.29 Y0.612 E0.05571
G1 X16.214 Y-1.463 E0.24406
G1 X16.214 Y-.755 E0.05887
G1 X18.438 Y1.467 E0.26141
G1 X18.478 Y1.646 E0.01525
G1 X18.912 Y2.431 E0.07458
G1 X19.539 Y3.066 E0.0742
G1 X20.32 Y3.506 E0.07454
M566 X1800 Y1800
G0 F3600 X23.507 Y3.001
M566 X1200 Y1200
G1 F3000 X23.087 Y3.288 E0.0423
G1 X23.784 Y3.985 E0.08196
G1 X23.784 Y4.692 E0.05879
G1 X22.597 Y3.505 E0.13958
G1 X22.087 Y3.676 E0.04473
G1 X22.063 Y3.678 E0.002
G1 X23.784 Y5.399 E0.20238
G1 X23.784 Y5.785 E0.0321
G1 X23.462 Y5.784 E0.02677
G1 X21.382 Y3.705 E0.24453
G1 X21.185 Y3.713 E0.01639
G1 X20.526 Y3.556 E0.05633
G1 X22.755 Y5.784 E0.26205
G1 X22.048 Y5.784 E0.05879
G1 X16.214 Y-0.048 E0.68592
G1 X16.214 Y0.658 E0.0587
G1 X21.341 Y5.784 E0.60284
G1 X20.634 Y5.784 E0.05879
G1 X16.214 Y1.365 E0.5197
G1 X16.214 Y2.072 E0.05879
G1 X19.926 Y5.784 E0.4365
G1 X19.219 Y5.784 E0.05879
G1 X16.214 Y2.779 E0.35336
G1 X16.214 Y3.486 E0.05879
G1 X18.512 Y5.784 E0.27023
G1 X17.805 Y5.784 E0.05879
G1 X16.214 Y4.193 E0.18709
G1 X16.214 Y4.9 E0.05879
G1 X17.098 Y5.784 E0.10395
G1 X16.391 Y5.784 E0.05879
G1 X16.214 Y5.608 E0.02076
G1 X16.214 Y5.784
G1 X16.391 Y5.784 E0.01472
