;FLAVOR:RepRap
;TIME:614
;Filament used: 1.19087m
;Layer height: 0.3
;MINX:-13.25
;MINY:-13.25
;MINZ:0.4
;MAXX:13.25
;MAXY:13.25
;MAXZ:27.1
;POSTPROCESSED
;Generated with Cura_SteamEngine 4.13.1
T0
M190 S80
M104 S235
M109 S235
M82 ;absolute extrusion mode
G28 ;Home
G1 Z15.0 F6000 ;Move the platform down 15mm
;Prime the extruder
G92 E0
G1 F200 E3
G92 E0
M83 ;relative extrusion mode
G1 F1500 E-6.5
;LAYER_COUNT:90
;LAYER:0
M107 P1
M204 T5000
M566 X1800 Y1800
G0 F3600 X13.25 Y8.317 Z0.4
M204 P3000
M566 X1200 Y1200
;TYPE:SKIRT
G1 F1500 E6.5
G1 F3000 X13.241 Y9.044 E0.06045
G1 X13.194 Y9.624 E0.04839
G1 X13.067 Y10.193 E0.04848
G1 X12.865 Y10.74 E0.04849
G1 X12.589 Y11.253 E0.04844
G1 X12.246 Y11.724 E0.04845
G1 X11.841 Y12.144 E0.04851
G1 X11.383 Y12.504 E0.04844
G1 X10.88 Y12.798 E0.04844
G1 X10.342 Y13.021 E0.04843
G1 X9.778 Y13.168 E0.04846
G1 X9.11 Y13.239 E0.05586
G1 X8.67 Y13.25 E0.0366
G1 X-8.348 Y13.25 E1.41505
G1 X-9.046 Y13.241 E0.05804
G1 X-9.627 Y13.193 E0.04847
G1 X-10.195 Y13.067 E0.04838
G1 X-10.742 Y12.864 E0.04851
G1 X-11.255 Y12.588 E0.04844
G1 X-11.726 Y12.244 E0.0485
G1 X-12.145 Y11.84 E0.0484
G1 X-12.505 Y11.381 E0.0485
G1 X-12.799 Y10.878 E0.04844
G1 X-13.021 Y10.339 E0.04847
G1 X-13.168 Y9.775 E0.04846
G1 X-13.239 Y9.106 E0.05594
G1 X-13.25 Y8.658 E0.03726
G1 X-13.25 Y-8.384 E1.41705
G1 X-13.241 Y-9.049 E0.0553
G1 X-13.193 Y-9.629 E0.04839
G1 X-13.066 Y-10.198 E0.04848
G1 X-12.863 Y-10.744 E0.04844
G1 X-12.586 Y-11.257 E0.04848
G1 X-12.243 Y-11.728 E0.04845
G1 X-11.838 Y-12.147 E0.04846
G1 X-11.379 Y-12.507 E0.0485
G1 X-10.876 Y-12.8 E0.0484
G1 X-10.337 Y-13.022 E0.04847
G1 X-9.773 Y-13.168 E0.04844
G1 X-9.11 Y-13.239 E0.05544
G1 X-8.67 Y-13.25 E0.0366
G1 X8.354 Y-13.25 E1.41555
G1 X9.052 Y-13.24 E0.05804
G1 X9.633 Y-13.191 E0.04848
G1 X10.201 Y-13.064 E0.0484
G1 X10.747 Y-12.86 E0.04847
G1 X11.26 Y-12.584 E0.04844
G1 X11.73 Y-12.239 E0.04848
G1 X12.149 Y-11.834 E0.04846
G1 X12.509 Y-11.375 E0.0485
G1 X12.802 Y-10.872 E0.0484
G1 X13.023 Y-10.333 E0.04844
G1 X13.169 Y-9.768 E0.04852
G1 X13.239 Y-9.109 E0.0551
G1 X13.25 Y-8.67 E0.03651
G1 X13.25 Y8.317 E1.41247
M566 X1800 Y1800
G0 F3600 X12.75 Y8.31
M566 X1200 Y1200
G1 F3000 X12.741 Y9.037 E0.06045
G1 X12.694 Y9.583 E0.04557
G1 X12.568 Y10.116 E0.04554
G1 X12.367 Y10.624 E0.04543
G1 X12.093 Y11.098 E0.04552
G1 X11.753 Y11.527 E0.04552
G1 X11.354 Y11.902 E0.04553
G1 X10.905 Y12.216 E0.04556
G1 X10.416 Y12.46 E0.04544
G1 X9.895 Y12.63 E0.04557
G1 X9.096 Y12.74 E0.06706
G1 X8.67 Y12.75 E0.03543
G1 X-8.341 Y12.75 E1.41447
G1 X-9.039 Y12.741 E0.05804
G1 X-9.585 Y12.694 E0.04557
G1 X-10.117 Y12.568 E0.04546
G1 X-10.626 Y12.366 E0.04553
G1 X-11.1 Y12.092 E0.04552
G1 X-11.529 Y11.752 E0.04552
G1 X-11.904 Y11.353 E0.04553
G1 X-12.217 Y10.904 E0.04551
G1 X-12.461 Y10.414 E0.04552
G1 X-12.631 Y9.894 E0.04549
G1 X-12.74 Y9.092 E0.0673
G1 X-12.75 Y8.658 E0.0361
G1 X-12.75 Y-8.377 E1.41647
G1 X-12.741 Y-9.042 E0.0553
G1 X-12.693 Y-9.587 E0.04549
G1 X-12.567 Y-10.12 E0.04554
G1 X-12.365 Y-10.628 E0.04546
G1 X-12.09 Y-11.102 E0.04557
G1 X-11.75 Y-11.531 E0.04552
G1 X-11.351 Y-11.905 E0.04547
G1 X-10.902 Y-12.218 E0.04551
G1 X-10.412 Y-12.462 E0.04552
G1 X-9.891 Y-12.631 E0.04554
G1 X-9.096 Y-12.74 E0.06672
G1 X-8.67 Y-12.75 E0.03543
G1 X8.347 Y-12.75 E1.41497
G1 X9.045 Y-12.74 E0.05804
G1 X9.59 Y-12.692 E0.04549
G1 X10.122 Y-12.565 E0.04548
G1 X10.631 Y-12.362 E0.04557
G1 X11.104 Y-12.088 E0.04545
G1 X11.533 Y-11.747 E0.04557
G1 X11.907 Y-11.348 E0.04547
G1 X12.219 Y-10.898 E0.04553
G1 X12.463 Y-10.408 E0.04552
G1 X12.632 Y-9.887 E0.04554
G1 X12.74 Y-9.095 E0.06646
G1 X12.75 Y-8.67 E0.03535
G1 X12.75 Y8.31 E1.41189
M566 X1800 Y1800
G0 F3600 X12.25 Y8.304
M566 X1200 Y1200
G1 F3000 X12.241 Y9.031 E0.06045
G1 X12.195 Y9.539 E0.04241
G1 X12.07 Y10.033 E0.04237
G1 X11.869 Y10.501 E0.04235
G1 X11.598 Y10.932 E0.04233
G1 X11.262 Y11.316 E0.04243
G1 X10.871 Y11.642 E0.04233
G1 X10.433 Y11.903 E0.0424
G1 X9.961 Y12.093 E0.04231
G1 X9.464 Y12.206 E0.04238
G1 X8.761 Y12.249 E0.05856
G1 X-8.335 Y12.25 E1.42154
G1 X-9.033 Y12.241 E0.05804
G1 X-9.54 Y12.194 E0.04234
G1 X-10.034 Y12.069 E0.04237
G1 X-10.502 Y11.868 E0.04235
G1 X-10.934 Y11.597 E0.0424
G1 X-11.317 Y11.261 E0.04236
G1 X-11.643 Y10.87 E0.04233
G1 X-11.904 Y10.432 E0.0424
G1 X-12.093 Y9.959 E0.04235
G1 X-12.207 Y9.462 E0.0424
G1 X-12.249 Y8.746 E0.05964
G1 X-12.25 Y-8.37 E1.4232
G1 X-12.241 Y-9.035 E0.0553
G1 X-12.194 Y-9.542 E0.04234
G1 X-12.068 Y-10.036 E0.04239
G1 X-11.867 Y-10.504 E0.04235
G1 X-11.595 Y-10.935 E0.04238
G1 X-11.259 Y-11.318 E0.04236
G1 X-10.868 Y-11.644 E0.04233
G1 X-10.43 Y-11.905 E0.0424
G1 X-9.957 Y-12.094 E0.04235
G1 X-9.46 Y-12.207 E0.04238
G1 X-8.761 Y-12.249 E0.05823
G1 X8.34 Y-12.25 E1.42195
G1 X9.038 Y-12.24 E0.05804
G1 X9.545 Y-12.192 E0.04235
G1 X10.039 Y-12.067 E0.04237
G1 X10.507 Y-11.865 E0.04238
G1 X10.937 Y-11.593 E0.04231
G1 X11.32 Y-11.257 E0.04236
G1 X11.646 Y-10.865 E0.04239
G1 X11.906 Y-10.427 E0.04235
G1 X12.095 Y-9.954 E0.04235
G1 X12.207 Y-9.457 E0.04236
G1 X12.249 Y-8.761 E0.05798
G1 X12.25 Y8.304 E1.41896
M566 X1800 Y1800
G1 F1500 E-6.5
;MESH:RoboCol25-pwrMnt.3mf
G0 F3600 X9.665 Y8.304
G0 X8.48 Y8.304
G0 X7.25 Y7.25
M566 X1200 Y1200
;TYPE:WALL-INNER
G1 F1500 E6.5
G1 F3000 X-7.25 Y7.25 E1.20568
G1 X-7.25 Y-7.25 E1.20568
G1 X-3.26 Y-7.25 E0.33177
G1 X-3.355 Y-7.05 E0.01841
G1 X-3.511 Y-6.116 E0.07874
G1 X-3.44 Y-5.314 E0.06695
G1 X-3.201 Y-4.553 E0.06632
G1 X-2.695 Y-3.744 E0.07934
G1 X-1.971 Y-3.09 E0.08113
G1 X-1.096 Y-2.66 E0.08107
G1 X-.159 Y-2.493 E0.07914
G1 X0.662 Y-2.552 E0.06844
G1 X1.544 Y-2.847 E0.07733
G1 X2.233 Y-3.291 E0.06816
G1 X2.882 Y-3.988 E0.07919
G1 X3.322 Y-4.856 E0.08092
G1 X3.509 Y-5.812 E0.081
G1 X3.429 Y-6.764 E0.07944
G1 X3.257 Y-7.25 E0.04287
G1 X7.25 Y-7.25 E0.33202
G1 X7.25 Y7.25 E1.20568
M566 X1800 Y1800
G0 F3600 X7.75 Y7.75
M566 X1200 Y1200
G1 F3000 X-7.75 Y7.75 E1.28883
G1 X-7.75 Y-7.75 E1.28883
G1 X-2.431 Y-7.75 E0.44228
G1 X-2.515 Y-7.654 E0.01061
G1 X-2.873 Y-6.899 E0.06948
G1 X-3.007 Y-6.096 E0.06769
G1 X-2.947 Y-5.412 E0.05709
G1 X-2.743 Y-4.764 E0.05649
G1 X-2.308 Y-4.068 E0.06825
G1 X-1.688 Y-3.508 E0.06947
G1 X-.939 Y-3.14 E0.06939
G1 X-.133 Y-2.996 E0.06808
G1 X0.563 Y-3.046 E0.05802
G1 X1.326 Y-3.301 E0.06689
G1 X1.91 Y-3.677 E0.05775
G1 X2.468 Y-4.277 E0.06813
G1 X2.845 Y-5.02 E0.06928
G1 X3.005 Y-5.839 E0.06939
G1 X2.936 Y-6.658 E0.06834
G1 X2.705 Y-7.313 E0.05775
G1 X2.416 Y-7.75 E0.04356
G1 X7.75 Y-7.75 E0.44352
G1 X7.75 Y7.75 E1.28883
M566 X1800 Y1800
G0 F3600 X8.25 Y8.25
M566 X1200 Y1200
G1 F3000 X-8.25 Y8.25 E1.37198
G1 X-8.25 Y-8.25 E1.37198
G1 X-1.636 Y-8.25 E0.54996
G1 X-1.09 Y-8.25 E0.0454
G1 X-1.636 Y-7.897 E0.0232
G1 X-2.093 Y-7.377 E0.05756
G1 X-2.391 Y-6.748 E0.05787
G1 X-2.503 Y-6.076 E0.05665
G1 X-2.454 Y-5.51 E0.04724
G1 X-2.285 Y-4.975 E0.04665
G1 X-1.921 Y-4.392 E0.05715
G1 X-1.405 Y-3.926 E0.05781
G1 X-.782 Y-3.62 E0.05771
G1 X-.106 Y-3.499 E0.0571
G1 X0.464 Y-3.54 E0.04752
G1 X1.108 Y-3.755 E0.05645
G1 X1.587 Y-4.063 E0.04735
G1 X2.054 Y-4.566 E0.05707
G1 X2.368 Y-5.184 E0.05764
G1 X2.501 Y-5.866 E0.05778
G1 X2.443 Y-6.552 E0.05724
G1 X2.254 Y-7.089 E0.04734
G1 X1.874 Y-7.663 E0.05724
G1 X1.347 Y-8.112 E0.05757
G1 X1.046 Y-8.25 E0.02753
G1 X8.25 Y-8.25 E0.59902
G1 X8.25 Y8.25 E1.37198
M566 X1800 Y1800
G0 F3600 X8.75 Y8.75
M566 X1200 Y1200
;TYPE:WALL-OUTER
G1 F3000 X-8.75 Y8.75 E1.45513
G1 X-8.75 Y-8.75 E1.45513
G1 X8.75 Y-8.75 E1.45513
G1 X8.75 Y8.75 E1.45513
M566 X1800 Y1800
G0 F3600 X8.5 Y8.75
G0 X8.43 Y8.43
G0 X1.079 Y-3.915
G0 X0.89 Y-4.209
M566 X1200 Y1200
G1 F3000 X1.263 Y-4.449 E0.03688
G1 X1.64 Y-4.855 E0.04607
G1 X1.891 Y-5.348 E0.046
G1 X1.997 Y-5.893 E0.04617
G1 X1.95 Y-6.446 E0.04615
G1 X1.803 Y-6.865 E0.03692
G1 X1.496 Y-7.328 E0.04619
G1 X1.076 Y-7.686 E0.04589
G1 X0.572 Y-7.917 E0.0461
G1 X0.022 Y-8 E0.04625
G1 X-.42 Y-7.955 E0.03694
G1 X-.84 Y-7.816 E0.03679
G1 X-1.306 Y-7.515 E0.04613
G1 X-1.671 Y-7.1 E0.04596
G1 X-1.909 Y-6.597 E0.04627
G1 X-1.999 Y-6.056 E0.0456
G1 X-1.961 Y-5.608 E0.03739
G1 X-1.827 Y-5.186 E0.03682
G1 X-1.534 Y-4.716 E0.04605
G1 X-1.122 Y-4.344 E0.04616
G1 X-.625 Y-4.1 E0.04604
G1 X-0.079 Y-4.002 E0.04613
G1 X0.365 Y-4.034 E0.03701
G1 X0.89 Y-4.209 E0.04602
M566 X1800 Y1800
G0 F3600 X1.1 Y-4.344
G0 X1.289 Y-4.05
G0 X2.55 Y-2.912
M566 X1200 Y1200
;TYPE:SKIN
G1 F3000 X3.288 Y-3.704 E0.09001
G1 X3.79 Y-4.695 E0.09237
G1 X4.003 Y-5.785 E0.09235
G1 X3.921 Y-6.76 E0.08136
G1 X6.76 Y-6.76 E0.23606
G1 X6.76 Y6.76 E1.12419
G1 X-6.76 Y6.76 E1.12419
G1 X-6.76 Y-6.76 E1.12419
G1 X-3.901 Y-6.76 E0.23773
G1 X-4.005 Y-6.135 E0.05268
G1 X-3.924 Y-5.218 E0.07655
G1 X-3.65 Y-4.347 E0.07592
G1 X-3.074 Y-3.426 E0.09033
G1 X-2.249 Y-2.68 E0.09249
G1 X-1.25 Y-2.19 E0.09252
G1 X-.185 Y-1.999 E0.08997
G1 X0.758 Y-2.068 E0.07862
G1 X1.758 Y-2.402 E0.08767
G1 X2.55 Y-2.912 E0.07833
M566 X1800 Y1800
G0 F3600 X6.193 Y-6.534
M566 X1200 Y1200
G1 F3000 X6.534 Y-6.193 E0.0401
M566 X1800 Y1800
G0 F3600 X6.534 Y-5.486
M566 X1200 Y1200
G1 F3000 X5.486 Y-6.534 E0.12324
M566 X1800 Y1800
G0 F3600 X4.779 Y-6.534
M566 X1200 Y1200
G1 F3000 X6.534 Y-4.779 E0.20637
M566 X1800 Y1800
G0 F3600 X6.534 Y-4.072
M566 X1200 Y1200
G1 F3000 X4.174 Y-6.432 E0.27752
M566 X1800 Y1800
G0 F3600 X4.212 Y-5.686
M566 X1200 Y1200
G1 F3000 X6.534 Y-3.365 E0.27299
M566 X1800 Y1800
G0 F3600 X6.534 Y-2.658
M566 X1200 Y1200
G1 F3000 X4.096 Y-5.095 E0.28663
M566 X1800 Y1800
G0 F3600 X3.957 Y-4.527
M566 X1200 Y1200
G1 F3000 X6.534 Y-1.95 E0.30304
M566 X1800 Y1800
G0 F3600 X6.534 Y-1.243
M566 X1200 Y1200
G1 F3000 X3.72 Y-4.058 E0.33096
M566 X1800 Y1800
G0 F3600 X3.481 Y-3.589
M566 X1200 Y1200
G1 F3000 X6.534 Y-.536 E0.35901
M566 X1800 Y1800
G0 F3600 X6.534 Y0.17
M566 X1200 Y1200
G1 F3000 X3.144 Y-3.219 E0.39858
M566 X1800 Y1800
G0 F3600 X2.803 Y-2.853
M566 X1200 Y1200
G1 F3000 X6.534 Y0.877 E0.43868
M566 X1800 Y1800
G0 F3600 X6.534 Y1.584
M566 X1200 Y1200
G1 F3000 X2.402 Y-2.547 E0.48583
M566 X1800 Y1800
G0 F3600 X1.972 Y-2.27
M566 X1200 Y1200
G1 F3000 X6.534 Y2.291 E0.5364
M566 X1800 Y1800
G0 F3600 X6.534 Y2.998
M566 X1200 Y1200
G1 F3000 X1.468 Y-2.066 E0.59561
M566 X1800 Y1800
G0 F3600 X0.938 Y-1.89
M566 X1200 Y1200
G1 F3000 X6.534 Y3.705 E0.65799
M566 X1800 Y1800
G0 F3600 X6.534 Y4.413
M566 X1200 Y1200
G1 F3000 X0.312 Y-1.808 E0.7316
M566 X1800 Y1800
G0 F3600 X-.392 Y-1.806
M566 X1200 Y1200
G1 F3000 X6.534 Y5.12 E0.81444
M566 X1800 Y1800
G0 F3600 X6.534 Y5.827
M566 X1200 Y1200
G1 F3000 X-1.254 Y-1.961 E0.91581
G1 X-1.342 Y-2.049
M566 X1800 Y1800
G0 F3600 X-3.998 Y-4.705
M566 X1200 Y1200
G1 F3000 X-5.827 Y-6.534 E0.21508
M566 X1800 Y1800
G0 F3600 X-6.534 Y-6.534
M566 X1200 Y1200
G1 F3000 X6.534 Y6.534 E1.5367
M566 X1800 Y1800
G0 F3600 X5.827 Y6.534
M566 X1200 Y1200
G1 F3000 X-6.534 Y-5.827 E1.45356
M566 X1800 Y1800
G0 F3600 X-6.534 Y-5.12
M566 X1200 Y1200
G1 F3000 X5.12 Y6.534 E1.37042
M566 X1800 Y1800
G0 F3600 X4.413 Y6.534
M566 X1200 Y1200
G1 F3000 X-6.534 Y-4.413 E1.28728
M566 X1800 Y1800
G0 F3600 X-6.534 Y-3.705
M566 X1200 Y1200
G1 F3000 X3.705 Y6.534 E1.20403
M566 X1800 Y1800
G0 F3600 X2.998 Y6.534
M566 X1200 Y1200
G1 F3000 X-6.534 Y-2.998 E1.12089
M566 X1800 Y1800
G0 F3600 X-6.534 Y-2.291
M566 X1200 Y1200
G1 F3000 X2.291 Y6.534 E1.03775
M566 X1800 Y1800
G0 F3600 X1.584 Y6.534
M566 X1200 Y1200
G1 F3000 X-6.534 Y-1.584 E0.95461
M566 X1800 Y1800
G0 F3600 X-6.534 Y-.877
M566 X1200 Y1200
G1 F3000 X0.877 Y6.534 E0.87148
M566 X1800 Y1800
G0 F3600 X0.17 Y6.534
M566 X1200 Y1200
G1 F3000 X-6.534 Y-.17 E0.78834
M566 X1800 Y1800
G0 F3600 X-6.534 Y0.536
M566 X1200 Y1200
G1 F3000 X-.536 Y6.534 E0.70532
M566 X1800 Y1800
G0 F3600 X-1.243 Y6.534
M566 X1200 Y1200
G1 F3000 X-6.534 Y1.243 E0.62218
M566 X1800 Y1800
G0 F3600 X-6.534 Y1.95
M566 X1200 Y1200
G1 F3000 X-1.95 Y6.534 E0.53904
M566 X1800 Y1800
G0 F3600 X-2.658 Y6.534
M566 X1200 Y1200
G1 F3000 X-6.534 Y2.658 E0.45579
M566 X1800 Y1800
G0 F3600 X-6.534 Y3.365
M566 X1200 Y1200
G1 F3000 X-3.365 Y6.534 E0.37265
M566 X1800 Y1800
G0 F3600 X-4.072 Y6.534
M566 X1200 Y1200
G1 F3000 X-6.534 Y4.072 E0.28951
M566 X1800 Y1800
G0 F3600 X-6.534 Y4.779
M566 X1200 Y1200
G1 F3000 X-4.779 Y6.534 E0.20637
M566 X1800 Y1800
G0 F3600 X-5.486 Y6.534
M566 X1200 Y1200
G1 F3000 X-6.534 Y5.486 E0.12324
M566 X1800 Y1800
G0 F3600 X-6.534 Y6.193
M566 X1200 Y1200
G1 F3000 X-6.193 Y6.534 E0.0401
M566 X1800 Y1800
G0 F3600 X-4.183 Y-5.598
M566 X1200 Y1200
G1 F3000 X-5.12 Y-6.534 E0.11013
M566 X1800 Y1800
G0 F3600 X-4.413 Y-6.534
M566 X1200 Y1200
G1 F3000 X-4.2 Y-6.322 E0.02499
M566 X1800 Y1800
;MESH:NONMESH
G0 F600 X-4.2 Y-6.322 Z0.7
G0 F3600 X-.32 Y-2.506
;TIME_ELAPSED:23.395560
;LAYER:1
M106 S42.5 P1
M566 X1200 Y1200
;TYPE:WALL-INNER
;MESH:RoboCol25-pwrMnt.3mf
G1 F4500 X0.477 Y-2.52 E0.04971
G1 X1.377 Y-2.769 E0.05823
G1 X2.09 Y-3.176 E0.0512
G1 X2.775 Y-3.841 E0.05954
G1 X3.259 Y-4.685 E0.06067
G1 X3.495 Y-5.631 E0.0608
G1 X3.464 Y-6.58 E0.05921
G1 X3.269 Y-7.25 E0.04352
G1 X7.25 Y-7.25 E0.24827
G1 X7.25 Y7.25 E0.90426
G1 X-7.25 Y7.25 E0.90426
G1 X-7.25 Y-7.25 E0.90426
G1 X-3.259 Y-7.25 E0.24889
G1 X-3.36 Y-7.019 E0.01572
G1 X-3.511 Y-6.114 E0.05722
G1 X-3.439 Y-5.305 E0.05065
G1 X-3.195 Y-4.54 E0.05008
G1 X-2.687 Y-3.732 E0.05952
G1 X-1.958 Y-3.083 E0.06087
G1 X-1.103 Y-2.667 E0.0593
G1 X-.32 Y-2.506 E0.04985
M566 X1800 Y1800
G0 F5400 X-.274 Y-3.007
M566 X1200 Y1200
G1 F4500 X0.405 Y-3.019 E0.04235
G1 X1.183 Y-3.234 E0.05034
G1 X1.787 Y-3.579 E0.04338
G1 X2.376 Y-4.151 E0.0512
G1 X2.791 Y-4.874 E0.05199
G1 X2.993 Y-5.684 E0.05206
G1 X2.966 Y-6.501 E0.05098
G1 X2.772 Y-7.171 E0.0435
G1 X2.428 Y-7.75 E0.042
G1 X7.75 Y-7.75 E0.33189
G1 X7.75 Y7.75 E0.96662
G1 X-7.75 Y7.75 E0.96662
G1 X-7.75 Y-7.75 E0.96662
G1 X-2.415 Y-7.75 E0.33271
G1 X-2.599 Y-7.514 E0.01866
G1 X-2.877 Y-6.876 E0.0434
G1 X-3.007 Y-6.095 E0.04938
G1 X-2.946 Y-5.404 E0.04326
G1 X-2.738 Y-4.753 E0.04262
G1 X-2.301 Y-4.058 E0.0512
G1 X-1.677 Y-3.502 E0.05212
G1 X-.941 Y-3.144 E0.05104
G1 X-.274 Y-3.007 E0.04246
M566 X1800 Y1800
G0 F5400 X-.228 Y-3.508
M566 X1200 Y1200
G1 F4500 X0.333 Y-3.518 E0.03499
G1 X0.989 Y-3.699 E0.04244
G1 X1.484 Y-3.982 E0.03556
G1 X1.977 Y-4.461 E0.04287
G1 X2.323 Y-5.063 E0.0433
G1 X2.491 Y-5.737 E0.04332
G1 X2.468 Y-6.422 E0.04274
G1 X2.309 Y-6.971 E0.03564
G1 X1.959 Y-7.561 E0.04278
G1 X1.471 Y-8.027 E0.04208
G1 X1.077 Y-8.25 E0.02823
G1 X8.25 Y-8.25 E0.44733
G1 X8.25 Y8.25 E1.02899
G1 X-8.25 Y8.25 E1.02899
G1 X-8.25 Y-8.25 E1.02899
G1 X-1.744 Y-8.25 E0.40573
G1 X-1.07 Y-8.25 E0.04203
G1 X-1.184 Y-8.208 E0.00758
G1 X-1.744 Y-7.798 E0.02597
G1 X-2.166 Y-7.256 E0.04284
G1 X-2.394 Y-6.733 E0.03558
G1 X-2.503 Y-6.076 E0.04153
G1 X-2.453 Y-5.503 E0.03587
G1 X-2.281 Y-4.966 E0.03516
G1 X-1.915 Y-4.384 E0.04288
G1 X-1.396 Y-3.921 E0.04337
G1 X-.779 Y-3.621 E0.04279
G1 X-.228 Y-3.508 E0.03508
M566 X1800 Y1800
G0 F5400 X-.182 Y-4.009
M566 X1200 Y1200
;TYPE:WALL-OUTER
G1 F3000 X0.261 Y-4.017 E0.02763
G1 X0.795 Y-4.164 E0.03454
G1 X1.181 Y-4.385 E0.02774
G1 X1.578 Y-4.771 E0.03453
G1 X1.855 Y-5.252 E0.03461
G1 X1.989 Y-5.79 E0.03458
G1 X1.97 Y-6.343 E0.03451
G1 X1.846 Y-6.771 E0.02779
G1 X1.564 Y-7.247 E0.0345
G1 X1.171 Y-7.622 E0.03388
G1 X0.784 Y-7.841 E0.02773
G1 X0.359 Y-7.967 E0.02764
G1 X0.016 Y-8 E0.02149
G1 X-.426 Y-7.954 E0.02771
G1 X-.945 Y-7.763 E0.03449
G1 X-1.392 Y-7.436 E0.03454
G1 X-1.733 Y-6.998 E0.03462
G1 X-1.911 Y-6.59 E0.02776
G1 X-1.999 Y-6.056 E0.03375
G1 X-1.96 Y-5.602 E0.02842
G1 X-1.824 Y-5.179 E0.02771
G1 X-1.529 Y-4.71 E0.03455
G1 X-1.115 Y-4.34 E0.03463
G1 X-.617 Y-4.098 E0.03453
G1 X-.182 Y-4.009 E0.02769
M566 X1800 Y1800
G0 F5400 X0.068 Y-4.013
G0 X0.073 Y-3.663
G0 X-.708 Y-3.822
G0 X-8.43 Y-8.43
G0 X-8.75 Y-8.75
M566 X1200 Y1200
G1 F3000 X8.75 Y-8.75 E1.09135
G1 X8.75 Y8.75 E1.09135
G1 X-8.75 Y8.75 E1.09135
G1 X-8.75 Y-8.75 E1.09135
M566 X1800 Y1800
G0 F5400 X-8.5 Y-8.75
G0 X-8.43 Y-8.43
G0 X-6.76 Y-6.76
M566 X1200 Y1200
;TYPE:SKIN
G1 F3000 X-3.9 Y-6.76 E0.17836
G1 X-4.005 Y-6.133 E0.03965
G1 X-3.923 Y-5.207 E0.05797
G1 X-3.643 Y-4.332 E0.05729
G1 X-3.065 Y-3.412 E0.06776
G1 X-2.233 Y-2.672 E0.06944
G1 X-1.262 Y-2.199 E0.06736
G1 X-.365 Y-2.016 E0.05709
G1 X0.548 Y-2.032 E0.05695
