;FLAVOR:RepRap
;TIME:280
;Filament used: 0.301629m
;Layer height: 0.2
;MINX:-7.25
;MINY:-30.75
;MINZ:0.4
;MAXX:7.25
;MAXY:30.75
;MAXZ:6
;POSTPROCESSED
;Generated with Cura_SteamEngine 4.13.1
T0
M190 S60
M104 S215
M109 S215
M82 ;absolute extrusion mode
G28 ;Home
G1 Z15.0 F6000 ;Move the platform down 15mm
;Prime the extruder
G92 E0
G1 F200 E3
G92 E0
M83 ;relative extrusion mode
G1 F1500 E-6.5
;LAYER_COUNT:29
;LAYER:0
M107 P1
M204 T5000
M566 X1800 Y1800
G0 F3600 X-7.25 Y-.346 Z0.4
M204 P3000
M566 X1200 Y1200
;TYPE:SKIRT
G1 F1500 E6.5
G1 F3000 X-7.237 Y-1.16 E0.06769
G1 X-7.188 Y-2.289 E0.09397
G1 X-7.147 Y-3.022 E0.06104
G1 X-7.072 Y-5.777 E0.22916
G1 X-7.074 Y-8.459 E0.22301
G1 X-7.225 Y-12.607 E0.34514
G1 X-7.248 Y-13.222 E0.05117
G1 X-7.25 Y-13.33 E0.00898
G1 X-7.25 Y-20.346 E0.58338
G1 X-7.24 Y-21.048 E0.05838
G1 X-7.192 Y-21.594 E0.04558
G1 X-7.065 Y-22.126 E0.04548
G1 X-6.863 Y-22.635 E0.04553
G1 X-6.588 Y-23.108 E0.04549
G1 X-6.307 Y-23.471 E0.03817
G1 X-5.451 Y-24.445 E0.10782
G1 X-3.682 Y-26.513 E0.22628
G1 X-1.937 Y-28.678 E0.23122
G1 X-1.445 Y-29.305 E0.06627
G1 X-1.077 Y-29.71 E0.0455
G1 X-.654 Y-30.057 E0.04549
G1 X-.184 Y-30.338 E0.04553
G1 X0.321 Y-30.549 E0.04551
G1 X0.852 Y-30.683 E0.04554
G1 X1.402 Y-30.74 E0.04598
G1 X1.83 Y-30.75 E0.0356
G1 X2.847 Y-30.75 E0.08456
G1 X3.545 Y-30.74 E0.05804
G1 X4.09 Y-30.692 E0.04549
G1 X4.622 Y-30.565 E0.04548
G1 X5.131 Y-30.362 E0.04557
G1 X5.604 Y-30.088 E0.04545
G1 X6.033 Y-29.747 E0.04557
G1 X6.407 Y-29.348 E0.04547
G1 X6.719 Y-28.898 E0.04553
G1 X6.963 Y-28.408 E0.04552
G1 X7.132 Y-27.887 E0.04554
G1 X7.24 Y-27.095 E0.06646
G1 X7.25 Y-26.67 E0.03535
G1 X7.25 Y-18.654 E0.66653
G1 X7.237 Y-17.842 E0.06753
G1 X7.181 Y-16.524 E0.10969
G1 X7.103 Y-13.819 E0.22502
G1 X7.103 Y-11.095 E0.2265
G1 X7.181 Y-8.315 E0.23125
G1 X7.236 Y-7.196 E0.09316
G1 X7.25 Y-6.67 E0.04375
G1 X7.25 Y1.346 E0.66653
G1 X7.237 Y2.158 E0.06753
G1 X7.181 Y3.476 E0.10969
G1 X7.103 Y6.181 E0.22502
G1 X7.103 Y8.905 E0.2265
G1 X7.181 Y11.685 E0.23125
G1 X7.236 Y12.804 E0.09316
G1 X7.25 Y13.33 E0.04375
G1 X7.25 Y21.346 E0.66653
G1 X7.24 Y22.049 E0.05846
G1 X7.192 Y22.595 E0.04558
G1 X7.065 Y23.127 E0.04548
G1 X6.863 Y23.636 E0.04553
G1 X6.588 Y24.109 E0.04549
G1 X6.085 Y24.703 E0.06472
G1 X5.271 Y25.483 E0.09374
G1 X5.071 Y25.669 E0.02271
G1 X3.132 Y27.577 E0.2262
G1 X1.342 Y29.444 E0.21507
G1 X1.104 Y29.679 E0.02781
G1 X0.684 Y30.031 E0.04557
G1 X0.218 Y30.318 E0.04551
G1 X-.284 Y30.535 E0.04547
G1 X-.813 Y30.676 E0.04552
G1 X-1.405 Y30.74 E0.04951
G1 X-1.83 Y30.75 E0.03535
G1 X-2.841 Y30.75 E0.08406
G1 X-3.539 Y30.741 E0.05804
G1 X-4.085 Y30.694 E0.04557
G1 X-4.617 Y30.568 E0.04546
G1 X-5.126 Y30.366 E0.04553
G1 X-5.6 Y30.092 E0.04552
G1 X-6.029 Y29.752 E0.04552
G1 X-6.404 Y29.353 E0.04553
G1 X-6.717 Y28.904 E0.04551
G1 X-6.961 Y28.414 E0.04552
G1 X-7.131 Y27.894 E0.04549
G1 X-7.24 Y27.092 E0.0673
G1 X-7.25 Y26.658 E0.0361
G1 X-7.25 Y19.654 E0.58238
G1 X-7.237 Y18.842 E0.06753
G1 X-7.188 Y17.711 E0.09413
G1 X-7.147 Y16.978 E0.06104
G1 X-7.072 Y14.223 E0.22916
G1 X-7.074 Y11.54 E0.22309
G1 X-7.225 Y7.393 E0.34505
G1 X-7.248 Y6.778 E0.05117
G1 X-7.25 Y6.67 E0.00898
G1 X-7.25 Y-.346 E0.58338
M566 X1800 Y1800
G0 F3600 X-6.75 Y-.339
M566 X1200 Y1200
G1 F3000 X-6.74 Y-1.046 E0.05879
G1 X-6.689 Y-2.261 E0.10112
G1 X-6.647 Y-3.016 E0.06288
G1 X-6.572 Y-5.763 E0.2285
G1 X-6.574 Y-8.478 E0.22575
G1 X-6.726 Y-12.66 E0.34796
G1 X-6.749 Y-13.236 E0.04793
G1 X-6.75 Y-20.339 E0.59062
G1 X-6.74 Y-21.041 E0.05838
G1 X-6.693 Y-21.549 E0.04242
G1 X-6.567 Y-22.042 E0.04231
G1 X-6.365 Y-22.51 E0.04238
G1 X-6.093 Y-22.941 E0.04238
G1 X-5.931 Y-23.14 E0.02134
G1 X-5.104 Y-24.081 E0.10417
G1 X-3.3 Y-26.191 E0.23083
G1 X-1.545 Y-28.367 E0.23245
G1 X-1.052 Y-28.996 E0.06645
G1 X-.707 Y-29.371 E0.04237
G1 X-.308 Y-29.688 E0.04237
G1 X0.136 Y-29.938 E0.04237
G1 X0.614 Y-30.116 E0.04241
G1 X1.113 Y-30.217 E0.04233
G1 X1.74 Y-30.249 E0.0522
G1 X2.84 Y-30.25 E0.09147
G1 X3.538 Y-30.24 E0.05804
G1 X4.045 Y-30.192 E0.04235
G1 X4.539 Y-30.067 E0.04237
G1 X5.007 Y-29.865 E0.04238
G1 X5.437 Y-29.593 E0.04231
G1 X5.82 Y-29.257 E0.04236
G1 X6.146 Y-28.865 E0.04239
G1 X6.406 Y-28.427 E0.04235
G1 X6.595 Y-27.954 E0.04235
G1 X6.707 Y-27.457 E0.04236
G1 X6.749 Y-26.761 E0.05798
G1 X6.75 Y-18.661 E0.67352
G1 X6.74 Y-17.955 E0.05871
G1 X6.683 Y-16.59 E0.1136
G1 X6.603 Y-13.798 E0.23225
G1 X6.603 Y-11.081 E0.22592
G1 X6.68 Y-8.321 E0.22958
G1 X6.737 Y-7.182 E0.09483
G1 X6.75 Y-6.67 E0.04259
G1 X6.75 Y1.339 E0.66595
G1 X6.74 Y2.045 E0.05871
G1 X6.683 Y3.41 E0.1136
G1 X6.603 Y6.202 E0.23225
G1 X6.603 Y8.919 E0.22592
G1 X6.68 Y11.679 E0.22958
G1 X6.737 Y12.818 E0.09483
G1 X6.75 Y13.33 E0.04259
G1 X6.75 Y21.339 E0.66595
G1 X6.74 Y22.042 E0.05846
G1 X6.693 Y22.55 E0.04242
G1 X6.567 Y23.043 E0.04231
G1 X6.365 Y23.511 E0.04238
G1 X6.093 Y23.942 E0.04238
G1 X5.739 Y24.342 E0.04441
G1 X4.93 Y25.118 E0.09321
G1 X4.714 Y25.32 E0.02459
G1 X2.774 Y27.228 E0.22626
G1 X0.981 Y29.098 E0.21542
G1 X0.755 Y29.321 E0.0264
G1 X0.363 Y29.646 E0.04234
G1 X-0.075 Y29.907 E0.0424
G1 X-.548 Y30.095 E0.04232
G1 X-1.045 Y30.207 E0.04236
G1 X-1.738 Y30.249 E0.05773
G1 X-2.835 Y30.25 E0.09122
G1 X-3.533 Y30.241 E0.05804
G1 X-4.04 Y30.194 E0.04234
G1 X-4.534 Y30.069 E0.04237
G1 X-5.002 Y29.868 E0.04235
G1 X-5.434 Y29.597 E0.0424
G1 X-5.817 Y29.261 E0.04236
G1 X-6.143 Y28.87 E0.04233
G1 X-6.404 Y28.432 E0.0424
G1 X-6.593 Y27.959 E0.04235
G1 X-6.707 Y27.462 E0.0424
G1 X-6.749 Y26.746 E0.05964
G1 X-6.75 Y19.661 E0.58912
G1 X-6.74 Y18.955 E0.05871
G1 X-6.689 Y17.739 E0.1012
G1 X-6.647 Y16.984 E0.06288
G1 X-6.572 Y14.237 E0.2285
G1 X-6.574 Y11.521 E0.22584
G1 X-6.726 Y7.34 E0.34788
G1 X-6.749 Y6.764 E0.04793
G1 X-6.75 Y-.339 E0.59062
M566 X1800 Y1800
G1 F1500 E-6.5
;MESH:RoboCol25-PiMnt.3mf
G0 F3600 X-4.165 Y-.236
G0 X-2.736 Y-.236
G0 X-2.25 Y0.25
M566 X1200 Y1200
;TYPE:WALL-INNER
G1 F1500 E6.5
G1 F3000 X2.25 Y0.25 E0.37418
G1 X2.25 Y0.75 E0.04158
G1 X-2.25 Y0.75 E0.37418
G1 X-2.25 Y0.25 E0.04158
M566 X1800 Y1800
G0 F3600 X-2.75 Y-.25
M566 X1200 Y1200
G1 F3000 X2.25 Y-.25 E0.41575
G1 X2.25 Y-6.25 E0.4989
G1 X2.75 Y-6.25 E0.04158
G1 X2.75 Y-.25 E0.4989
G1 X2.75 Y1.25 E0.12473
G1 X-2.25 Y1.25 E0.41575
G1 X-2.25 Y6.25 E0.41575
G1 X-2.75 Y6.25 E0.04158
G1 X-2.75 Y1.25 E0.41575
G1 X-2.75 Y-.25 E0.12473
M566 X1800 Y1800
G0 F3600 X-3.25 Y-.75
M566 X1200 Y1200
;TYPE:WALL-OUTER
G1 F3000 X1.75 Y-.75 E0.41575
G1 X1.75 Y-6.75 E0.4989
G1 X3.25 Y-6.75 E0.12473
G1 X3.25 Y1.75 E0.70678
G1 X-1.75 Y1.75 E0.41575
G1 X-1.75 Y6.75 E0.41575
G1 X-3.25 Y6.75 E0.12473
G1 X-3.25 Y-.75 E0.62363
M566 X1800 Y1800
G0 F3600 X-3 Y-.75
G0 X-2.25 Y0.103
G1 F1500 E-6.5
;MESH:RoboCol25-PiMnt.3mf(1)
G0 F3600 X-2.25 Y-1.665
G0 X-2.264 Y-12.335
G0 X-2.264 Y-13.764
G0 X-2.25 Y-19.25
M566 X1200 Y1200
;TYPE:WALL-INNER
G1 F1500 E6.5
G1 F3000 X-2.25 Y-19.75 E0.04158
G1 X2.25 Y-19.75 E0.37418
G1 X2.25 Y-19.25 E0.04158
G1 X-2.25 Y-19.25 E0.37418
M566 X1800 Y1800
G0 F3600 X-2.25 Y-18.75
M566 X1200 Y1200
G1 F3000 X-2.25 Y-13.75 E0.41575
G1 X-2.75 Y-13.75 E0.04158
G1 X-2.75 Y-18.75 E0.41575
G1 X-2.75 Y-20.25 E0.12473
G1 X2.25 Y-20.25 E0.41575
G1 X2.25 Y-26.25 E0.4989
G1 X2.75 Y-26.25 E0.04158
G1 X2.75 Y-20.25 E0.4989
G1 X2.75 Y-18.75 E0.12473
G1 X-2.25 Y-18.75 E0.41575
M566 X1800 Y1800
G0 F3600 X-1.75 Y-18.25
M566 X1200 Y1200
;TYPE:WALL-OUTER
G1 F3000 X-1.75 Y-13.25 E0.41575
G1 X-3.25 Y-13.25 E0.12473
G1 X-3.25 Y-20.75 E0.62363
G1 X1.75 Y-20.75 E0.41575
G1 X1.75 Y-26.75 E0.4989
G1 X3.25 Y-26.75 E0.12473
G1 X3.25 Y-18.25 E0.70678
G1 X-1.75 Y-18.25 E0.41575
M566 X1800 Y1800
G0 F3600 X-1.75 Y-18
G1 F1500 E-6.5
;MESH:RoboCol25-PiMnt.3mf(2)
G0 F3600 X-2.35 Y-18
G0 X-2.264 Y-13.764
G0 X-2.264 Y-12.335
G0 X-4.153 Y-1.653
G0 X-4.153 Y7.653
G0 X-2.264 Y18.335
G0 X-2.264 Y19.77
G0 X-2.25 Y20.25
M566 X1200 Y1200
;TYPE:WALL-INNER
G1 F1500 E6.5
G1 F3000 X2.25 Y20.25 E0.37418
G1 X2.25 Y20.75 E0.04158
G1 X-2.25 Y20.75 E0.37418
G1 X-2.25 Y20.25 E0.04158
M566 X1800 Y1800
G0 F3600 X-2.75 Y19.75
M566 X1200 Y1200
G1 F3000 X2.25 Y19.75 E0.41575
G1 X2.25 Y13.75 E0.4989
G1 X2.75 Y13.75 E0.04158
G1 X2.75 Y19.75 E0.4989
G1 X2.75 Y21.25 E0.12473
G1 X-2.25 Y21.25 E0.41575
G1 X-2.25 Y26.25 E0.41575
G1 X-2.75 Y26.25 E0.04158
G1 X-2.75 Y21.25 E0.41575
G1 X-2.75 Y19.75 E0.12473
M566 X1800 Y1800
G0 F3600 X-3.25 Y19.25
M566 X1200 Y1200
;TYPE:WALL-OUTER
G1 F3000 X1.75 Y19.25 E0.41575
G1 X1.75 Y13.25 E0.4989
G1 X3.25 Y13.25 E0.12473
G1 X3.25 Y21.75 E0.70678
G1 X-1.75 Y21.75 E0.41575
G1 X-1.75 Y26.75 E0.41575
G1 X-3.25 Y26.75 E0.12473
G1 X-3.25 Y19.25 E0.62363
M566 X1800 Y1800
G0 F3600 X-3 Y19.25
G0 X-2.25 Y20.103
G1 F1500 E-6.5
;MESH:NONMESH
G0 F600 X-2.25 Y20.103 Z0.6
G0 F3600 X2.264 Y19.764
G0 X0.847 Y18.347
G0 X0.847 Y12.347
G0 X2.264 Y2.665
G0 X2.264 Y1.23
G0 X2.25 Y0.25
;TIME_ELAPSED:17.005762
;LAYER:1
M106 S28.3 P1
M566 X1200 Y1200
;TYPE:WALL-INNER
;MESH:RoboCol25-PiMnt.3mf
G1 F1500 E6.5
G1 F4500 X2.25 Y0.75 E0.02079
G1 X-2.25 Y0.75 E0.18709
G1 X-2.25 Y0.25 E0.02079
G1 X2.25 Y0.25 E0.18709
M566 X1800 Y1800
G0 F5400 X2.25 Y-.25
M566 X1200 Y1200
G1 F4500 X2.25 Y-6.25 E0.24945
G1 X2.75 Y-6.25 E0.02079
G1 X2.75 Y-.25 E0.24945
G1 X2.75 Y1.25 E0.06236
G1 X-2.25 Y1.25 E0.20788
G1 X-2.25 Y6.25 E0.20788
G1 X-2.75 Y6.25 E0.02079
G1 X-2.75 Y1.25 E0.20788
G1 X-2.75 Y-.25 E0.06236
G1 X2.25 Y-.25 E0.20788
M566 X1800 Y1800
G0 F5400 X1.75 Y-.75
M566 X1200 Y1200
;TYPE:WALL-OUTER
G1 F3000 X1.75 Y-6.75 E0.24945
G1 X3.25 Y-6.75 E0.06236
G1 X3.25 Y1.75 E0.35339
G1 X-1.75 Y1.75 E0.20788
G1 X-1.75 Y6.75 E0.20788
G1 X-3.25 Y6.75 E0.06236
G1 X-3.25 Y-.75 E0.31181
G1 X1.75 Y-.75 E0.20788
M566 X1800 Y1800
G0 F5400 X1.75 Y-1
G1 F1500 E-6.5
;MESH:RoboCol25-PiMnt.3mf(1)
G0 F5400 X2.35 Y-1
G0 X2.264 Y-6.236
G0 X2.264 Y-7.665
G0 X2.264 Y-17.335
G0 X2.264 Y-18.77
G0 X2.25 Y-19.25
M566 X1200 Y1200
;TYPE:WALL-INNER
G1 F1500 E6.5
G1 F4500 X-2.25 Y-19.25 E0.18709
G1 X-2.25 Y-19.75 E0.02079
G1 X2.25 Y-19.75 E0.18709
G1 X2.25 Y-19.25 E0.02079
M566 X1800 Y1800
G0 F5400 X2.75 Y-18.75
M566 X1200 Y1200
G1 F4500 X-2.25 Y-18.75 E0.20788
G1 X-2.25 Y-13.75 E0.20788
G1 X-2.75 Y-13.75 E0.02079
G1 X-2.75 Y-18.75 E0.20788
G1 X-2.75 Y-20.25 E0.06236
G1 X2.25 Y-20.25 E0.20788
G1 X2.25 Y-26.25 E0.24945
G1 X2.75 Y-26.25 E0.02079
G1 X2.75 Y-20.25 E0.24945
G1 X2.75 Y-18.75 E0.06236
M566 X1800 Y1800
G0 F5400 X3.25 Y-18.25
M566 X1200 Y1200
;TYPE:WALL-OUTER
G1 F3000 X-1.75 Y-18.25 E0.20788
G1 X-1.75 Y-13.25 E0.20788
G1 X-3.25 Y-13.25 E0.06236
G1 X-3.25 Y-20.75 E0.31181
G1 X1.75 Y-20.75 E0.20788
G1 X1.75 Y-26.75 E0.24945
G1 X3.25 Y-26.75 E0.06236
G1 X3.25 Y-18.25 E0.35339
M566 X1800 Y1800
G0 F5400 X3 Y-18.25
G0 X2.25 Y-19.103
G1 F1500 E-6.5
;MESH:RoboCol25-PiMnt.3mf(2)
G0 F5400 X2.25 Y-17.335
G0 X4.153 Y-7.653
G0 X4.153 Y2.653
G0 X2.264 Y12.335
G0 X2.264 Y13.764
G0 X2.25 Y20.25
M566 X1200 Y1200
;TYPE:WALL-INNER
G1 F1500 E6.5
G1 F4500 X2.25 Y20.75 E0.02079
G1 X-2.25 Y20.75 E0.18709
G1 X-2.25 Y20.25 E0.02079
G1 X2.25 Y20.25 E0.18709
M566 X1800 Y1800
G0 F5400 X2.25 Y19.75
M566 X1200 Y1200
G1 F4500 X2.25 Y13.75 E0.24945
G1 X2.75 Y13.75 E0.02079
G1 X2.75 Y19.75 E0.24945
G1 X2.75 Y21.25 E0.06236
G1 X-2.25 Y21.25 E0.20788
G1 X-2.25 Y26.25 E0.20788
G1 X-2.75 Y26.25 E0.02079
G1 X-2.75 Y21.25 E0.20788
G1 X-2.75 Y19.75 E0.06236
G1 X2.25 Y19.75 E0.20788
M566 X1800 Y1800
G0 F5400 X1.75 Y19.25
M566 X1200 Y1200
;TYPE:WALL-OUTER
G1 F3000 X1.75 Y13.25 E0.24945
G1 X3.25 Y13.25 E0.06236
G1 X3.25 Y21.75 E0.35339
G1 X-1.75 Y21.75 E0.20788
G1 X-1.75 Y26.75 E0.20788
G1 X-3.25 Y26.75 E0.06236
G1 X-3.25 Y19.25 E0.31181
G1 X1.75 Y19.25 E0.20788
M566 X1800 Y1800
G0 F5400 X1.75 Y19
G1 F1500 E-6.5
;MESH:NONMESH
G0 F600 X1.75 Y19 Z0.8
G0 F5400 X2.35 Y19
G0 X2.264 Y13.764
G0 X2.264 Y12.335
G0 X2.264 Y2.665
G0 X2.264 Y1.23
G0 X2.25 Y0.25
;TIME_ELAPSED:24.651430
;LAYER:2
M106 S56.7 P1
M566 X1200 Y1200
;TYPE:WALL-INNER
;MESH:RoboCol25-PiMnt.3mf
G1 F1500 E6.5
G1 F5987.4 X2.25 Y0.75 E0.02079
G1 X-2.25 Y0.75 E0.18709
G1 X-2.25 Y0.25 E0.02079
G1 X2.25 Y0.25 E0.18709
M566 X1800 Y1800
G0 F7200 X2.25 Y-.25
M566 X1200 Y1200
G1 F5987.4 X2.25 Y-6.25 E0.24945
G1 X2.75 Y-6.25 E0.02079
G1 X2.75 Y-.25 E0.24945
G1 X2.75 Y1.25 E0.06236
G1 X-2.25 Y1.25 E0.20788
G1 X-2.25 Y6.25 E0.20788
G1 X-2.75 Y6.25 E0.02079
G1 X-2.75 Y1.25 E0.20788
G1 X-2.75 Y-.25 E0.06236
G1 X2.25 Y-.25 E0.20788
M566 X1800 Y1800
G0 F7200 X1.75 Y-.75
M566 X1200 Y1200
;TYPE:WALL-OUTER
G1 F2993.7 X1.75 Y-6.75 E0.24945
G1 X3.25 Y-6.75 E0.06236
G1 X3.25 Y1.75 E0.35339
G1 X-1.75 Y1.75 E0.20788
G1 X-1.75 Y6.75 E0.20788
G1 X-3.25 Y6.75 E0.06236
G1 X-3.25 Y-.75 E0.31181
G1 X1.75 Y-.75 E0.20788
M566 X1800 Y1800
G0 F7200 X1.75 Y-1
G1 F1500 E-6.5
;MESH:RoboCol25-PiMnt.3mf(1)
G0 F7200 X2.35 Y-1
G0 X2.264 Y-6.236
G0 X2.264 Y-7.665
G0 X2.264 Y-17.335
G0 X2.264 Y-18.77
G0 X2.25 Y-19.25
M566 X1200 Y1200
;TYPE:WALL-INNER
G1 F1500 E6.5
G1 F5987.4 X-2.25 Y-19.25 E0.18709
G1 X-2.25 Y-19.75 E0.02079
G1 X2.25 Y-19.75 E0.18709
G1 X2.25 Y-19.25 E0.02079
M566 X1800 Y1800
G0 F7200 X2.75 Y-18.75
M566 X1200 Y1200
G1 F5987.4 X-2.25 Y-18.75 E0.20788
G1 X-2.25 Y-13.75 E0.20788
G1 X-2.75 Y-13.75 E0.02079
G1 X-2.75 Y-18.75 E0.20788
G1 X-2.75 Y-20.25 E0.06236
G1 X2.25 Y-20.25 E0.20788
G1 X2.25 Y-26.25 E0.24945
G1 X2.75 Y-26.25 E0.02079
G1 X2.75 Y-20.25 E0.24945
G1 X2.75 Y-18.75 E0.06236
M566 X1800 Y1800
G0 F7200 X3.25 Y-18.25
M566 X1200 Y1200
;TYPE:WALL-OUTER
G1 F2993.7 X-1.75 Y-18.25 E0.20788
G1 X-1.75 Y-13.25 E0.20788
G1 X-3.25 Y-13.25 E0.06236
G1 X-3.25 Y-20.75 E0.31181
G1 X1.75 Y-20.75 E0.20788
G1 X1.75 Y-26.75 E0.24945
G1 X3.25 Y-26.75 E0.06236
G1 X3.25 Y-18.25 E0.35339
M566 X1800 Y1800
G0 F7200 X3 Y-18.25
G0 X2.25 Y-19.103
G1 F1500 E-6.5
;MESH:RoboCol25-PiMnt.3mf(2)
G0 F7200 X2.25 Y-17.335
G0 X4.153 Y-7.653
G0 X4.153 Y2.653
G0 X2.264 Y12.335
G0 X2.264 Y13.764
G0 X2.25 Y20.25
M566 X1200 Y1200
;TYPE:WALL-INNER
G1 F1500 E6.5
G1 F5987.4 X2.25 Y20.75 E0.02079
G1 X-2.25 Y20.75 E0.18709
G1 X-2.25 Y20.25 E0.02079
G1 X2.25 Y20.25 E0.18709
M566 X1800 Y1800
G0 F7200 X2.25 Y19.75
M566 X1200 Y1200
G1 F5987.4 X2.25 Y13.75 E0.24945
G1 X2.75 Y13.75 E0.02079
G1 X2.75 Y19.75 E0.24945
G1 X2.75 Y21.25 E0.06236
G1 X-2.25 Y21.25 E0.20788
G1 X-2.25 Y26.25 E0.20788
G1 X-2.75 Y26.25 E0.02079
G1 X-2.75 Y21.25 E0.20788
G1 X-2.75 Y19.75 E0.06236
G1 X2.25 Y19.75 E0.20788
M566 X1800 Y1800
G0 F7200 X1.75 Y19.25
M566 X1200 Y1200
;TYPE:WALL-OUTER
G1 F2993.7 X1.75 Y13.25 E0.24945
G1 X3.25 Y13.25 E0.06236
G1 X3.25 Y21.75 E0.35339
G1 X-1.75 Y21.75 E0.20788
G1 X-1.75 Y26.75 E0.20788
G1 X-3.25 Y26.75 E0.06236
G1 X-3.25 Y19.25 E0.31181
G1 X1.75 Y19.25 E0.20788
M566 X1800 Y1800
G0 F7200 X1.75 Y19
G1 F1500 E-6.5
;MESH:NONMESH
G0 F600 X1.75 Y19 Z1
G0 F7200 X2.35 Y19
G0 X2.264 Y13.764
G0 X2.264 Y12.335
G0 X2.264 Y2.665
G0 X2.264 Y1.23
G0 X2.25 Y0.25
;TIME_ELAPSED:31.850933
;LAYER:3
M106 S85 P1
M566 X1200 Y1200
;TYPE:WALL-INNER
;MESH:RoboCol25-PiMnt.3mf
G1 F1500 E6.5
G1 F5987.4 X2.25 Y0.75 E0.02079
G1 X-2.25 Y0.75 E0.18709
G1 X-2.25 Y0.25 E0.02079
G1 X2.25 Y0.25 E0.18709
M566 X1800 Y1800
G0 F7200 X2.25 Y-.25
M566 X1200 Y1200
G1 F5987.4 X2.25 Y-6.25 E0.24945
G1 X2.75 Y-6.25 E0.02079
G1 X2.75 Y-.25 E0.24945
G1 X2.75 Y1.25 E0.06236
G1 X-2.25 Y1.25 E0.20788
G1 X-2.25 Y6.25 E0.20788
G1 X-2.75 Y6.25 E0.02079
G1 X-2.75 Y1.25 E0.20788
G1 X-2.75 Y-.25 E0.06236
G1 X2.25 Y-.25 E0.20788
M566 X1800 Y1800
G0 F7200 X1.75 Y-.75
M566 X1200 Y1200
;TYPE:WALL-OUTER
G1 F2993.7 X1.75 Y-6.75 E0.24945
G1 X3.25 Y-6.75 E0.06236
G1 X3.25 Y1.75 E0.35339
G1 X-1.75 Y1.75 E0.20788
G1 X-1.75 Y6.75 E0.20788
G1 X-3.25 Y6.75 E0.06236
G1 X-3.25 Y-.75 E0.31181
G1 X1.75 Y-.75 E0.20788
M566 X1800 Y1800
G0 F7200 X1.75 Y-1
G1 F1500 E-6.5
;MESH:RoboCol25-PiMnt.3mf(1)
G0 F7200 X2.35 Y-1
G0 X2.264 Y-6.236
G0 X2.264 Y-7.665
G0 X2.264 Y-17.335
G0 X2.264 Y-18.77
G0 X2.25 Y-19.25
M566 X1200 Y1200
;TYPE:WALL-INNER
G1 F1500 E6.5
G1 F5987.4 X-2.25 Y-19.25 E0.18709
G1 X-2.25 Y-19.75 E0.02079
G1 X2.25 Y-19.75 E0.18709
G1 X2.25 Y-19.25 E0.02079
M566 X1800 Y1800
G0 F7200 X2.75 Y-18.75
M566 X1200 Y1200
G1 F5987.4 X-2.25 Y-18.75 E0.20788
G1 X-2.25 Y-13.75 E0.20788
G1 X-2.75 Y-13.75 E0.02079
G1 X-2.75 Y-18.75 E0.20788
G1 X-2.75 Y-20.25 E0.06236
G1 X2.25 Y-20.25 E0.20788
