;FLAVOR:RepRap
;TIME:357
;Filament used: 0.492798m
;Layer height: 0.2
;MINX:-17
;MINY:-15.75
;MINZ:0.4
;MAXX:17
;MAXY:15.75
;MAXZ:6
;POSTPROCESSED
;Generated with Cura_SteamEngine 4.13.1
T0
M190 S60
M104 S215
M109 S215
M82 ;absolute extrusion mode
G28 ;Home
G1 Z15.0 F6000 ;Move the platform down 15mm
;Prime the extruder
G92 E0
G1 F200 E3
G92 E0
M83 ;relative extrusion mode
G1 F1500 E-6.5
;LAYER_COUNT:29
;LAYER:0
M107 P1
M204 T5000
M566 X1800 Y1800
G0 F3600 X1.309 Y-15.491 Z0.4
M204 P3000
M566 X1200 Y1200
;TYPE:SKIRT
G1 F1500 E6.5
G1 F3000 X4.002 Y-15.567 E0.22401
G1 X5.606 Y-15.658 E0.13359
G1 X5.687 Y-15.657 E0.00674
G1 X7.014 Y-15.734 E0.11053
G1 X7.58 Y-15.75 E0.04708
G1 X12.104 Y-15.75 E0.37617
G1 X12.802 Y-15.74 E0.05804
G1 X13.383 Y-15.691 E0.04848
G1 X13.951 Y-15.564 E0.0484
G1 X14.497 Y-15.36 E0.04847
G1 X15.01 Y-15.084 E0.04844
G1 X15.48 Y-14.739 E0.04848
G1 X15.899 Y-14.334 E0.04846
G1 X16.259 Y-13.875 E0.0485
G1 X16.552 Y-13.372 E0.0484
G1 X16.773 Y-12.833 E0.04844
G1 X16.919 Y-12.268 E0.04852
G1 X16.989 Y-11.609 E0.0551
G1 X17 Y-11.17 E0.03651
G1 X17 Y10.817 E1.82823
G1 X16.991 Y11.544 E0.06045
G1 X16.944 Y12.124 E0.04839
G1 X16.817 Y12.693 E0.04848
G1 X16.615 Y13.24 E0.04849
G1 X16.339 Y13.753 E0.04844
G1 X15.996 Y14.224 E0.04845
G1 X15.591 Y14.644 E0.04851
G1 X15.133 Y15.004 E0.04844
G1 X14.63 Y15.298 E0.04844
G1 X14.092 Y15.521 E0.04843
G1 X13.528 Y15.668 E0.04846
G1 X12.86 Y15.739 E0.05586
G1 X12.42 Y15.75 E0.0366
G1 X-12.098 Y15.75 E2.03868
G1 X-12.796 Y15.741 E0.05804
G1 X-13.377 Y15.693 E0.04847
G1 X-13.945 Y15.567 E0.04838
G1 X-14.492 Y15.364 E0.04851
G1 X-15.005 Y15.088 E0.04844
G1 X-15.476 Y14.744 E0.0485
G1 X-15.895 Y14.34 E0.0484
G1 X-16.255 Y13.881 E0.0485
G1 X-16.549 Y13.378 E0.04844
G1 X-16.771 Y12.839 E0.04847
G1 X-16.918 Y12.275 E0.04846
G1 X-16.989 Y11.606 E0.05594
G1 X-17 Y11.158 E0.03726
G1 X-17 Y-10.884 E1.8328
G1 X-16.991 Y-11.549 E0.0553
G1 X-16.943 Y-12.129 E0.04839
G1 X-16.816 Y-12.698 E0.04848
G1 X-16.613 Y-13.244 E0.04844
G1 X-16.336 Y-13.757 E0.04848
G1 X-15.993 Y-14.228 E0.04845
G1 X-15.588 Y-14.647 E0.04846
G1 X-15.129 Y-15.007 E0.0485
G1 X-14.626 Y-15.3 E0.0484
G1 X-14.087 Y-15.522 E0.04847
G1 X-13.523 Y-15.668 E0.04844
G1 X-12.86 Y-15.739 E0.05544
G1 X-12.42 Y-15.75 E0.0366
G1 X-7.897 Y-15.75 E0.37609
G1 X-7.189 Y-15.74 E0.05888
G1 X-6.864 Y-15.723 E0.02706
G1 X-4.115 Y-15.567 E0.22895
G1 X-1.422 Y-15.491 E0.22401
G1 X1.309 Y-15.491 E0.22708
M566 X1800 Y1800
G0 F3600 X1.323 Y-14.991
M566 X1200 Y1200
G1 F3000 X4.008 Y-15.067 E0.22335
G1 X5.634 Y-15.159 E0.13542
G1 X5.711 Y-15.158 E0.0064
G1 X7.155 Y-15.24 E0.12026
G1 X7.58 Y-15.25 E0.03535
G1 X12.097 Y-15.25 E0.37559
G1 X12.795 Y-15.24 E0.05804
G1 X13.34 Y-15.192 E0.04549
G1 X13.872 Y-15.065 E0.04548
G1 X14.381 Y-14.862 E0.04557
G1 X14.854 Y-14.588 E0.04545
G1 X15.283 Y-14.247 E0.04557
G1 X15.657 Y-13.848 E0.04547
G1 X15.969 Y-13.398 E0.04553
G1 X16.213 Y-12.908 E0.04552
G1 X16.382 Y-12.387 E0.04554
G1 X16.49 Y-11.595 E0.06646
G1 X16.5 Y-11.17 E0.03535
G1 X16.5 Y10.81 E1.82764
G1 X16.491 Y11.537 E0.06045
G1 X16.444 Y12.083 E0.04557
G1 X16.318 Y12.616 E0.04554
G1 X16.117 Y13.124 E0.04543
G1 X15.843 Y13.598 E0.04552
G1 X15.503 Y14.027 E0.04552
G1 X15.104 Y14.402 E0.04553
G1 X14.655 Y14.716 E0.04556
G1 X14.166 Y14.96 E0.04544
G1 X13.645 Y15.13 E0.04557
G1 X12.846 Y15.24 E0.06706
G1 X12.42 Y15.25 E0.03543
G1 X-12.091 Y15.25 E2.0381
G1 X-12.789 Y15.241 E0.05804
G1 X-13.335 Y15.194 E0.04557
G1 X-13.867 Y15.068 E0.04546
G1 X-14.376 Y14.866 E0.04553
G1 X-14.85 Y14.592 E0.04552
G1 X-15.279 Y14.252 E0.04552
G1 X-15.654 Y13.853 E0.04553
G1 X-15.967 Y13.404 E0.04551
G1 X-16.211 Y12.914 E0.04552
G1 X-16.381 Y12.394 E0.04549
G1 X-16.49 Y11.592 E0.0673
G1 X-16.5 Y11.158 E0.0361
G1 X-16.5 Y-10.877 E1.83222
G1 X-16.491 Y-11.542 E0.0553
G1 X-16.443 Y-12.087 E0.04549
G1 X-16.317 Y-12.62 E0.04554
G1 X-16.115 Y-13.128 E0.04546
G1 X-15.84 Y-13.602 E0.04557
G1 X-15.5 Y-14.031 E0.04552
G1 X-15.101 Y-14.405 E0.04547
G1 X-14.652 Y-14.718 E0.04551
G1 X-14.162 Y-14.962 E0.04552
G1 X-13.641 Y-15.131 E0.04554
G1 X-12.846 Y-15.24 E0.06672
G1 X-12.42 Y-15.25 E0.03543
G1 X-7.904 Y-15.25 E0.37551
G1 X-7.196 Y-15.24 E0.05888
G1 X-4.121 Y-15.067 E0.25609
G1 X-1.436 Y-14.991 E0.22335
G1 X1.323 Y-14.991 E0.22941
M566 X1800 Y1800
G0 F3600 X1.301 Y-14.491
M566 X1200 Y1200
G1 F3000 X4.05 Y-14.569 E0.22867
G1 X5.662 Y-14.66 E0.13425
G1 X5.734 Y-14.658 E0.00599
G1 X7.072 Y-14.736 E0.11144
G1 X7.58 Y-14.75 E0.04226
G1 X12.09 Y-14.75 E0.37501
G1 X12.788 Y-14.74 E0.05804
G1 X13.295 Y-14.692 E0.04235
G1 X13.789 Y-14.567 E0.04237
G1 X14.257 Y-14.365 E0.04238
G1 X14.687 Y-14.093 E0.04231
G1 X15.07 Y-13.757 E0.04236
G1 X15.396 Y-13.365 E0.04239
G1 X15.656 Y-12.927 E0.04235
G1 X15.845 Y-12.454 E0.04235
G1 X15.957 Y-11.957 E0.04236
G1 X15.999 Y-11.261 E0.05798
G1 X16 Y10.804 E1.83471
G1 X15.991 Y11.531 E0.06045
G1 X15.945 Y12.039 E0.04241
G1 X15.82 Y12.533 E0.04237
G1 X15.619 Y13.001 E0.04235
G1 X15.348 Y13.432 E0.04233
G1 X15.012 Y13.816 E0.04243
G1 X14.621 Y14.142 E0.04233
G1 X14.183 Y14.403 E0.0424
G1 X13.711 Y14.593 E0.04231
G1 X13.214 Y14.706 E0.04238
G1 X12.511 Y14.749 E0.05856
G1 X-12.085 Y14.75 E2.04517
G1 X-12.783 Y14.741 E0.05804
G1 X-13.29 Y14.694 E0.04234
G1 X-13.784 Y14.569 E0.04237
G1 X-14.252 Y14.368 E0.04235
G1 X-14.684 Y14.097 E0.0424
G1 X-15.067 Y13.761 E0.04236
G1 X-15.393 Y13.37 E0.04233
G1 X-15.654 Y12.932 E0.0424
G1 X-15.843 Y12.459 E0.04235
G1 X-15.957 Y11.962 E0.0424
G1 X-15.999 Y11.246 E0.05964
G1 X-16 Y-10.87 E1.83895
G1 X-15.991 Y-11.535 E0.0553
G1 X-15.944 Y-12.042 E0.04234
G1 X-15.818 Y-12.536 E0.04239
G1 X-15.617 Y-13.004 E0.04235
G1 X-15.345 Y-13.435 E0.04238
G1 X-15.009 Y-13.818 E0.04236
G1 X-14.618 Y-14.144 E0.04233
G1 X-14.18 Y-14.405 E0.0424
G1 X-13.707 Y-14.594 E0.04235
G1 X-13.21 Y-14.707 E0.04238
G1 X-12.511 Y-14.749 E0.05823
G1 X-7.911 Y-14.75 E0.38249
G1 X-7.203 Y-14.74 E0.05888
G1 X-4.163 Y-14.569 E0.25318
G1 X-1.414 Y-14.491 E0.22867
G1 X1.301 Y-14.491 E0.22575
M566 X1800 Y1800
G1 F1500 E-6.5
;MESH:RoboCol25-ImuMnt.3mf
G0 F3600 X6.585 Y-10.736
G0 X8.014 Y-10.736
G0 X9 Y-9.75
M566 X1200 Y1200
;TYPE:WALL-INNER
G1 F1500 E6.5
G1 F3000 X11 Y-9.75 E0.1663
G1 X11 Y9.75 E1.62143
G1 X-11 Y9.75 E1.82931
G1 X-11 Y-9.75 E1.62143
G1 X-9 Y-9.75 E0.1663
G1 X-9 Y-5.75 E0.3326
G1 X9 Y-5.75 E1.49671
G1 X9 Y-9.75 E0.3326
M566 X1800 Y1800
G0 F3600 X8.5 Y-10.25
M566 X1200 Y1200
G1 F3000 X11.5 Y-10.25 E0.24945
G1 X11.5 Y10.25 E1.70458
G1 X-11.5 Y10.25 E1.91246
G1 X-11.5 Y-10.25 E1.70458
G1 X-8.5 Y-10.25 E0.24945
G1 X-8.5 Y-6.25 E0.3326
G1 X8.5 Y-6.25 E1.41356
G1 X8.5 Y-10.25 E0.3326
M566 X1800 Y1800
G0 F3600 X8 Y-10.75
M566 X1200 Y1200
G1 F3000 X12 Y-10.75 E0.3326
G1 X12 Y10.75 E1.78773
G1 X-12 Y10.75 E1.99561
G1 X-12 Y-10.75 E1.78773
G1 X-8 Y-10.75 E0.3326
G1 X-8 Y-6.75 E0.3326
G1 X8 Y-6.75 E1.33041
G1 X8 Y-10.75 E0.3326
M566 X1800 Y1800
G0 F3600 X7.5 Y-11.25
M566 X1200 Y1200
;TYPE:WALL-OUTER
G1 F3000 X12.5 Y-11.25 E0.41575
G1 X12.5 Y11.25 E1.87088
G1 X-12.5 Y11.25 E2.07876
G1 X-12.5 Y-11.25 E1.87088
G1 X-7.5 Y-11.25 E0.41575
G1 X-7.5 Y-7.25 E0.3326
G1 X7.5 Y-7.25 E1.24726
G1 X7.5 Y-11.25 E0.3326
M566 X1800 Y1800
G0 F3600 X7.75 Y-11.25
G0 X8.07 Y-10.68
G0 X9.49 Y-9.26
M566 X1200 Y1200
;TYPE:SKIN
G1 F3000 X10.51 Y-9.26 E0.08481
G1 X10.51 Y9.26 E1.53994
G1 X-10.51 Y9.26 E1.74782
G1 X-10.51 Y-9.26 E1.53994
G1 X-9.49 Y-9.26 E0.08481
G1 X-9.49 Y-5.26 E0.3326
G1 X9.49 Y-5.26 E1.57819
G1 X9.49 Y-9.26 E0.3326
M566 X1800 Y1800
G0 F3600 X10.284 Y-8.807
M566 X1200 Y1200
G1 F3000 X10.056 Y-9.035 E0.02681
M566 X1800 Y1800
G0 F3600 X9.714 Y-8.67
M566 X1200 Y1200
G1 F3000 X10.284 Y-8.1 E0.06703
M566 X1800 Y1800
G0 F3600 X9.714 Y-7.963
M566 X1200 Y1200
G1 F3000 X10.284 Y-7.393 E0.06703
M566 X1800 Y1800
G0 F3600 X9.714 Y-7.256
M566 X1200 Y1200
G1 F3000 X10.284 Y-6.686 E0.06703
M566 X1800 Y1800
G0 F3600 X9.714 Y-6.549
M566 X1200 Y1200
G1 F3000 X10.284 Y-5.979 E0.06703
M566 X1800 Y1800
G0 F3600 X9.714 Y-5.842
M566 X1200 Y1200
G1 F3000 X10.284 Y-5.272 E0.06703
M566 X1800 Y1800
G0 F3600 X9.714 Y-5.135
M566 X1200 Y1200
G1 F3000 X10.284 Y-4.565 E0.06703
M566 X1800 Y1800
G0 F3600 X10.284 Y-3.857
M566 X1200 Y1200
G1 F3000 X9.107 Y-5.034 E0.13841
M566 X1800 Y1800
G0 F3600 X8.4 Y-5.034
M566 X1200 Y1200
G1 F3000 X10.284 Y-3.15 E0.22154
M566 X1800 Y1800
G0 F3600 X10.284 Y-2.443
M566 X1200 Y1200
G1 F3000 X7.693 Y-5.034 E0.30468
M566 X1800 Y1800
G0 F3600 X6.986 Y-5.034
M566 X1200 Y1200
G1 F3000 X10.284 Y-1.736 E0.38782
M566 X1800 Y1800
G0 F3600 X10.284 Y-1.029
M566 X1200 Y1200
G1 F3000 X6.279 Y-5.034 E0.47096
M566 X1800 Y1800
G0 F3600 X5.572 Y-5.034
M566 X1200 Y1200
G1 F3000 X10.284 Y-.322 E0.5541
M566 X1800 Y1800
G0 F3600 X10.284 Y0.384
M566 X1200 Y1200
G1 F3000 X4.864 Y-5.034 E0.63723
M566 X1800 Y1800
G0 F3600 X4.157 Y-5.034
M566 X1200 Y1200
G1 F3000 X10.284 Y1.091 E0.72037
M566 X1800 Y1800
G0 F3600 X10.284 Y1.798
M566 X1200 Y1200
G1 F3000 X3.45 Y-5.034 E0.80351
M566 X1800 Y1800
G0 F3600 X2.743 Y-5.034
M566 X1200 Y1200
G1 F3000 X10.284 Y2.505 E0.88665
M566 X1800 Y1800
G0 F3600 X10.284 Y3.213
M566 X1200 Y1200
G1 F3000 X2.036 Y-5.034 E0.96984
M566 X1800 Y1800
G0 F3600 X1.329 Y-5.034
M566 X1200 Y1200
G1 F3000 X10.284 Y3.92 E1.05298
M566 X1800 Y1800
G0 F3600 X10.284 Y4.627
M566 X1200 Y1200
G1 F3000 X0.622 Y-5.034 E1.13612
M566 X1800 Y1800
G0 F3600 X-0.084 Y-5.034
M566 X1200 Y1200
G1 F3000 X10.284 Y5.334 E1.2192
M566 X1800 Y1800
G0 F3600 X10.284 Y6.041
M566 X1200 Y1200
G1 F3000 X-.791 Y-5.034 E1.30234
M566 X1800 Y1800
G0 F3600 X-1.499 Y-5.034
M566 X1200 Y1200
G1 F3000 X10.284 Y6.748 E1.38553
M566 X1800 Y1800
G0 F3600 X10.284 Y7.455
M566 X1200 Y1200
G1 F3000 X-2.206 Y-5.034 E1.46867
M566 X1800 Y1800
G0 F3600 X-2.913 Y-5.034
M566 X1200 Y1200
G1 F3000 X10.284 Y8.162 E1.55181
M566 X1800 Y1800
G0 F3600 X10.284 Y8.869
M566 X1200 Y1200
G1 F3000 X-3.62 Y-5.034 E1.63495
M566 X1800 Y1800
G0 F3600 X-4.327 Y-5.034
M566 X1200 Y1200
G1 F3000 X9.742 Y9.035 E1.65441
M566 X1800 Y1800
G0 F3600 X9.035 Y9.035
M566 X1200 Y1200
G1 F3000 X-5.034 Y-5.034 E1.65441
M566 X1800 Y1800
G0 F3600 X-5.741 Y-5.034
M566 X1200 Y1200
G1 F3000 X8.328 Y9.035 E1.65441
M566 X1800 Y1800
G0 F3600 X7.621 Y9.035
M566 X1200 Y1200
G1 F3000 X-6.448 Y-5.034 E1.65441
M566 X1800 Y1800
G0 F3600 X-7.155 Y-5.034
M566 X1200 Y1200
G1 F3000 X6.914 Y9.035 E1.65441
M566 X1800 Y1800
G0 F3600 X6.206 Y9.035
M566 X1200 Y1200
G1 F3000 X-7.863 Y-5.034 E1.65441
M566 X1800 Y1800
G0 F3600 X-8.57 Y-5.034
M566 X1200 Y1200
G1 F3000 X5.499 Y9.035 E1.65441
M566 X1800 Y1800
G0 F3600 X4.792 Y9.035
M566 X1200 Y1200
G1 F3000 X-9.277 Y-5.034 E1.65441
M566 X1800 Y1800
G0 F3600 X-9.714 Y-5.471
M566 X1200 Y1200
G1 F3000 X-10.284 Y-6.041 E0.06703
M566 X1800 Y1800
G0 F3600 X-9.714 Y-6.178
M566 X1200 Y1200
G1 F3000 X-10.284 Y-6.748 E0.06703
M566 X1800 Y1800
G0 F3600 X-9.714 Y-6.885
M566 X1200 Y1200
G1 F3000 X-10.284 Y-7.455 E0.06703
M566 X1800 Y1800
G0 F3600 X-9.714 Y-7.592
M566 X1200 Y1200
G1 F3000 X-10.284 Y-8.162 E0.06703
M566 X1800 Y1800
G0 F3600 X-9.714 Y-8.3
M566 X1200 Y1200
G1 F3000 X-10.284 Y-8.869 E0.06697
M566 X1800 Y1800
G0 F3600 X-10.284 Y-5.334
M566 X1200 Y1200
G1 F3000 X4.085 Y9.035 E1.68968
M566 X1800 Y1800
G0 F3600 X3.378 Y9.035
M566 X1200 Y1200
G1 F3000 X-10.284 Y-4.627 E1.60655
M566 X1800 Y1800
G0 F3600 X-10.284 Y-3.92
M566 X1200 Y1200
G1 F3000 X2.671 Y9.035 E1.52341
M566 X1800 Y1800
G0 F3600 X1.964 Y9.035
M566 X1200 Y1200
G1 F3000 X-10.284 Y-3.213 E1.44027
M566 X1800 Y1800
G0 F3600 X-10.284 Y-2.505
M566 X1200 Y1200
G1 F3000 X1.257 Y9.035 E1.35707
M566 X1800 Y1800
G0 F3600 X0.55 Y9.035
M566 X1200 Y1200
G1 F3000 X-10.284 Y-1.798 E1.27394
M566 X1800 Y1800
G0 F3600 X-10.284 Y-1.091
M566 X1200 Y1200
G1 F3000 X-.156 Y9.035 E1.19086
M566 X1800 Y1800
G0 F3600 X-.864 Y9.035
M566 X1200 Y1200
G1 F3000 X-10.284 Y-.384 E1.10766
M566 X1800 Y1800
G0 F3600 X-10.284 Y0.322
M566 X1200 Y1200
G1 F3000 X-1.571 Y9.035 E1.02458
M566 X1800 Y1800
G0 F3600 X-2.278 Y9.035
M566 X1200 Y1200
G1 F3000 X-10.284 Y1.029 E0.94144
M566 X1800 Y1800
G0 F3600 X-10.284 Y1.736
M566 X1200 Y1200
G1 F3000 X-2.985 Y9.035 E0.85831
M566 X1800 Y1800
G0 F3600 X-3.692 Y9.035
M566 X1200 Y1200
G1 F3000 X-10.284 Y2.443 E0.77517
M566 X1800 Y1800
G0 F3600 X-10.284 Y3.15
M566 X1200 Y1200
G1 F3000 X-4.399 Y9.035 E0.69203
M566 X1800 Y1800
G0 F3600 X-5.106 Y9.035
M566 X1200 Y1200
G1 F3000 X-10.284 Y3.857 E0.60889
M566 X1800 Y1800
G0 F3600 X-10.284 Y4.565
M566 X1200 Y1200
G1 F3000 X-5.813 Y9.035 E0.5257
M566 X1800 Y1800
G0 F3600 X-6.52 Y9.035
M566 X1200 Y1200
G1 F3000 X-10.284 Y5.272 E0.44256
M566 X1800 Y1800
G0 F3600 X-10.284 Y5.979
M566 X1200 Y1200
G1 F3000 X-7.228 Y9.035 E0.35936
M566 X1800 Y1800
G0 F3600 X-7.935 Y9.035
M566 X1200 Y1200
G1 F3000 X-10.284 Y6.686 E0.27622
M566 X1800 Y1800
G0 F3600 X-10.284 Y7.393
M566 X1200 Y1200
G1 F3000 X-8.642 Y9.035 E0.19309
M566 X1800 Y1800
G0 F3600 X-9.349 Y9.035
M566 X1200 Y1200
G1 F3000 X-10.284 Y8.1 E0.10995
M566 X1800 Y1800
G0 F3600 X-10.284 Y8.807
M566 X1200 Y1200
G1 F3000 X-10.056 Y9.035 E0.02681
M566 X1800 Y1800
;MESH:NONMESH
G0 F600 X-10.056 Y9.035 Z0.6
G0 F3600 X9 Y-5.75
;TIME_ELAPSED:33.872217
;LAYER:1
M106 S28.3 P1
M566 X1200 Y1200
;TYPE:WALL-INNER
;MESH:RoboCol25-ImuMnt.3mf
G1 F4500 X9 Y-9.75 E0.1663
G1 X11 Y-9.75 E0.08315
G1 X11 Y9.75 E0.81072
G1 X-11 Y9.75 E0.91465
G1 X-11 Y-9.75 E0.81072
G1 X-9 Y-9.75 E0.08315
G1 X-9 Y-5.75 E0.1663
G1 X9 Y-5.75 E0.74835
M566 X1800 Y1800
G0 F5400 X8.5 Y-6.25
M566 X1200 Y1200
G1 F4500 X8.5 Y-10.25 E0.1663
G1 X11.5 Y-10.25 E0.12473
G1 X11.5 Y10.25 E0.85229
G1 X-11.5 Y10.25 E0.95623
G1 X-11.5 Y-10.25 E0.85229
G1 X-8.5 Y-10.25 E0.12473
G1 X-8.5 Y-6.25 E0.1663
G1 X8.5 Y-6.25 E0.70678
M566 X1800 Y1800
G0 F5400 X8 Y-6.75
M566 X1200 Y1200
G1 F4500 X8 Y-10.75 E0.1663
G1 X12 Y-10.75 E0.1663
G1 X12 Y10.75 E0.89387
G1 X-12 Y10.75 E0.9978
G1 X-12 Y-10.75 E0.89387
G1 X-8 Y-10.75 E0.1663
G1 X-8 Y-6.75 E0.1663
G1 X8 Y-6.75 E0.6652
M566 X1800 Y1800
G0 F5400 X7.5 Y-7.25
M566 X1200 Y1200
;TYPE:WALL-OUTER
G1 F3000 X7.5 Y-11.25 E0.1663
G1 X12.5 Y-11.25 E0.20788
G1 X12.5 Y11.25 E0.93544
G1 X-12.5 Y11.25 E1.03938
G1 X-12.5 Y-11.25 E0.93544
G1 X-7.5 Y-11.25 E0.20788
G1 X-7.5 Y-7.25 E0.1663
G1 X7.5 Y-7.25 E0.62363
M566 X1800 Y1800
G0 F5400 X7.5 Y-7.5
G0 X8.1 Y-7.5
G0 X9.49 Y-9.26
M566 X1200 Y1200
;TYPE:SKIN
G1 F3000 X10.51 Y-9.26 E0.04241
G1 X10.51 Y9.26 E0.76997
G1 X-10.51 Y9.26 E0.87391
G1 X-10.51 Y-9.26 E0.76997
G1 X-9.49 Y-9.26 E0.04241
G1 X-9.49 Y-5.26 E0.1663
G1 X9.49 Y-5.26 E0.7891
G1 X9.49 Y-9.26 E0.1663
M566 X1800 Y1800
G0 F5400 X10.284 Y8.807
M566 X1200 Y1200
G1 F3000 X10.056 Y9.035 E0.01341
M566 X1800 Y1800
G0 F5400 X9.349 Y9.035
M566 X1200 Y1200
G1 F3000 X10.284 Y8.1 E0.05497
M566 X1800 Y1800
G0 F5400 X10.284 Y7.393
M566 X1200 Y1200
G1 F3000 X8.642 Y9.035 E0.09654
M566 X1800 Y1800
G0 F5400 X7.935 Y9.035
M566 X1200 Y1200
G1 F3000 X10.284 Y6.686 E0.13811
M566 X1800 Y1800
G0 F5400 X10.284 Y5.979
M566 X1200 Y1200
G1 F3000 X7.228 Y9.035 E0.17968
M566 X1800 Y1800
G0 F5400 X6.52 Y9.035
M566 X1200 Y1200
G1 F3000 X10.284 Y5.272 E0.22128
M566 X1800 Y1800
G0 F5400 X10.284 Y4.565
M566 X1200 Y1200
G1 F3000 X5.813 Y9.035 E0.26285
M566 X1800 Y1800
G0 F5400 X5.106 Y9.035
M566 X1200 Y1200
G1 F3000 X10.284 Y3.857 E0.30445
M566 X1800 Y1800
G0 F5400 X10.284 Y3.15
M566 X1200 Y1200
G1 F3000 X4.399 Y9.035 E0.34602
M566 X1800 Y1800
G0 F5400 X3.692 Y9.035
M566 X1200 Y1200
G1 F3000 X10.284 Y2.443 E0.38758
M566 X1800 Y1800
G0 F5400 X10.284 Y1.736
M566 X1200 Y1200
G1 F3000 X2.985 Y9.035 E0.42915
M566 X1800 Y1800
G0 F5400 X2.278 Y9.035
M566 X1200 Y1200
G1 F3000 X10.284 Y1.029 E0.47072
M566 X1800 Y1800
G0 F5400 X10.284 Y0.322
M566 X1200 Y1200
G1 F3000 X1.571 Y9.035 E0.51229
M566 X1800 Y1800
G0 F5400 X0.864 Y9.035
M566 X1200 Y1200
G1 F3000 X10.284 Y-.384 E0.55383
M566 X1800 Y1800
G0 F5400 X10.284 Y-1.091
M566 X1200 Y1200
G1 F3000 X0.156 Y9.035 E0.59543
M566 X1800 Y1800
G0 F5400 X-.55 Y9.035
M566 X1200 Y1200
G1 F3000 X10.284 Y-1.798 E0.63697
M566 X1800 Y1800
G0 F5400 X10.284 Y-2.505
M566 X1200 Y1200
G1 F3000 X-1.257 Y9.035 E0.67854
M566 X1800 Y1800
G0 F5400 X-1.964 Y9.035
M566 X1200 Y1200
G1 F3000 X10.284 Y-3.213 E0.72014
M566 X1800 Y1800
