;FLAVOR:RepRap
;TIME:2047
;Filament used: 7.28873m
;Layer height: 0.3
;MINX:-34.75
;MINY:-43.75
;MINZ:0.4
;MAXX:38.75
;MAXY:3.75
;MAXZ:40
;POSTPROCESSED
;Generated with Cura_SteamEngine 4.13.1
T0
M190 S60
M104 S215
M109 S215
M82 ;absolute extrusion mode
G28 ;Home
G1 Z15.0 F6000 ;Move the platform down 15mm
;Prime the extruder
G92 E0
G1 F200 E3
G92 E0
M83 ;relative extrusion mode
G1 F1500 E-6.5
;LAYER_COUNT:133
;LAYER:0
M107 P1
M204 T5000
M566 X1800 Y1800
G0 F3600 X4.774 Y3.749 Z0.4
M204 P3000
M566 X1200 Y1200
;TYPE:SKIRT
G1 F1500 E6.5
G1 F3000 X-26.327 Y3.75 E2.58606
G1 X-27.025 Y3.741 E0.05804
G1 X-27.571 Y3.694 E0.04557
G1 X-28.103 Y3.568 E0.04546
G1 X-28.612 Y3.366 E0.04553
G1 X-29.086 Y3.092 E0.04552
G1 X-29.515 Y2.752 E0.04552
G1 X-29.89 Y2.353 E0.04553
G1 X-30.203 Y1.904 E0.04551
G1 X-30.447 Y1.414 E0.04552
G1 X-30.617 Y0.894 E0.04549
G1 X-30.726 Y0.086 E0.06779
G1 X-30.736 Y-.365 E0.03751
G1 X-30.737 Y-4.42 E0.33717
G1 X-30.727 Y-5.054 E0.05272
G1 X-30.678 Y-5.599 E0.0455
G1 X-30.551 Y-6.132 E0.04556
G1 X-30.282 Y-6.767 E0.05734
G1 X-29.91 Y-7.459 E0.06533
G1 X-29.27 Y-8.605 E0.10914
G1 X-28.008 Y-11.022 E0.22672
G1 X-26.814 Y-13.48 E0.22722
G1 X-25.686 Y-15.979 E0.22798
G1 X-24.645 Y-18.468 E0.22433
G1 X-23.658 Y-21.025 E0.22791
G1 X-22.766 Y-23.56 E0.22345
G1 X-21.926 Y-26.173 E0.22822
G1 X-21.17 Y-28.774 E0.22522
G1 X-20.487 Y-31.399 E0.22554
G1 X-19.861 Y-34.119 E0.23208
G1 X-19.337 Y-36.728 E0.22127
G1 X-18.872 Y-39.447 E0.22937
G1 X-18.695 Y-40.574 E0.09486
G1 X-18.571 Y-41.107 E0.0455
G1 X-18.37 Y-41.617 E0.04558
G1 X-18.098 Y-42.091 E0.04544
G1 X-17.759 Y-42.521 E0.04553
G1 X-17.361 Y-42.897 E0.04553
G1 X-16.913 Y-43.211 E0.04549
G1 X-16.424 Y-43.457 E0.04552
G1 X-15.904 Y-43.628 E0.04552
G1 X-15.096 Y-43.74 E0.06783
G1 X-14.67 Y-43.75 E0.03543
G1 X34.347 Y-43.75 E4.07578
G1 X35.045 Y-43.74 E0.05804
G1 X35.59 Y-43.692 E0.04549
G1 X36.122 Y-43.565 E0.04548
G1 X36.631 Y-43.362 E0.04557
G1 X37.104 Y-43.088 E0.04545
G1 X37.533 Y-42.747 E0.04557
G1 X37.907 Y-42.348 E0.04547
G1 X38.219 Y-41.898 E0.04553
G1 X38.463 Y-41.408 E0.04552
G1 X38.632 Y-40.887 E0.04554
G1 X38.74 Y-40.095 E0.06646
G1 X38.75 Y-39.67 E0.03535
G1 X38.75 Y-30.654 E0.74968
G1 X38.74 Y-29.953 E0.05829
G1 X38.692 Y-29.407 E0.04558
G1 X38.565 Y-28.875 E0.04548
G1 X38.363 Y-28.366 E0.04553
G1 X38.088 Y-27.893 E0.04549
G1 X37.747 Y-27.464 E0.04557
G1 X37.348 Y-27.09 E0.04547
G1 X36.688 Y-26.626 E0.06708
G1 X35.142 Y-25.61 E0.15383
G1 X32.925 Y-24.064 E0.22474
G1 X30.708 Y-22.421 E0.22945
G1 X28.585 Y-20.754 E0.22444
G1 X26.5 Y-19.018 E0.2256
G1 X24.441 Y-17.204 E0.22817
G1 X22.47 Y-15.368 E0.22398
G1 X20.506 Y-13.427 E0.2296
G1 X18.645 Y-11.483 E0.22377
G1 X16.804 Y-9.447 E0.22824
G1 X15.037 Y-7.379 E0.22618
G1 X13.335 Y-5.268 E0.22548
G1 X11.685 Y-3.098 E0.22667
G1 X10.106 Y-.898 E0.22517
G1 X8.566 Y1.382 E0.22878
G1 X8.13 Y2.047 E0.06612
G1 X7.798 Y2.481 E0.04544
G1 X7.405 Y2.863 E0.04557
G1 X6.962 Y3.183 E0.04544
G1 X6.476 Y3.436 E0.04556
G1 X5.959 Y3.615 E0.04549
G1 X5.421 Y3.717 E0.04553
G1 X4.774 Y3.749 E0.05386
M566 X1800 Y1800
G0 F3600 X4.67 Y3.25
M566 X1200 Y1200
G1 F3000 X-26.321 Y3.25 E2.57691
G1 X-27.019 Y3.241 E0.05804
G1 X-27.526 Y3.194 E0.04234
G1 X-28.02 Y3.069 E0.04237
G1 X-28.488 Y2.868 E0.04235
G1 X-28.92 Y2.597 E0.0424
G1 X-29.303 Y2.261 E0.04236
G1 X-29.629 Y1.87 E0.04233
G1 X-29.89 Y1.432 E0.0424
G1 X-30.079 Y0.959 E0.04235
G1 X-30.193 Y0.462 E0.0424
G1 X-30.235 Y-.284 E0.06213
G1 X-30.237 Y-4.412 E0.34324
G1 X-30.227 Y-5.046 E0.05272
G1 X-30.179 Y-5.554 E0.04243
G1 X-30.052 Y-6.047 E0.04233
G1 X-29.841 Y-6.531 E0.0439
G1 X-29.474 Y-7.215 E0.06454
G1 X-28.823 Y-8.381 E0.11104
G1 X-27.555 Y-10.809 E0.22776
G1 X-26.366 Y-13.257 E0.22629
G1 X-25.236 Y-15.759 E0.22828
G1 X-24.184 Y-18.274 E0.22668
G1 X-23.191 Y-20.847 E0.22933
G1 X-22.286 Y-23.421 E0.22687
G1 X-21.451 Y-26.018 E0.22683
G1 X-20.684 Y-28.655 E0.22835
G1 X-19.996 Y-31.298 E0.22709
G1 X-19.382 Y-33.969 E0.22789
G1 X-18.844 Y-36.644 E0.22688
G1 X-18.379 Y-39.363 E0.22937
G1 X-18.201 Y-40.496 E0.09536
G1 X-18.083 Y-40.992 E0.04239
G1 X-17.889 Y-41.463 E0.04236
G1 X-17.623 Y-41.898 E0.0424
G1 X-17.293 Y-42.286 E0.04235
G1 X-16.906 Y-42.617 E0.04234
G1 X-16.472 Y-42.884 E0.04237
G1 X-16.001 Y-43.08 E0.04242
G1 X-15.506 Y-43.2 E0.04235
G1 X-14.761 Y-43.249 E0.06208
G1 X34.34 Y-43.25 E4.08276
G1 X35.038 Y-43.24 E0.05804
G1 X35.545 Y-43.192 E0.04235
G1 X36.039 Y-43.067 E0.04237
G1 X36.507 Y-42.865 E0.04238
G1 X36.937 Y-42.593 E0.04231
G1 X37.32 Y-42.257 E0.04236
G1 X37.646 Y-41.865 E0.04239
G1 X37.906 Y-41.427 E0.04235
G1 X38.095 Y-40.954 E0.04235
G1 X38.207 Y-40.457 E0.04236
G1 X38.249 Y-39.761 E0.05798
G1 X38.25 Y-30.661 E0.75667
G1 X38.24 Y-29.96 E0.05829
G1 X38.192 Y-29.452 E0.04243
G1 X38.067 Y-28.959 E0.04229
G1 X37.865 Y-28.491 E0.04238
G1 X37.593 Y-28.06 E0.04238
G1 X37.257 Y-27.677 E0.04236
G1 X36.814 Y-27.316 E0.04752
G1 X36.367 Y-27.014 E0.04486
G1 X34.875 Y-26.034 E0.14843
G1 X32.618 Y-24.459 E0.22885
G1 X30.418 Y-22.829 E0.22767
G1 X28.273 Y-21.144 E0.22681
G1 X26.163 Y-19.389 E0.2282
G1 X24.126 Y-17.593 E0.22581
G1 X22.11 Y-15.715 E0.2291
G1 X20.182 Y-13.811 E0.22531
G1 X18.267 Y-11.81 E0.2303
G1 X16.425 Y-9.773 E0.22836
G1 X14.651 Y-7.697 E0.22706
G1 X12.952 Y-5.589 E0.22513
G1 X11.285 Y-3.398 E0.22892
G1 X9.673 Y-1.152 E0.22988
G1 X8.151 Y1.102 E0.22615
G1 X7.712 Y1.772 E0.0666
G1 X7.4 Y2.175 E0.04238
G1 X7.029 Y2.525 E0.04241
G1 X6.608 Y2.812 E0.04237
G1 X6.148 Y3.029 E0.04229
G1 X5.659 Y3.172 E0.04236
G1 X5.084 Y3.24 E0.04814
G1 X4.67 Y3.25 E0.03443
M566 X1800 Y1800
G1 F1500 E-6.5
;MESH:RoboCol25-CamMount.3mf
G0 F3600 X4.236 Y0.665
G0 X4.236 Y-.764
G0 X3.25 Y-1.75
M566 X1200 Y1200
;TYPE:WALL-INNER
G1 F1500 E6.5
G1 F3000 X-25.236 Y-1.75 E2.36862
G1 X-25.237 Y-3.25 E0.12473
G1 X-13.25 Y-3.25 E0.99672
G1 X-13.25 Y-38.25 E2.91026
G1 X33.25 Y-38.25 E3.86649
G1 X33.25 Y-31.75 E0.54048
G1 X3.25 Y-31.75 E2.49451
G1 X3.25 Y-1.75 E2.49451
M566 X1800 Y1800
G0 F3600 X3.75 Y-1.25
M566 X1200 Y1200
G1 F3000 X-25.736 Y-1.25 E2.45177
G1 X-25.737 Y-3.75 E0.20788
G1 X-13.75 Y-3.75 E0.99672
G1 X-13.75 Y-38.75 E2.91026
G1 X33.75 Y-38.75 E3.94964
G1 X33.75 Y-31.25 E0.62363
G1 X3.75 Y-31.25 E2.49451
G1 X3.75 Y-1.25 E2.49451
M566 X1800 Y1800
G0 F3600 X4.25 Y-.75
M566 X1200 Y1200
G1 F3000 X-26.236 Y-.75 E2.53492
G1 X-26.237 Y-4.25 E0.29103
G1 X-14.25 Y-4.25 E0.99672
G1 X-14.25 Y-39.25 E2.91026
G1 X34.25 Y-39.25 E4.03279
G1 X34.25 Y-30.75 E0.70678
G1 X4.25 Y-30.75 E2.49451
G1 X4.25 Y-.75 E2.49451
M566 X1800 Y1800
G0 F3600 X4.75 Y-.25
M566 X1200 Y1200
;TYPE:WALL-OUTER
G1 F3000 X-26.736 Y-.25 E2.61807
G1 X-26.737 Y-4.75 E0.37418
G1 X-14.75 Y-4.75 E0.99672
G1 X-14.75 Y-39.75 E2.91026
G1 X34.75 Y-39.75 E4.11594
G1 X34.75 Y-30.25 E0.78993
G1 X4.75 Y-30.25 E2.49451
G1 X4.75 Y-.25 E2.49451
M566 X1800 Y1800
G0 F3600 X4.5 Y-.25
G0 X4.18 Y-.82
G0 X2.76 Y-2.24
M566 X1200 Y1200
;TYPE:SKIN
G1 F3000 X-24.746 Y-2.24 E2.28713
G1 X-24.747 Y-2.76 E0.04324
G1 X-12.76 Y-2.76 E0.99672
G1 X-12.76 Y-37.76 E2.91026
G1 X32.76 Y-37.76 E3.785
G1 X32.76 Y-32.24 E0.45899
G1 X2.76 Y-32.24 E2.49451
G1 X2.76 Y-2.24 E2.49451
M566 X1800 Y1800
G0 F3600 X-12.534 Y-2.635
M566 X1200 Y1200
G1 F3000 X-12.364 Y-2.464 E0.02005
M566 X1800 Y1800
G0 F3600 X-11.657 Y-2.464
M566 X1200 Y1200
G1 F3000 X-12.534 Y-3.342 E0.10319
M566 X1800 Y1800
G0 F3600 X-12.534 Y-4.049
M566 X1200 Y1200
G1 F3000 X-10.95 Y-2.464 E0.18633
M566 X1800 Y1800
G0 F3600 X-10.243 Y-2.464
M566 X1200 Y1200
G1 F3000 X-12.534 Y-4.756 E0.26946
M566 X1800 Y1800
G0 F3600 X-12.534 Y-5.463
M566 X1200 Y1200
G1 F3000 X-9.536 Y-2.464 E0.3526
M566 X1800 Y1800
G0 F3600 X-8.828 Y-2.464
M566 X1200 Y1200
G1 F3000 X-12.534 Y-6.17 E0.4358
M566 X1800 Y1800
G0 F3600 X-12.534 Y-6.878
M566 X1200 Y1200
G1 F3000 X-8.121 Y-2.464 E0.51899
M566 X1800 Y1800
G0 F3600 X-7.414 Y-2.464
M566 X1200 Y1200
G1 F3000 X-12.534 Y-7.585 E0.60213
M566 X1800 Y1800
G0 F3600 X-12.534 Y-8.292
M566 X1200 Y1200
G1 F3000 X-6.707 Y-2.464 E0.68527
M566 X1800 Y1800
G0 F3600 X-6 Y-2.464
M566 X1200 Y1200
G1 F3000 X-12.534 Y-8.999 E0.76841
M566 X1800 Y1800
G0 F3600 X-12.534 Y-9.706
M566 X1200 Y1200
G1 F3000 X-5.293 Y-2.464 E0.85154
M566 X1800 Y1800
G0 F3600 X-4.586 Y-2.464
M566 X1200 Y1200
G1 F3000 X-12.534 Y-10.413 E0.93468
M566 X1800 Y1800
G0 F3600 X-12.534 Y-11.12
M566 X1200 Y1200
G1 F3000 X-3.879 Y-2.464 E1.01782
M566 X1800 Y1800
G0 F3600 X-3.172 Y-2.464
M566 X1200 Y1200
G1 F3000 X-12.534 Y-11.827 E1.10096
M566 X1800 Y1800
G0 F3600 X-12.534 Y-12.534
M566 X1200 Y1200
G1 F3000 X-2.464 Y-2.464 E1.18415
M566 X1800 Y1800
G0 F3600 X-1.757 Y-2.464
M566 X1200 Y1200
G1 F3000 X-12.534 Y-13.241 E1.26729
M566 X1800 Y1800
G0 F3600 X-12.534 Y-13.949
M566 X1200 Y1200
G1 F3000 X-1.05 Y-2.464 E1.35049
M566 X1800 Y1800
G0 F3600 X-.343 Y-2.464
M566 X1200 Y1200
G1 F3000 X-12.534 Y-14.656 E1.43363
M566 X1800 Y1800
G0 F3600 X-12.534 Y-15.363
M566 X1200 Y1200
G1 F3000 X0.363 Y-2.464 E1.51671
M566 X1800 Y1800
G0 F3600 X1.07 Y-2.464
M566 X1200 Y1200
G1 F3000 X-12.534 Y-16.07 E1.59984
M566 X1800 Y1800
G0 F3600 X-12.534 Y-16.777
M566 X1200 Y1200
G1 F3000 X1.777 Y-2.464 E1.68298
M566 X1800 Y1800
G0 F3600 X2.484 Y-2.464
M566 X1200 Y1200
G1 F3000 X-12.534 Y-17.484 E1.76612
M566 X1800 Y1800
G0 F3600 X-12.534 Y-18.191
M566 X1200 Y1200
G1 F3000 X2.534 Y-3.121 E1.772
M566 X1800 Y1800
G0 F3600 X2.534 Y-3.828
M566 X1200 Y1200
G1 F3000 X-12.534 Y-18.898 E1.772
M566 X1800 Y1800
G0 F3600 X-12.534 Y-19.605
M566 X1200 Y1200
G1 F3000 X2.534 Y-4.536 E1.77194
M566 X1800 Y1800
G0 F3600 X2.534 Y-5.243
M566 X1200 Y1200
G1 F3000 X-12.534 Y-20.313 E1.772
M566 X1800 Y1800
G0 F3600 X-12.534 Y-21.02
M566 X1200 Y1200
G1 F3000 X2.534 Y-5.95 E1.772
M566 X1800 Y1800
G0 F3600 X2.534 Y-6.657
M566 X1200 Y1200
G1 F3000 X-12.534 Y-21.727 E1.772
M566 X1800 Y1800
G0 F3600 X-12.534 Y-22.434
M566 X1200 Y1200
G1 F3000 X2.534 Y-7.364 E1.772
M566 X1800 Y1800
G0 F3600 X2.534 Y-8.071
M566 X1200 Y1200
G1 F3000 X-12.534 Y-23.141 E1.772
M566 X1800 Y1800
G0 F3600 X-12.534 Y-23.848
M566 X1200 Y1200
G1 F3000 X2.534 Y-8.778 E1.772
M566 X1800 Y1800
G0 F3600 X2.534 Y-9.485
M566 X1200 Y1200
G1 F3000 X-12.534 Y-24.555 E1.772
M566 X1800 Y1800
G0 F3600 X-12.534 Y-25.262
M566 X1200 Y1200
G1 F3000 X2.534 Y-10.192 E1.772
M566 X1800 Y1800
G0 F3600 X2.534 Y-10.9
M566 X1200 Y1200
G1 F3000 X-12.534 Y-25.969 E1.77194
M566 X1800 Y1800
G0 F3600 X-12.534 Y-26.677
M566 X1200 Y1200
G1 F3000 X2.534 Y-11.607 E1.772
M566 X1800 Y1800
G0 F3600 X2.534 Y-12.314
M566 X1200 Y1200
G1 F3000 X-12.534 Y-27.384 E1.772
M566 X1800 Y1800
G0 F3600 X-12.534 Y-28.091
M566 X1200 Y1200
G1 F3000 X2.534 Y-13.021 E1.772
M566 X1800 Y1800
G0 F3600 X2.534 Y-13.728
M566 X1200 Y1200
G1 F3000 X-12.534 Y-28.798 E1.772
M566 X1800 Y1800
G0 F3600 X-12.534 Y-29.505
M566 X1200 Y1200
G1 F3000 X2.534 Y-14.435 E1.772
M566 X1800 Y1800
G0 F3600 X2.534 Y-15.142
M566 X1200 Y1200
G1 F3000 X-12.534 Y-30.212 E1.772
M566 X1800 Y1800
G0 F3600 X-12.534 Y-30.919
M566 X1200 Y1200
G1 F3000 X2.534 Y-15.849 E1.772
M566 X1800 Y1800
G0 F3600 X2.534 Y-16.556
M566 X1200 Y1200
G1 F3000 X-12.534 Y-31.626 E1.772
M566 X1800 Y1800
G0 F3600 X-12.534 Y-32.333
M566 X1200 Y1200
G1 F3000 X2.534 Y-17.264 E1.77194
M566 X1800 Y1800
G0 F3600 X2.534 Y-17.971
M566 X1200 Y1200
G1 F3000 X-12.534 Y-33.04 E1.77194
M566 X1800 Y1800
G0 F3600 X-12.534 Y-33.748
M566 X1200 Y1200
G1 F3000 X2.534 Y-18.678 E1.772
M566 X1800 Y1800
G0 F3600 X2.534 Y-19.385
M566 X1200 Y1200
G1 F3000 X-12.534 Y-34.455 E1.772
M566 X1800 Y1800
G0 F3600 X-12.534 Y-35.162
M566 X1200 Y1200
G1 F3000 X2.534 Y-20.092 E1.772
M566 X1800 Y1800
G0 F3600 X2.534 Y-20.799
M566 X1200 Y1200
G1 F3000 X-12.534 Y-35.869 E1.772
M566 X1800 Y1800
G0 F3600 X-12.534 Y-36.576
M566 X1200 Y1200
G1 F3000 X2.534 Y-21.506 E1.772
M566 X1800 Y1800
G0 F3600 X2.534 Y-22.213
M566 X1200 Y1200
G1 F3000 X-12.534 Y-37.283 E1.772
M566 X1800 Y1800
G0 F3600 X-12.078 Y-37.533
M566 X1200 Y1200
G1 F3000 X2.534 Y-22.92 E1.71832
M566 X1800 Y1800
G0 F3600 X2.534 Y-23.627
M566 X1200 Y1200
G1 F3000 X-11.37 Y-37.533 E1.63512
M566 X1800 Y1800
G0 F3600 X-10.663 Y-37.533
M566 X1200 Y1200
G1 F3000 X2.534 Y-24.335 E1.55192
M566 X1800 Y1800
G0 F3600 X2.534 Y-25.042
M566 X1200 Y1200
G1 F3000 X-9.956 Y-37.533 E1.46879
M566 X1800 Y1800
G0 F3600 X-9.249 Y-37.533
M566 X1200 Y1200
G1 F3000 X2.534 Y-25.749 E1.38565
M566 X1800 Y1800
G0 F3600 X2.534 Y-26.456
M566 X1200 Y1200
G1 F3000 X-8.542 Y-37.533 E1.30251
M566 X1800 Y1800
G0 F3600 X-7.835 Y-37.533
M566 X1200 Y1200
G1 F3000 X2.534 Y-27.163 E1.21937
M566 X1800 Y1800
G0 F3600 X2.534 Y-27.87
M566 X1200 Y1200
G1 F3000 X-7.128 Y-37.533 E1.13624
M566 X1800 Y1800
G0 F3600 X-6.421 Y-37.533
M566 X1200 Y1200
G1 F3000 X2.534 Y-28.577 E1.0531
M566 X1800 Y1800
G0 F3600 X2.534 Y-29.284
M566 X1200 Y1200
G1 F3000 X-5.714 Y-37.533 E0.96996
M566 X1800 Y1800
G0 F3600 X-5.007 Y-37.533
M566 X1200 Y1200
G1 F3000 X2.534 Y-29.991 E0.88682
M566 X1800 Y1800
G0 F3600 X2.534 Y-30.699
M566 X1200 Y1200
G1 F3000 X-4.299 Y-37.533 E0.80357
M566 X1800 Y1800
G0 F3600 X-3.592 Y-37.533
M566 X1200 Y1200
G1 F3000 X2.534 Y-31.406 E0.72043
M566 X1800 Y1800
G0 F3600 X2.534 Y-32.113
M566 X1200 Y1200
G1 F3000 X-2.885 Y-37.533 E0.63729
M566 X1800 Y1800
G0 F3600 X-2.178 Y-37.533
M566 X1200 Y1200
G1 F3000 X2.89 Y-32.464 E0.59602
M566 X1800 Y1800
G0 F3600 X3.597 Y-32.464
M566 X1200 Y1200
G1 F3000 X-1.471 Y-37.533 E0.59602
M566 X1800 Y1800
G0 F3600 X-.764 Y-37.533
M566 X1200 Y1200
G1 F3000 X4.304 Y-32.464 E0.59602
M566 X1800 Y1800
G0 F3600 X5.011 Y-32.464
M566 X1200 Y1200
G1 F3000 X-0.057 Y-37.533 E0.59602
M566 X1800 Y1800
G0 F3600 X0.649 Y-37.533
M566 X1200 Y1200
G1 F3000 X5.719 Y-32.464 E0.59613
M566 X1800 Y1800
G0 F3600 X6.426 Y-32.464
M566 X1200 Y1200
G1 F3000 X1.356 Y-37.533 E0.59613
M566 X1800 Y1800
G0 F3600 X2.064 Y-37.533
M566 X1200 Y1200
G1 F3000 X7.133 Y-32.464 E0.59608
M566 X1800 Y1800
G0 F3600 X7.84 Y-32.464
M566 X1200 Y1200
G1 F3000 X2.771 Y-37.533 E0.59608
M566 X1800 Y1800
G0 F3600 X3.478 Y-37.533
M566 X1200 Y1200
G1 F3000 X8.547 Y-32.464 E0.59608
M566 X1800 Y1800
G0 F3600 X9.254 Y-32.464
M566 X1200 Y1200
G1 F3000 X4.185 Y-37.533 E0.59608
M566 X1800 Y1800
G0 F3600 X4.892 Y-37.533
M566 X1200 Y1200
G1 F3000 X9.961 Y-32.464 E0.59608
M566 X1800 Y1800
G0 F3600 X10.668 Y-32.464
M566 X1200 Y1200
G1 F3000 X5.599 Y-37.533 E0.59608
M566 X1800 Y1800
G0 F3600 X6.306 Y-37.533
M566 X1200 Y1200
G1 F3000 X11.375 Y-32.464 E0.59608
M566 X1800 Y1800
G0 F3600 X12.083 Y-32.464
M566 X1200 Y1200
G1 F3000 X7.013 Y-37.533 E0.59613
M566 X1800 Y1800
G0 F3600 X7.72 Y-37.533
M566 X1200 Y1200
G1 F3000 X12.79 Y-32.464 E0.59613
M566 X1800 Y1800
G0 F3600 X13.497 Y-32.464
M566 X1200 Y1200
G1 F3000 X8.428 Y-37.533 E0.59608
M566 X1800 Y1800
G0 F3600 X9.135 Y-37.533
M566 X1200 Y1200
G1 F3000 X14.204 Y-32.464 E0.59608
M566 X1800 Y1800
G0 F3600 X14.911 Y-32.464
M566 X1200 Y1200
G1 F3000 X9.842 Y-37.533 E0.59608
M566 X1800 Y1800
G0 F3600 X10.549 Y-37.533
M566 X1200 Y1200
G1 F3000 X15.618 Y-32.464 E0.59608
M566 X1800 Y1800
G0 F3600 X16.325 Y-32.464
M566 X1200 Y1200
G1 F3000 X11.256 Y-37.533 E0.59608
M566 X1800 Y1800
G0 F3600 X11.963 Y-37.533
M566 X1200 Y1200
G1 F3000 X17.032 Y-32.464 E0.59608
M566 X1800 Y1800
G0 F3600 X17.739 Y-32.464
M566 X1200 Y1200
G1 F3000 X12.67 Y-37.533 E0.59608
M566 X1800 Y1800
G0 F3600 X13.377 Y-37.533
M566 X1200 Y1200
G1 F3000 X18.447 Y-32.464 E0.59613
M566 X1800 Y1800
G0 F3600 X19.154 Y-32.464
M566 X1200 Y1200
G1 F3000 X14.084 Y-37.533 E0.59613
M566 X1800 Y1800
G0 F3600 X14.791 Y-37.533
M566 X1200 Y1200
G1 F3000 X19.861 Y-32.464 E0.59613
M566 X1800 Y1800
G0 F3600 X20.568 Y-32.464
M566 X1200 Y1200
G1 F3000 X15.499 Y-37.533 E0.59608
M566 X1800 Y1800
G0 F3600 X16.206 Y-37.533
M566 X1200 Y1200
G1 F3000 X21.275 Y-32.464 E0.59608
M566 X1800 Y1800
G0 F3600 X21.982 Y-32.464
M566 X1200 Y1200
G1 F3000 X16.913 Y-37.533 E0.59608
M566 X1800 Y1800
G0 F3600 X17.62 Y-37.533
M566 X1200 Y1200
G1 F3000 X22.689 Y-32.464 E0.59608
M566 X1800 Y1800
G0 F3600 X23.396 Y-32.464
M566 X1200 Y1200
G1 F3000 X18.327 Y-37.533 E0.59608
M566 X1800 Y1800
G0 F3600 X19.034 Y-37.533
M566 X1200 Y1200
G1 F3000 X24.103 Y-32.464 E0.59608
M566 X1800 Y1800
G0 F3600 X24.81 Y-32.464
