;FLAVOR:RepRap
;TIME:7406
;Filament used: 21.347m
;Layer height: 0.3
;MINX:-61.579
;MINY:-90.275
;MINZ:0.4
;MAXX:66.92
;MAXY:88.531
;MAXZ:94.9
;POSTPROCESSED
;Generated with Cura_SteamEngine 4.13.1
T0
M190 S60
M104 S215
M109 S215
M82 ;absolute extrusion mode
G28 ;Home
G1 Z15.0 F6000 ;Move the platform down 15mm
;Prime the extruder
G92 E0
G1 F200 E3
G92 E0
M83 ;relative extrusion mode
G1 F1500 E-6.5
;LAYER_COUNT:316
;LAYER:0
M107 P1
M204 T5000
M566 X1800 Y1800
G0 F3600 X-10.546 Y24.143 Z0.4
M204 P3000
M566 X1200 Y1200
;TYPE:SKIRT
G1 F1500 E6.5
G1 F3000 X-12.966 Y22.966 E0.22376
G1 X-15.46 Y21.84 E0.22753
G1 X-18.022 Y20.767 E0.23096
G1 X-20.504 Y19.813 E0.2211
G1 X-23.072 Y18.907 E0.22643
G1 X-25.67 Y18.071 E0.22693
G1 X-28.299 Y17.306 E0.22767
G1 X-30.907 Y16.628 E0.22406
G1 X-33.619 Y16.002 E0.23143
G1 X-36.231 Y15.48 E0.22148
G1 X-38.938 Y15.016 E0.22837
G1 X-41.61 Y14.635 E0.22442
G1 X-44.357 Y14.324 E0.22987
G1 X-44.869 Y14.272 E0.04279
G1 X-45.408 Y14.177 E0.04551
G1 X-45.927 Y14.005 E0.04546
G1 X-46.416 Y13.758 E0.04555
G1 X-46.864 Y13.444 E0.04549
G1 X-47.261 Y13.067 E0.04552
G1 X-47.6 Y12.637 E0.04553
G1 X-47.872 Y12.162 E0.04551
G1 X-48.072 Y11.652 E0.04555
G1 X-48.195 Y11.119 E0.04548
G1 X-48.248 Y10.311 E0.06733
G1 X-48.27 Y-14.84 E2.09131
G1 X-48.261 Y-15.494 E0.05439
G1 X-48.213 Y-16.039 E0.04549
G1 X-48.087 Y-16.571 E0.04546
G1 X-47.884 Y-17.08 E0.04557
G1 X-47.61 Y-17.554 E0.04552
G1 X-47.27 Y-17.982 E0.04545
G1 X-46.87 Y-18.357 E0.04559
G1 X-46.421 Y-18.669 E0.04546
G1 X-45.863 Y-18.94 E0.05158
G1 X-44.803 Y-19.35 E0.0945
G1 X-42.221 Y-20.391 E0.23149
G1 X-39.767 Y-21.464 E0.2227
G1 X-37.27 Y-22.639 E0.22947
G1 X-34.866 Y-23.855 E0.22401
G1 X-32.484 Y-25.145 E0.22524
G1 X-30.089 Y-26.533 E0.23017
G1 X-27.808 Y-27.94 E0.22285
G1 X-25.509 Y-29.45 E0.22871
G1 X-23.3 Y-30.992 E0.224
G1 X-21.103 Y-32.622 E0.22747
G1 X-18.946 Y-34.318 E0.22816
G1 X-16.876 Y-36.042 E0.224
G1 X-14.823 Y-37.853 E0.22763
G1 X-12.833 Y-39.71 E0.22632
G1 X-10.903 Y-41.618 E0.22566
G1 X-9.965 Y-42.597 E0.11274
G1 X-9.497 Y-43.072 E0.05545
G1 X-9.086 Y-43.433 E0.04549
G1 X-8.626 Y-43.73 E0.04553
G1 X-7.959 Y-44.016 E0.06034
G1 X-7.074 Y-44.302 E0.07734
G1 X-4.435 Y-45.195 E0.23166
G1 X-1.891 Y-46.137 E0.22557
G1 X0.644 Y-47.158 E0.22724
G1 X3.116 Y-48.237 E0.22428
G1 X5.579 Y-49.394 E0.22627
G1 X6.53 Y-49.857 E0.08795
G1 X7.039 Y-50.06 E0.04557
G1 X7.447 Y-50.164 E0.03501
G1 X8.076 Y-50.235 E0.05263
G1 X8.5 Y-50.246 E0.03527
G1 X19.521 Y-50.246 E0.9164
G1 X20.229 Y-50.235 E0.05888
G1 X20.774 Y-50.186 E0.0455
G1 X21.378 Y-50.036 E0.05175
G1 X21.827 Y-49.883 E0.03944
G1 X23.652 Y-49.239 E0.16092
G1 X26.241 Y-48.407 E0.22612
G1 X28.851 Y-47.649 E0.22599
G1 X31.465 Y-46.969 E0.22459
G1 X34.165 Y-46.349 E0.23035
G1 X36.822 Y-45.816 E0.22533
G1 X39.495 Y-45.359 E0.22549
G1 X42.169 Y-44.978 E0.22459
G1 X44.872 Y-44.671 E0.2262
G1 X47.616 Y-44.438 E0.22899
G1 X50.311 Y-44.286 E0.22445
G1 X54.421 Y-44.199 E0.34182
G1 X62.519 Y-44.199 E0.67335
G1 X63.215 Y-44.189 E0.05788
G1 X63.76 Y-44.141 E0.04549
G1 X64.293 Y-44.014 E0.04556
G1 X64.801 Y-43.811 E0.04549
G1 X65.274 Y-43.537 E0.04545
G1 X65.703 Y-43.196 E0.04557
G1 X66.077 Y-42.797 E0.04547
G1 X66.389 Y-42.347 E0.04553
G1 X66.633 Y-41.857 E0.04552
G1 X66.802 Y-41.336 E0.04554
G1 X66.91 Y-40.544 E0.06646
G1 X66.92 Y-40.117 E0.03551
G1 X66.92 Y9.881 E4.15735
G1 X66.91 Y10.599 E0.05971
G1 X66.862 Y11.145 E0.04558
G1 X66.736 Y11.677 E0.04546
G1 X66.533 Y12.186 E0.04557
G1 X66.259 Y12.659 E0.04545
G1 X65.757 Y13.252 E0.0646
G1 X65.417 Y13.578 E0.03917
G1 X64.029 Y14.871 E0.15773
G1 X62.094 Y16.78 E0.22602
G1 X60.213 Y18.743 E0.22606
G1 X58.391 Y20.754 E0.22564
G1 X56.605 Y22.843 E0.22853
G1 X54.921 Y24.928 E0.22285
G1 X53.239 Y27.137 E0.23086
G1 X51.673 Y29.32 E0.22339
G1 X50.136 Y31.593 E0.22815
G1 X48.681 Y33.883 E0.2256
G1 X47.288 Y36.219 E0.22615
G1 X45.962 Y38.592 E0.22603
G1 X44.701 Y41.007 E0.22653
G1 X43.508 Y43.46 E0.22681
G1 X42.381 Y45.951 E0.22734
G1 X41.329 Y48.461 E0.2263
G1 X41.014 Y49.285 E0.07335
G1 X40.642 Y50.21 E0.0829
G1 X40.401 Y50.702 E0.04555
G1 X40.092 Y51.153 E0.04546
G1 X39.72 Y51.554 E0.04548
G1 X39.293 Y51.897 E0.04554
G1 X38.821 Y52.175 E0.04555
G1 X38.314 Y52.38 E0.04547
G1 X37.782 Y52.51 E0.04554
G1 X37.279 Y52.559 E0.04202
G1 X36.84 Y52.571 E0.03652
G1 X25.824 Y52.571 E0.91598
G1 X25.123 Y52.561 E0.05829
G1 X24.577 Y52.513 E0.04558
G1 X24.045 Y52.386 E0.04548
G1 X23.536 Y52.184 E0.04553
G1 X23.063 Y51.909 E0.04549
G1 X22.634 Y51.568 E0.04557
G1 X22.26 Y51.169 E0.04547
G1 X21.689 Y50.462 E0.07557
G1 X21.026 Y49.617 E0.08931
G1 X19.245 Y47.476 E0.23157
G1 X17.482 Y45.476 E0.22169
G1 X15.628 Y43.488 E0.22603
G1 X13.696 Y41.529 E0.22878
G1 X11.739 Y39.657 E0.22519
G1 X9.71 Y37.82 E0.22759
G1 X7.658 Y36.067 E0.22441
G1 X5.52 Y34.34 E0.22853
G1 X3.361 Y32.699 E0.22549
G1 X1.16 Y31.119 E0.22529
G1 X-1.113 Y29.584 E0.22806
G1 X-3.414 Y28.123 E0.22664
G1 X-5.732 Y26.741 E0.2244
G1 X-8.122 Y25.408 E0.22755
G1 X-10.546 Y24.143 E0.22735
M566 X1800 Y1800
G0 F3600 X-10.291 Y23.712
M566 X1200 Y1200
G1 F3000 X-12.793 Y22.495 E0.23135
G1 X-15.253 Y21.384 E0.22444
G1 X-17.806 Y20.315 E0.23014
G1 X-20.35 Y19.337 E0.22663
G1 X-22.921 Y18.43 E0.22669
G1 X-25.515 Y17.596 E0.22657
G1 X-28.18 Y16.821 E0.23078
G1 X-30.781 Y16.144 E0.22348
G1 X-33.506 Y15.515 E0.23254
G1 X-36.155 Y14.986 E0.22461
G1 X-38.854 Y14.523 E0.2277
G1 X-41.554 Y14.138 E0.22678
G1 X-44.332 Y13.823 E0.23247
G1 X-44.818 Y13.774 E0.04062
G1 X-45.32 Y13.683 E0.04242
G1 X-45.801 Y13.515 E0.04236
G1 X-46.249 Y13.274 E0.0423
G1 X-46.655 Y12.965 E0.04242
G1 X-47.007 Y12.597 E0.04234
G1 X-47.297 Y12.178 E0.04237
G1 X-47.519 Y11.719 E0.0424
G1 X-47.666 Y11.232 E0.0423
G1 X-47.739 Y10.629 E0.05051
G1 X-47.749 Y10.212 E0.03468
G1 X-47.77 Y-14.833 E2.0825
G1 X-47.761 Y-15.487 E0.05439
G1 X-47.714 Y-15.994 E0.04234
G1 X-47.588 Y-16.488 E0.04239
G1 X-47.387 Y-16.956 E0.04235
G1 X-47.115 Y-17.387 E0.04238
G1 X-46.779 Y-17.77 E0.04236
G1 X-46.387 Y-18.096 E0.04239
G1 X-45.949 Y-18.356 E0.04235
G1 X-45.683 Y-18.473 E0.02416
G1 X-44.634 Y-18.879 E0.09353
G1 X-42.044 Y-19.923 E0.2322
G1 X-39.563 Y-21.007 E0.22513
G1 X-37.055 Y-22.188 E0.23051
G1 X-34.639 Y-23.41 E0.22513
G1 X-32.22 Y-24.72 E0.22874
G1 X-29.839 Y-26.1 E0.22883
G1 X-27.54 Y-27.519 E0.22464
G1 X-25.226 Y-29.038 E0.23016
G1 X-22.994 Y-30.597 E0.22638
G1 X-20.813 Y-32.214 E0.22576
G1 X-18.634 Y-33.928 E0.23052
G1 X-16.542 Y-35.67 E0.22636
G1 X-14.505 Y-37.467 E0.22587
G1 X-12.476 Y-39.36 E0.23074
G1 X-10.544 Y-41.27 E0.2259
G1 X-9.609 Y-42.246 E0.11239
G1 X-9.141 Y-42.721 E0.05545
G1 X-8.756 Y-43.055 E0.04238
G1 X-8.324 Y-43.324 E0.04232
G1 X-7.805 Y-43.541 E0.04678
G1 X-6.87 Y-43.843 E0.0817
G1 X-4.292 Y-44.715 E0.22629
G1 X-1.698 Y-45.675 E0.22999
G1 X0.821 Y-46.69 E0.22582
G1 X3.349 Y-47.793 E0.22934
G1 X5.798 Y-48.944 E0.225
G1 X6.749 Y-49.407 E0.08795
G1 X7.224 Y-49.594 E0.04245
G1 X7.545 Y-49.674 E0.02751
G1 X8.09 Y-49.736 E0.04561
G1 X8.5 Y-49.746 E0.0341
G1 X19.513 Y-49.746 E0.91573
G1 X20.221 Y-49.735 E0.05888
G1 X20.729 Y-49.687 E0.04243
G1 X21.217 Y-49.562 E0.04189
G1 X21.661 Y-49.411 E0.039
G1 X23.481 Y-48.769 E0.16047
G1 X26.086 Y-47.932 E0.22751
G1 X28.732 Y-47.163 E0.22912
G1 X31.365 Y-46.478 E0.22622
G1 X34.025 Y-45.867 E0.22694
G1 X36.744 Y-45.322 E0.23058
G1 X39.411 Y-44.866 E0.22498
G1 X42.117 Y-44.48 E0.22728
G1 X44.84 Y-44.171 E0.22787
G1 X47.546 Y-43.942 E0.22581
G1 X50.301 Y-43.785 E0.22945
G1 X54.41 Y-43.699 E0.34174
G1 X62.512 Y-43.699 E0.67368
G1 X63.208 Y-43.689 E0.05788
G1 X63.715 Y-43.641 E0.04235
G1 X64.209 Y-43.515 E0.04239
G1 X64.677 Y-43.314 E0.04235
G1 X65.107 Y-43.042 E0.04231
G1 X65.49 Y-42.706 E0.04236
G1 X65.816 Y-42.314 E0.04239
G1 X66.076 Y-41.876 E0.04235
G1 X66.265 Y-41.402 E0.04243
G1 X66.377 Y-40.905 E0.04236
G1 X66.419 Y-40.208 E0.05806
G1 X66.42 Y9.874 E4.16434
G1 X66.41 Y10.592 E0.05971
G1 X66.363 Y11.1 E0.04242
G1 X66.237 Y11.593 E0.04231
G1 X66.036 Y12.061 E0.04235
G1 X65.764 Y12.492 E0.04238
G1 X65.411 Y12.892 E0.04436
G1 X65.076 Y13.213 E0.03858
G1 X63.69 Y14.504 E0.1575
G1 X61.718 Y16.45 E0.23037
G1 X59.835 Y18.415 E0.2263
G1 X58.015 Y20.424 E0.2254
G1 X56.223 Y22.521 E0.22936
G1 X54.521 Y24.628 E0.22522
G1 X52.839 Y26.837 E0.23086
G1 X51.268 Y29.025 E0.22397
G1 X49.716 Y31.323 E0.23058
G1 X48.262 Y33.611 E0.22541
G1 X46.854 Y35.971 E0.22851
G1 X45.515 Y38.368 E0.2283
G1 X44.248 Y40.794 E0.22758
G1 X43.056 Y43.244 E0.22655
G1 X41.926 Y45.744 E0.22812
G1 X40.869 Y48.264 E0.22722
G1 X40.55 Y49.099 E0.07432
G1 X40.178 Y50.024 E0.0829
G1 X39.952 Y50.48 E0.04232
G1 X39.657 Y50.895 E0.04234
G1 X39.3 Y51.259 E0.04239
G1 X38.891 Y51.563 E0.04237
G1 X38.44 Y51.8 E0.04236
G1 X37.957 Y51.962 E0.04236
G1 X37.264 Y52.059 E0.05818
G1 X36.84 Y52.071 E0.03527
G1 X25.831 Y52.071 E0.9154
G1 X25.13 Y52.061 E0.05829
G1 X24.622 Y52.013 E0.04243
G1 X24.129 Y51.888 E0.04229
G1 X23.661 Y51.686 E0.04238
G1 X23.23 Y51.414 E0.04238
G1 X22.847 Y51.078 E0.04236
G1 X22.649 Y50.855 E0.0248
G1 X22.082 Y50.153 E0.07503
G1 X21.4 Y49.284 E0.09185
G1 X19.65 Y47.18 E0.22755
G1 X17.835 Y45.122 E0.22817
G1 X15.979 Y43.131 E0.22633
G1 X14.062 Y41.188 E0.22696
G1 X12.086 Y39.297 E0.22742
G1 X10.035 Y37.439 E0.23011
G1 X7.981 Y35.685 E0.22459
G1 X5.82 Y33.941 E0.2309
G1 X3.678 Y32.311 E0.22381
G1 X1.414 Y30.686 E0.23172
G1 X-.818 Y29.179 E0.22393
G1 X-3.142 Y27.704 E0.22888
G1 X-5.511 Y26.292 E0.22932
G1 X-7.871 Y24.975 E0.22472
G1 X-10.291 Y23.712 E0.22698
M566 X1800 Y1800
G1 F1500 E-6.5
;MESH:RoboCol25_podMount.3mf
G0 F3600 X-10.291 Y11.216
G0 X-10.291 Y9.781
G0 X-42.749 Y8.801
M566 X1200 Y1200
;TYPE:WALL-INNER
G1 F1500 E6.5
G1 F3000 X-42.771 Y-13.699 E1.87088
G1 X-5.08 Y-13.699 E3.13402
G1 X-5.08 Y-38.7 E2.07884
G1 X9.92 Y-38.699 E1.24726
G1 X9.92 Y-44.746 E0.50281
G1 X18.42 Y-44.746 E0.70678
G1 X18.42 Y-38.7 E0.50273
G1 X61.42 Y-38.699 E3.57546
G1 X61.42 Y8.801 E3.94964
G1 X35.42 Y8.8 E2.16191
G1 X35.42 Y47.071 E3.18225
G1 X26.92 Y47.071 E0.70678
G1 X26.92 Y8.801 E3.18216
G1 X-42.749 Y8.801 E5.793
M566 X1800 Y1800
G0 F3600 X-43.249 Y9.301
M566 X1200 Y1200
G1 F3000 X-43.271 Y-14.199 E1.95403
G1 X-5.58 Y-14.199 E3.13402
G1 X-5.58 Y-39.2 E2.07884
G1 X9.42 Y-39.199 E1.24726
G1 X9.42 Y-45.246 E0.50281
G1 X18.92 Y-45.246 E0.78993
G1 X18.92 Y-39.2 E0.50273
G1 X61.92 Y-39.199 E3.57546
G1 X61.92 Y9.301 E4.03279
G1 X35.92 Y9.3 E2.16191
G1 X35.92 Y47.571 E3.18225
G1 X26.42 Y47.571 E0.78993
G1 X26.42 Y9.301 E3.18216
G1 X-43.249 Y9.301 E5.793
M566 X1800 Y1800
G0 F3600 X-43.749 Y9.801
M566 X1200 Y1200
G1 F3000 X-43.771 Y-14.699 E2.03718
G1 X-6.08 Y-14.699 E3.13402
G1 X-6.08 Y-39.7 E2.07884
G1 X8.92 Y-39.699 E1.24726
G1 X8.92 Y-45.746 E0.50281
G1 X19.42 Y-45.746 E0.87308
G1 X19.42 Y-39.7 E0.50273
G1 X62.42 Y-39.699 E3.57546
G1 X62.42 Y9.801 E4.11594
G1 X36.42 Y9.8 E2.16191
G1 X36.42 Y48.071 E3.18225
G1 X25.92 Y48.071 E0.87308
G1 X25.92 Y9.801 E3.18216
G1 X-43.749 Y9.801 E5.793
M566 X1800 Y1800
G0 F3600 X-44.249 Y10.301
M566 X1200 Y1200
;TYPE:WALL-OUTER
G1 F3000 X-44.271 Y-15.199 E2.12033
G1 X-6.58 Y-15.199 E3.13402
G1 X-6.58 Y-40.2 E2.07884
G1 X8.42 Y-40.199 E1.24726
G1 X8.42 Y-46.246 E0.50281
G1 X19.92 Y-46.246 E0.95623
G1 X19.92 Y-40.2 E0.50273
G1 X62.92 Y-40.199 E3.57546
G1 X62.92 Y10.301 E4.19909
G1 X36.92 Y10.3 E2.16191
G1 X36.92 Y48.571 E3.18225
G1 X25.42 Y48.571 E0.95623
G1 X25.42 Y10.301 E3.18216
G1 X-44.249 Y10.301 E5.793
M566 X1800 Y1800
G0 F3600 X-44.249 Y10.051
G0 X-43.679 Y9.731
G0 X-42.259 Y8.311
M566 X1200 Y1200
;TYPE:SKIN
G1 F3000 X-42.281 Y-13.209 E1.7894
G1 X-4.59 Y-13.209 E3.13402
G1 X-4.59 Y-38.21 E2.07884
G1 X10.41 Y-38.209 E1.24726
G1 X10.41 Y-44.256 E0.50281
G1 X17.93 Y-44.256 E0.62529
G1 X17.93 Y-38.21 E0.50273
G1 X60.93 Y-38.209 E3.57546
G1 X60.93 Y8.311 E3.86815
G1 X34.93 Y8.31 E2.16191
G1 X34.93 Y46.581 E3.18225
G1 X27.41 Y46.581 E0.62529
G1 X27.41 Y8.311 E3.18216
G1 X-42.259 Y8.311 E5.793
M566 X1800 Y1800
G0 F3600 X-42.033 Y7.463
M566 X1200 Y1200
G1 F3000 X-41.411 Y8.085 E0.07314
M566 X1800 Y1800
G0 F3600 X-40.704 Y8.085
M566 X1200 Y1200
G1 F3000 X-42.035 Y6.754 E0.15652
M566 X1800 Y1800
G0 F3600 X-42.036 Y6.047
M566 X1200 Y1200
G1 F3000 X-39.997 Y8.085 E0.23971
M566 X1800 Y1800
G0 F3600 X-39.29 Y8.085
M566 X1200 Y1200
G1 F3000 X-42.036 Y5.339 E0.32291
M566 X1800 Y1800
G0 F3600 X-42.037 Y4.631
M566 X1200 Y1200
G1 F3000 X-38.583 Y8.085 E0.40616
M566 X1800 Y1800
G0 F3600 X-37.876 Y8.085
M566 X1200 Y1200
G1 F3000 X-42.038 Y3.923 E0.48942
M566 X1800 Y1800
G0 F3600 X-42.038 Y3.215
M566 X1200 Y1200
G1 F3000 X-37.169 Y8.085 E0.57262
M566 X1800 Y1800
G0 F3600 X-36.461 Y8.085
M566 X1200 Y1200
G1 F3000 X-42.039 Y2.508 E0.65587
M566 X1800 Y1800
G0 F3600 X-42.04 Y1.8
M566 X1200 Y1200
G1 F3000 X-35.754 Y8.085 E0.73913
M566 X1800 Y1800
G0 F3600 X-35.047 Y8.085
M566 X1200 Y1200
G1 F3000 X-42.041 Y1.092 E0.82238
M566 X1800 Y1800
G0 F3600 X-42.041 Y0.384
M566 X1200 Y1200
G1 F3000 X-34.34 Y8.085 E0.90558
M566 X1800 Y1800
G0 F3600 X-33.633 Y8.085
M566 X1200 Y1200
G1 F3000 X-42.042 Y-.323 E0.98878
M566 X1800 Y1800
G0 F3600 X-42.043 Y-1.03
M566 X1200 Y1200
G1 F3000 X-32.926 Y8.085 E1.07197
M566 X1800 Y1800
G0 F3600 X-32.219 Y8.085
M566 X1200 Y1200
G1 F3000 X-42.043 Y-1.738 E1.15517
M566 X1800 Y1800
G0 F3600 X-42.044 Y-2.446
M566 X1200 Y1200
G1 F3000 X-31.512 Y8.085 E1.23842
M566 X1800 Y1800
G0 F3600 X-30.805 Y8.085
M566 X1200 Y1200
G1 F3000 X-42.045 Y-3.155 E1.32174
M566 X1800 Y1800
G0 F3600 X-42.046 Y-3.862
M566 X1200 Y1200
G1 F3000 X-30.098 Y8.085 E1.40493
M566 X1800 Y1800
G0 F3600 X-29.39 Y8.085
M566 X1200 Y1200
G1 F3000 X-42.047 Y-4.57 E1.48825
M566 X1800 Y1800
G0 F3600 X-42.048 Y-5.278
M566 X1200 Y1200
G1 F3000 X-28.683 Y8.085 E1.5715
M566 X1800 Y1800
G0 F3600 X-27.976 Y8.085
M566 X1200 Y1200
G1 F3000 X-42.048 Y-5.986 E1.6547
M566 X1800 Y1800
G0 F3600 X-42.049 Y-6.694
M566 X1200 Y1200
G1 F3000 X-27.269 Y8.085 E1.73796
M566 X1800 Y1800
G0 F3600 X-26.562 Y8.085
M566 X1200 Y1200
G1 F3000 X-42.05 Y-7.401 E1.82115
M566 X1800 Y1800
G0 F3600 X-42.05 Y-8.109
M566 X1200 Y1200
G1 F3000 X-25.855 Y8.085 E1.90435
M566 X1800 Y1800
G0 F3600 X-25.148 Y8.085
M566 X1200 Y1200
G1 F3000 X-42.051 Y-8.817 E1.9876
M566 X1800 Y1800
G0 F3600 X-42.052 Y-9.525
M566 X1200 Y1200
G1 F3000 X-24.441 Y8.085 E2.07086
M566 X1800 Y1800
G0 F3600 X-23.734 Y8.085
M566 X1200 Y1200
G1 F3000 X-42.053 Y-10.233 E2.15412
M566 X1800 Y1800
G0 F3600 X-42.053 Y-10.941
M566 X1200 Y1200
G1 F3000 X-23.026 Y8.085 E2.23737
M566 X1800 Y1800
G0 F3600 X-22.319 Y8.085
M566 X1200 Y1200
G1 F3000 X-42.054 Y-11.648 E2.32057
M566 X1800 Y1800
G0 F3600 X-42.055 Y-12.357
M566 X1200 Y1200
G1 F3000 X-21.612 Y8.085 E2.40388
M566 X1800 Y1800
G0 F3600 X-20.905 Y8.085
M566 X1200 Y1200
G1 F3000 X-41.974 Y-12.983 E2.47749
M566 X1800 Y1800
G0 F3600 X-41.267 Y-12.983
M566 X1200 Y1200
G1 F3000 X-20.198 Y8.085 E2.47749
M566 X1800 Y1800
G0 F3600 X-19.491 Y8.085
M566 X1200 Y1200
G1 F3000 X-40.56 Y-12.983 E2.47749
M566 X1800 Y1800
G0 F3600 X-39.853 Y-12.983
M566 X1200 Y1200
G1 F3000 X-18.784 Y8.085 E2.47749
M566 X1800 Y1800
G0 F3600 X-18.077 Y8.085
M566 X1200 Y1200
G1 F3000 X-39.146 Y-12.983 E2.47749
M566 X1800 Y1800
G0 F3600 X-38.439 Y-12.983
M566 X1200 Y1200
G1 F3000 X-17.37 Y8.085 E2.47749
M566 X1800 Y1800
G0 F3600 X-16.662 Y8.085
M566 X1200 Y1200
G1 F3000 X-37.731 Y-12.983 E2.47749
M566 X1800 Y1800
G0 F3600 X-37.024 Y-12.983
M566 X1200 Y1200
G1 F3000 X-15.955 Y8.085 E2.47749
M566 X1800 Y1800
G0 F3600 X-15.248 Y8.085
M566 X1200 Y1200
G1 F3000 X-36.317 Y-12.983 E2.47749
M566 X1800 Y1800
G0 F3600 X-35.61 Y-12.983
M566 X1200 Y1200
G1 F3000 X-14.541 Y8.085 E2.47749
M566 X1800 Y1800
G0 F3600 X-13.834 Y8.085
M566 X1200 Y1200
G1 F3000 X-34.903 Y-12.983 E2.47749
M566 X1800 Y1800
G0 F3600 X-34.196 Y-12.983
M566 X1200 Y1200
G1 F3000 X-13.127 Y8.085 E2.47749
M566 X1800 Y1800
G0 F3600 X-12.42 Y8.085
M566 X1200 Y1200
G1 F3000 X-33.489 Y-12.983 E2.47749
M566 X1800 Y1800
G0 F3600 X-32.782 Y-12.983
M566 X1200 Y1200
G1 F3000 X-11.713 Y8.085 E2.47749
M566 X1800 Y1800
G0 F3600 X-11.006 Y8.085
M566 X1200 Y1200
G1 F3000 X-32.075 Y-12.983 E2.47749
M566 X1800 Y1800
G0 F3600 X-31.367 Y-12.983
M566 X1200 Y1200
