;FLAVOR:RepRap
;TIME:181
;Filament used: 0.361404m
;Layer height: 0.3
;MINX:-8.25
;MINY:-17.75
;MINZ:0.4
;MAXX:17.75
;MAXY:17.75
;MAXZ:4.9
;POSTPROCESSED
;Generated with Cura_SteamEngine 4.13.1
T0
M190 S60
M104 S220
M109 S220
M82 ;absolute extrusion mode
G28 ;Home
G1 Z15.0 F6000 ;Move the platform down 15mm
;Prime the extruder
G92 E0
G1 F200 E3
G92 E0
M83 ;relative extrusion mode
G1 F1500 E-6.5
;LAYER_COUNT:16
;LAYER:0
M107 P1
M204 T5000
M566 X1800 Y1800
G0 F3600 X-8.25 Y3.607 Z0.4
M204 P3000
M566 X1200 Y1200
;TYPE:SKIRT
G1 F1500 E6.5
G1 F3000 X-8.25 Y-3.743 E0.61115
G1 X-8.245 Y-5.229 E0.12356
G1 X-8.25 Y-5.893 E0.05521
G1 X-8.25 Y-12.884 E0.5813
G1 X-8.241 Y-13.549 E0.0553
G1 X-8.193 Y-14.129 E0.04839
G1 X-8.066 Y-14.698 E0.04848
G1 X-7.863 Y-15.244 E0.04844
G1 X-7.586 Y-15.757 E0.04848
G1 X-7.243 Y-16.228 E0.04845
G1 X-6.838 Y-16.647 E0.04846
G1 X-6.379 Y-17.007 E0.0485
G1 X-5.876 Y-17.3 E0.0484
G1 X-5.337 Y-17.522 E0.04847
G1 X-4.773 Y-17.668 E0.04844
G1 X-4.11 Y-17.739 E0.05544
G1 X-3.67 Y-17.75 E0.0366
G1 X3.353 Y-17.75 E0.58396
G1 X4.056 Y-17.74 E0.05846
G1 X4.637 Y-17.691 E0.04848
G1 X5.206 Y-17.564 E0.04848
G1 X5.752 Y-17.36 E0.04847
G1 X6.265 Y-17.084 E0.04844
G1 X6.735 Y-16.74 E0.04843
G1 X7.142 Y-16.347 E0.04704
G1 X7.81 Y-15.612 E0.08259
G1 X8.403 Y-14.938 E0.07465
G1 X10.252 Y-12.956 E0.22538
G1 X12.139 Y-11.046 E0.22325
G1 X14.119 Y-9.151 E0.22789
G1 X16.089 Y-7.369 E0.22088
G1 X16.304 Y-7.179 E0.02386
G1 X16.714 Y-6.764 E0.04851
G1 X17.062 Y-6.297 E0.04843
G1 X17.344 Y-5.786 E0.04853
G1 X17.553 Y-5.242 E0.04846
G1 X17.685 Y-4.675 E0.04841
G1 X17.738 Y-4.125 E0.04594
G1 X17.75 Y-3.67 E0.03785
G1 X17.75 Y3.353 E0.58396
G1 X17.74 Y4.056 E0.05846
G1 X17.691 Y4.637 E0.04848
G1 X17.564 Y5.206 E0.04848
G1 X17.36 Y5.752 E0.04847
G1 X17.084 Y6.265 E0.04844
G1 X16.74 Y6.735 E0.04843
G1 X16.347 Y7.142 E0.04704
G1 X15.589 Y7.83 E0.08512
G1 X14.952 Y8.39 E0.07052
G1 X12.955 Y10.253 E0.22709
G1 X11.046 Y12.139 E0.22314
G1 X9.168 Y14.101 E0.22583
G1 X7.336 Y16.126 E0.22706
G1 X7.185 Y16.298 E0.01903
G1 X6.771 Y16.708 E0.04845
G1 X6.305 Y17.058 E0.04846
G1 X5.795 Y17.34 E0.04846
G1 X5.252 Y17.551 E0.04844
G1 X4.685 Y17.685 E0.04844
G1 X4.112 Y17.739 E0.04786
G1 X3.67 Y17.75 E0.03676
G1 X-3.348 Y17.75 E0.58355
G1 X-4.046 Y17.741 E0.05804
G1 X-4.627 Y17.693 E0.04847
G1 X-5.195 Y17.567 E0.04838
G1 X-5.742 Y17.364 E0.04851
G1 X-6.255 Y17.088 E0.04844
G1 X-6.726 Y16.744 E0.0485
G1 X-7.145 Y16.34 E0.0484
G1 X-7.505 Y15.881 E0.0485
G1 X-7.799 Y15.378 E0.04844
G1 X-8.021 Y14.839 E0.04847
G1 X-8.168 Y14.275 E0.04846
G1 X-8.239 Y13.606 E0.05594
G1 X-8.25 Y13.158 E0.03726
G1 X-8.25 Y5.757 E0.6154
G1 X-8.245 Y4.271 E0.12356
G1 X-8.25 Y3.607 E0.05521
M566 X1800 Y1800
G0 F3600 X-7.75 Y3.603
M566 X1200 Y1200
G1 F3000 X-7.75 Y-3.742 E0.61074
G1 X-7.745 Y-5.228 E0.12356
G1 X-7.75 Y-5.897 E0.05563
G1 X-7.75 Y-12.877 E0.58039
G1 X-7.741 Y-13.542 E0.0553
G1 X-7.693 Y-14.087 E0.04549
G1 X-7.567 Y-14.62 E0.04554
G1 X-7.365 Y-15.128 E0.04546
G1 X-7.09 Y-15.602 E0.04557
G1 X-6.75 Y-16.031 E0.04552
G1 X-6.351 Y-16.405 E0.04547
G1 X-5.902 Y-16.718 E0.04551
G1 X-5.412 Y-16.962 E0.04552
G1 X-4.891 Y-17.131 E0.04554
G1 X-4.096 Y-17.24 E0.06672
G1 X-3.67 Y-17.25 E0.03543
G1 X3.346 Y-17.25 E0.58338
G1 X4.049 Y-17.24 E0.05846
G1 X4.595 Y-17.192 E0.04558
G1 X5.127 Y-17.065 E0.04548
G1 X5.636 Y-16.863 E0.04553
G1 X6.109 Y-16.588 E0.04549
G1 X6.538 Y-16.247 E0.04557
G1 X6.772 Y-16.011 E0.02763
G1 X7.434 Y-15.281 E0.08194
G1 X8.016 Y-14.62 E0.07323
G1 X9.867 Y-12.635 E0.22568
G1 X11.81 Y-10.669 E0.22984
G1 X13.754 Y-8.808 E0.22377
G1 X15.791 Y-6.965 E0.22841
G1 X15.973 Y-6.804 E0.0202
G1 X16.356 Y-6.413 E0.04551
G1 X16.677 Y-5.97 E0.04549
G1 X16.931 Y-5.485 E0.04552
G1 X17.111 Y-4.968 E0.04552
G1 X17.215 Y-4.43 E0.04556
G1 X17.248 Y-3.786 E0.05362
G1 X17.25 Y-3.67 E0.00965
G1 X17.25 Y3.346 E0.58338
G1 X17.24 Y4.049 E0.05846
G1 X17.192 Y4.595 E0.04558
G1 X17.065 Y5.127 E0.04548
G1 X16.863 Y5.636 E0.04553
G1 X16.588 Y6.109 E0.04549
G1 X16.247 Y6.538 E0.04557
G1 X16.011 Y6.772 E0.02763
G1 X15.259 Y7.454 E0.08441
G1 X14.617 Y8.019 E0.07111
G1 X12.634 Y9.868 E0.22544
G1 X10.669 Y11.81 E0.22972
G1 X8.807 Y13.755 E0.22389
G1 X7 Y15.752 E0.22394
G1 X6.81 Y15.968 E0.02392
G1 X6.419 Y16.351 E0.04551
G1 X5.977 Y16.674 E0.04552
G1 X5.492 Y16.929 E0.04556
G1 X4.976 Y17.11 E0.04547
G1 X4.439 Y17.215 E0.0455
G1 X3.774 Y17.249 E0.05537
G1 X-3.341 Y17.25 E0.59161
G1 X-4.039 Y17.241 E0.05804
G1 X-4.585 Y17.194 E0.04557
G1 X-5.117 Y17.068 E0.04546
G1 X-5.626 Y16.866 E0.04553
G1 X-6.1 Y16.592 E0.04552
G1 X-6.529 Y16.252 E0.04552
G1 X-6.904 Y15.853 E0.04553
G1 X-7.217 Y15.404 E0.04551
G1 X-7.461 Y14.914 E0.04552
G1 X-7.631 Y14.394 E0.04549
G1 X-7.74 Y13.592 E0.0673
G1 X-7.75 Y13.158 E0.0361
G1 X-7.75 Y5.758 E0.61531
G1 X-7.745 Y4.272 E0.12356
G1 X-7.75 Y3.603 E0.05563
M566 X1800 Y1800
G0 F3600 X-7.25 Y3.6
M566 X1200 Y1200
G1 F3000 X-7.25 Y-3.74 E0.61032
G1 X-7.245 Y-5.226 E0.12356
G1 X-7.25 Y-5.9 E0.05604
G1 X-7.25 Y-12.87 E0.57956
G1 X-7.241 Y-13.535 E0.0553
G1 X-7.194 Y-14.042 E0.04234
G1 X-7.068 Y-14.536 E0.04239
G1 X-6.867 Y-15.004 E0.04235
G1 X-6.595 Y-15.435 E0.04238
G1 X-6.259 Y-15.818 E0.04236
G1 X-5.868 Y-16.144 E0.04233
G1 X-5.43 Y-16.405 E0.0424
G1 X-4.957 Y-16.594 E0.04235
G1 X-4.46 Y-16.707 E0.04238
G1 X-3.761 Y-16.749 E0.05823
G1 X3.339 Y-16.75 E0.59037
G1 X4.042 Y-16.74 E0.05846
G1 X4.55 Y-16.693 E0.04242
G1 X5.043 Y-16.567 E0.04231
G1 X5.511 Y-16.365 E0.04238
G1 X5.942 Y-16.093 E0.04238
G1 X6.402 Y-15.675 E0.05168
G1 X7.059 Y-14.951 E0.08129
G1 X7.662 Y-14.266 E0.07588
G1 X9.515 Y-12.278 E0.22598
G1 X11.443 Y-10.327 E0.22807
G1 X13.427 Y-8.429 E0.2283
G1 X15.427 Y-6.619 E0.22429
G1 X15.642 Y-6.429 E0.02386
G1 X15.996 Y-6.063 E0.04234
G1 X16.289 Y-5.646 E0.04238
G1 X16.513 Y-5.188 E0.04239
G1 X16.662 Y-4.701 E0.04235
G1 X16.738 Y-4.094 E0.05087
G1 X16.75 Y-3.67 E0.03527
G1 X16.75 Y3.339 E0.5828
G1 X16.74 Y4.042 E0.05846
G1 X16.693 Y4.55 E0.04242
G1 X16.567 Y5.043 E0.04231
G1 X16.365 Y5.511 E0.04238
G1 X16.093 Y5.942 E0.04238
G1 X15.675 Y6.402 E0.05168
G1 X14.929 Y7.079 E0.08377
G1 X14.263 Y7.665 E0.07376
G1 X12.277 Y9.516 E0.22574
G1 X10.327 Y11.443 E0.22796
G1 X8.428 Y13.428 E0.22842
G1 X6.624 Y15.422 E0.22359
G1 X6.434 Y15.638 E0.02392
G1 X6.069 Y15.993 E0.04234
G1 X5.652 Y16.286 E0.04238
G1 X5.195 Y16.511 E0.04236
G1 X4.708 Y16.662 E0.0424
G1 X4.084 Y16.74 E0.05229
G1 X3.67 Y16.75 E0.03443
G1 X-3.335 Y16.75 E0.58247
G1 X-4.033 Y16.741 E0.05804
G1 X-4.54 Y16.694 E0.04234
G1 X-5.034 Y16.569 E0.04237
G1 X-5.502 Y16.368 E0.04235
G1 X-5.934 Y16.097 E0.0424
G1 X-6.317 Y15.761 E0.04236
G1 X-6.643 Y15.37 E0.04233
G1 X-6.904 Y14.932 E0.0424
G1 X-7.093 Y14.459 E0.04235
G1 X-7.207 Y13.962 E0.0424
G1 X-7.249 Y13.246 E0.05964
G1 X-7.25 Y5.76 E0.62246
G1 X-7.245 Y4.274 E0.12356
G1 X-7.25 Y3.6 E0.05604
M566 X1800 Y1800
G1 F1500 E-6.5
;MESH:RoboCol25-PwrMuxMnt.3mf
G0 F3600 X-4.665 Y3.236
G0 X-3.236 Y3.236
G0 X-.774 Y3.215
G1 F1500 E6.5
G0 F3600 X-.635 Y2.632
M566 X1200 Y1200
;TYPE:WALL-OUTER
G1 F3000 X-.173 Y2.742 E0.03949
G1 X0.308 Y2.725 E0.04002
G1 X0.776 Y2.569 E0.04102
G1 X1.181 Y2.292 E0.0408
G1 X1.49 Y1.919 E0.04028
G1 X1.682 Y1.482 E0.03969
G1 X1.75 Y1 E0.04048
G1 X1.682 Y0.518 E0.04048
G1 X1.483 Y0.071 E0.04069
G1 X1.172 Y-.3 E0.04025
G1 X0.774 Y-.569 E0.03994
G1 X0.308 Y-.723 E0.04081
G1 X0.026 Y-.75 E0.02356
G1 X-.465 Y-.688 E0.04115
G1 X-.904 Y-.498 E0.03978
G1 X-1.28 Y-.193 E0.04026
G1 X-1.562 Y0.21 E0.0409
G1 X-1.718 Y0.666 E0.04007
G1 X-1.744 Y1.146 E0.03997
G1 X-1.635 Y1.624 E0.04077
G1 X-1.404 Y2.045 E0.03993
G1 X-1.059 Y2.393 E0.04075
G1 X-.635 Y2.632 E0.04047
M566 X1800 Y1800
G0 F3600 X-.392 Y2.69
G0 X-.531 Y3.273
G0 X0.405 Y3.261
G0 X1.018 Y3.056
G0 X1.547 Y2.694
G0 X1.954 Y2.204
G0 X3.18 Y-3.18
G0 X3.75 Y-3.75
M566 X1200 Y1200
G1 F3000 X3.75 Y3.75 E0.62363
G1 X-3.75 Y3.75 E0.62363
G1 X-3.75 Y-3.75 E0.62363
G1 X3.75 Y-3.75 E0.62363
M566 X1800 Y1800
G0 F3600 X3.75 Y-3.5
G0 X3.18 Y-3.18
G0 X2.205 Y1.63
G0 X1.954 Y2.204
G0 X1.547 Y2.694
G0 X1.018 Y3.056
G0 X0.405 Y3.261
G0 X-.232 Y3.343
G0 X-.223 Y3.244
M566 X1200 Y1200
;TYPE:WALL-INNER
G1 F3000 X0.398 Y3.222 E0.05167
G1 X1.001 Y3.021 E0.05285
G1 X1.521 Y2.665 E0.0524
G1 X1.92 Y2.184 E0.05196
G1 X2.167 Y1.62 E0.0512
G1 X2.255 Y1 E0.05207
G1 X2.167 Y0.379 E0.05215
G1 X1.911 Y-.196 E0.05234
G1 X1.51 Y-.675 E0.05194
G1 X0.997 Y-1.022 E0.0515
G1 X0.412 Y-1.215 E0.05122
G1 X0.018 Y-1.253 E0.03291
G1 X-.598 Y-1.175 E0.05163
G1 X-1.166 Y-.93 E0.05144
G1 X-1.649 Y-.537 E0.05178
G1 X-2.012 Y-0.019 E0.0526
G1 X-2.214 Y0.57 E0.05178
G1 X-2.247 Y1.189 E0.05154
G1 X-2.107 Y1.803 E0.05236
G1 X-1.809 Y2.347 E0.05158
G1 X-1.365 Y2.794 E0.05239
G1 X-.819 Y3.102 E0.05213
G1 X-.223 Y3.244 E0.05094
M566 X1800 Y1800
G0 F3600 X-.819 Y3.25
M566 X1200 Y1200
G1 F3000 X-1.365 Y3.25 E0.02673
G1 X-3.25 Y3.25 E0.15674
G1 X-3.25 Y-3.25 E0.54048
G1 X3.25 Y-3.25 E0.54048
G1 X3.25 Y3.25 E0.54048
G1 X1.001 Y3.25 E0.18701
G1 X0.398 Y3.25 E0.01239
G1 X-.223 Y3.25 E0.00176
G1 X-.819 Y3.25 E0.00735
M566 X1800 Y1800
G0 F3600 X-.819 Y3.15
G0 X-2.089 Y2.76
M566 X1200 Y1200
;TYPE:SKIN
G1 F3000 X-2.76 Y2.76 E0.05579
G1 X-2.76 Y-2.76 E0.45899
G1 X2.76 Y-2.76 E0.45899
G1 X2.76 Y2.76 E0.45899
G1 X2.079 Y2.76 E0.05663
G1 X2.341 Y2.444 E0.03413
G1 X2.643 Y1.755 E0.06255
G1 X2.75 Y1 E0.06341
G1 X2.643 Y0.242 E0.06365
G1 X2.331 Y-.458 E0.06373
G1 X1.841 Y-1.042 E0.06339
G1 X1.215 Y-1.466 E0.06287
G1 X0.514 Y-1.697 E0.06137
G1 X0.011 Y-1.746 E0.04202
G1 X-.729 Y-1.653 E0.06202
G1 X-1.423 Y-1.353 E0.06287
G1 X-2.011 Y-.874 E0.06306
G1 X-2.453 Y-.244 E0.06399
G1 X-2.7 Y0.476 E0.06329
G1 X-2.74 Y1.232 E0.06295
G1 X-2.569 Y1.979 E0.06372
G1 X-2.205 Y2.643 E0.06296
G1 X-2.089 Y2.76 E0.0137
M566 X1800 Y1800
G0 F3600 X-2.248 Y1.491
G0 X-2.283 Y-1.264
M566 X1200 Y1200
G1 F3000 X-2.112 Y-1.405 E0.01843
G1 X-2.284 Y-1.577 E0.02023
G1 X-2.112 Y-1.405
G1 X-1.721 Y-1.721 E0.0418
G1 X-2.284 Y-2.284 E0.0662
G1 X-1.577 Y-2.284 E0.05879
G1 X-1.241 Y-1.948 E0.03951
G1 X-.856 Y-2.114 E0.03486
G1 X-.718 Y-2.132 E0.01157
G1 X-.87 Y-2.284 E0.01787
G1 X-.163 Y-2.284 E0.05879
G1 X-0.09 Y-2.211 E0.00858
G1 X0.004 Y-2.223 E0.00788
G1 X0.613 Y-2.163 E0.05088
G1 X0.69 Y-2.137 E0.00676
G1 X0.543 Y-2.284 E0.01729
G1 X1.25 Y-2.284 E0.05879
G1 X2.086 Y-1.448 E0.09831
G1 X2.161 Y-1.397 E0.00754
G1 X2.284 Y-1.252 E0.01581
G1 X2.284 Y-1.957 E0.05862
G1 X1.957 Y-2.284 E0.03845
G1 X2.284 Y-2.284 E0.02719
M566 X1800 Y1800
G1 F1500 E-6.5
;MESH:RoboCol25-PwrMuxMnt.3mf(1)
G0 F3600 X-.312 Y-3.23
G0 X-.312 Y-6.27
G1 F1500 E6.5
G0 F3600 X-.173 Y-6.758
M566 X1200 Y1200
;TYPE:WALL-OUTER
G1 F3000 X0.308 Y-6.775 E0.04002
G1 X0.776 Y-6.931 E0.04102
G1 X1.181 Y-7.208 E0.0408
G1 X1.49 Y-7.581 E0.04028
G1 X1.682 Y-8.018 E0.03969
G1 X1.75 Y-8.5 E0.04048
G1 X1.682 Y-8.982 E0.04048
G1 X1.483 Y-9.429 E0.04069
G1 X1.172 Y-9.8 E0.04025
G1 X0.774 Y-10.069 E0.03994
G1 X0.308 Y-10.223 E0.04081
G1 X0.026 Y-10.25 E0.02356
G1 X-.465 Y-10.188 E0.04115
G1 X-.904 Y-9.998 E0.03978
G1 X-1.28 Y-9.693 E0.04026
G1 X-1.562 Y-9.29 E0.0409
G1 X-1.718 Y-8.834 E0.04007
G1 X-1.744 Y-8.354 E0.03997
G1 X-1.635 Y-7.876 E0.04077
G1 X-1.404 Y-7.455 E0.03993
G1 X-1.059 Y-7.107 E0.04075
G1 X-.635 Y-6.868 E0.04047
G1 X-.173 Y-6.758 E0.03949
M566 X1800 Y1800
G0 F3600 X0.077 Y-6.766
G0 X0.097 Y-6.167
G0 X-.833 Y-6.361
G0 X-1.389 Y-6.675
G0 X-1.841 Y-7.13
G0 X-3.18 Y-12.68
G0 X-3.75 Y-13.25
M566 X1200 Y1200
G1 F3000 X3.75 Y-13.25 E0.62363
G1 X3.75 Y-5.75 E0.62363
G1 X-3.75 Y-5.75 E0.62363
G1 X-3.75 Y-13.25 E0.62363
M566 X1800 Y1800
G0 F3600 X-3.5 Y-13.25
G0 X-3.25 Y-12.75
M566 X1200 Y1200
;TYPE:WALL-INNER
G1 F3000 X3.25 Y-12.75 E0.54048
G1 X3.25 Y-6.25 E0.54048
G1 X1.001 Y-6.25 E0.18701
G1 X0.398 Y-6.25 E0.05014
G1 X-.223 Y-6.25 E0.05164
G1 X-.819 Y-6.25 E0.04956
G1 X-1.365 Y-6.25 E0.0454
G1 X-3.25 Y-6.25 E0.15674
G1 X-3.25 Y-12.75 E0.54048
M566 X1800 Y1800
G0 F3600 X-3.18 Y-12.68
G0 X1.014 Y-10.557
G0 X1.536 Y-10.204
G0 X1.944 Y-9.717
G0 X2.205 Y-9.132
G0 X2.263 Y-7.853
G0 X2.167 Y-7.88
M566 X1200 Y1200
G1 F3000 X2.255 Y-8.5 E0.05207
G1 X2.167 Y-9.121 E0.05215
G1 X1.911 Y-9.696 E0.05234
G1 X1.51 Y-10.175 E0.05194
G1 X0.997 Y-10.522 E0.0515
G1 X0.412 Y-10.715 E0.05122
G1 X0.018 Y-10.753 E0.03291
G1 X-.598 Y-10.675 E0.05163
G1 X-1.166 Y-10.43 E0.05144
G1 X-1.649 Y-10.037 E0.05178
G1 X-2.012 Y-9.519 E0.0526
G1 X-2.214 Y-8.93 E0.05178
G1 X-2.247 Y-8.311 E0.05154
G1 X-2.107 Y-7.697 E0.05236
G1 X-1.809 Y-7.153 E0.05158
G1 X-1.365 Y-6.706 E0.05239
G1 X-.819 Y-6.398 E0.03343
G1 X-.223 Y-6.256 E0.00869
G1 X0.398 Y-6.278 E0.00176
G1 X1.001 Y-6.479 E0.01507
G1 X1.521 Y-6.835 E0.0524
G1 X1.92 Y-7.316 E0.05196
G1 X2.167 Y-7.88 E0.0512
M566 X1800 Y1800
G0 F3600 X2.643 Y-7.745
M566 X1200 Y1200
;TYPE:SKIN
G1 F3000 X2.75 Y-8.5 E0.06341
G1 X2.643 Y-9.258 E0.06365
G1 X2.331 Y-9.958 E0.06373
G1 X1.841 Y-10.542 E0.06339
G1 X1.215 Y-10.966 E0.06287
G1 X0.514 Y-11.197 E0.06137
G1 X0.011 Y-11.246 E0.04202
G1 X-.729 Y-11.153 E0.06202
G1 X-1.423 Y-10.853 E0.06287
G1 X-2.011 Y-10.374 E0.06306
G1 X-2.453 Y-9.744 E0.06399
G1 X-2.7 Y-9.024 E0.06329
G1 X-2.74 Y-8.268 E0.06295
G1 X-2.569 Y-7.521 E0.06372
G1 X-2.205 Y-6.857 E0.06296
G1 X-2.089 Y-6.74 E0.0137
G1 X-2.76 Y-6.74 E0.05579
G1 X-2.76 Y-12.26 E0.45899
G1 X2.76 Y-12.26 E0.45899
G1 X2.76 Y-6.74 E0.45899
G1 X2.079 Y-6.74 E0.05663
G1 X2.341 Y-7.056 E0.03413
G1 X2.643 Y-7.745 E0.06255
M566 X1800 Y1800
G0 F3600 X1.651 Y-11.783
M566 X1200 Y1200
G1 F3000 X0.943 Y-11.783 E0.05887
G1 X1.284 Y-11.443 E0.04004
G1 X0.613 Y-11.663 E0.05872
G1 X0.328 Y-11.692 E0.02382
G1 X0.236 Y-11.783 E0.01076
G1 X-.47 Y-11.783 E0.0587
G1 X-.364 Y-11.677 E0.01246
G1 X-.856 Y-11.615 E0.04123
G1 X-.963 Y-11.569 E0.00968
G1 X-1.177 Y-11.783 E0.02516
G1 X-1.884 Y-11.783 E0.05879
G1 X-1.456 Y-11.356 E0.05027
G1 X-1.672 Y-11.262 E0.01959
G1 X-1.891 Y-11.083 E0.02352
G1 X-2.285 Y-11.477 E0.04633
G1 X-2.285 Y-10.77 E0.05879
G1 X-2.281 Y-10.767
G1 X-2.285 Y-10.763 E0.00047
M566 X1800 Y1800
G0 F3600 X1.651 Y-11.783
M566 X1200 Y1200
G1 F3000 X2.284 Y-11.783 E0.05263
M566 X1800 Y1800
G0 F3600 X2.284 Y-11.15
M566 X1200 Y1200
G1 F3000 X1.651 Y-11.783 E0.07444
M566 X1800 Y1800
G1 F1500 E-6.5
;MESH:RoboCol25-PwrMuxMnt.3mf(3)
G0 F3600 X3.236 Y-6.264
G0 X4.665 Y-6.264
G0 X6.264 Y-4.665
G0 X6.264 Y-3.236
G0 X7.163 Y-.813
G1 F1500 E6.5
G0 F3600 X7.762 Y-.799
M566 X1200 Y1200
;TYPE:WALL-OUTER
G1 F3000 X7.882 Y-.331 E0.04017
G1 X8.125 Y0.083 E0.03992
G1 X8.476 Y0.419 E0.0404
G1 X8.909 Y0.647 E0.04069
G1 X9.383 Y0.745 E0.04025
G1 X9.866 Y0.712 E0.04026
G1 X10.324 Y0.545 E0.04054
G1 X10.717 Y0.258 E0.04046
G1 X11.013 Y-.119 E0.03986
G1 X11.196 Y-.571 E0.04055
G1 X11.249 Y-1.053 E0.04032
G1 X11.168 Y-1.528 E0.04007
G1 X10.966 Y-1.958 E0.0395
G1 X10.635 Y-2.332 E0.04153
G1 X10.233 Y-2.59 E0.03972
G1 X9.854 Y-2.715 E0.03318
G1 X9.469 Y-2.75 E0.03214
G1 X8.996 Y-2.677 E0.0398
G1 X8.556 Y-2.474 E0.04029
G1 X8.184 Y-2.153 E0.04086
G1 X7.918 Y-1.747 E0.04036
G1 X7.773 Y-1.284 E0.04034
G1 X7.762 Y-.799 E0.04034
M566 X1800 Y1800
G0 F3600 X7.824 Y-.557
G0 X7.243 Y-.41
G0 X6.32 Y3.18
G0 X5.75 Y3.75
M566 X1200 Y1200
G1 F3000 X5.75 Y-3.75 E0.62363
G1 X13.25 Y-3.75 E0.62363
G1 X13.25 Y3.75 E0.62363
G1 X5.75 Y3.75 E0.62363
M566 X1800 Y1800
G0 F3600 X5.75 Y3.5
G0 X6.32 Y3.18
G0 X10.58 Y1.026
G0 X11.095 Y0.649
G0 X11.484 Y0.154
G0 X11.723 Y-.439
G0 X11.793 Y-1.069
G0 X11.687 Y-1.69
G0 X11.421 Y-2.257
G0 X10.989 Y-2.745
G0 X10.139 Y-3.2
G0 X9.956 Y-3.208
M566 X1200 Y1200
;TYPE:WALL-INNER
G1 F3000 X9.487 Y-3.25 E0.03915
G1 X10.45 Y-3.25 E0.05001
G1 X10.951 Y-3.25 E0.04166
G1 X12.75 Y-3.25 E0.14959
G1 X12.75 Y3.25 E0.54048
G1 X6.25 Y3.25 E0.54048
G1 X6.25 Y-3.25 E0.54048
G1 X8.283 Y-3.25 E0.16904
G1 X8.85 Y-3.25 E0.04715
G1 X9.434 Y-3.25 E0.04856
G1 X8.85 Y-3.16 E0.00476
G1 X8.283 Y-2.899 E0.02486
G1 X7.804 Y-2.486 E0.05259
G1 X7.462 Y-1.963 E0.05196
G1 X7.275 Y-1.366 E0.05202
G1 X7.261 Y-.742 E0.0519
G1 X7.415 Y-.139 E0.05175
G1 X7.729 Y0.396 E0.05158
G1 X8.181 Y0.829 E0.05205
G1 X8.739 Y1.122 E0.05241
G1 X9.349 Y1.249 E0.05181
G1 X9.971 Y1.206 E0.05184
G1 X10.562 Y0.991 E0.05229
G1 X11.068 Y0.621 E0.05212
G1 X11.45 Y0.134 E0.05147
G1 X11.685 Y-.448 E0.05219
