;FLAVOR:RepRap
;TIME:8278
;Filament used: 31.8068m
;Layer height: 0.3
;MINX:-59.75
;MINY:-59.75
;MINZ:0.4
;MAXX:59.75
;MAXY:59.75
;MAXZ:60.1
;POSTPROCESSED
;Generated with Cura_SteamEngine 4.13.1
T0
M190 S60
M104 S215
M109 S215
M82 ;absolute extrusion mode
G28 ;Home
G1 Z15.0 F6000 ;Move the platform down 15mm
;Prime the extruder
G92 E0
G1 F200 E3
G92 E0
M83 ;relative extrusion mode
G1 F1500 E-6.5
;LAYER_COUNT:200
;LAYER:0
M107 P1
M204 T5000
M566 X1800 Y1800
G0 F3600 X-35.25 Y-20.25 Z0.4
M204 P3000
M566 X1200 Y1200
;TYPE:SKIRT
G1 F1500 E6.5
G1 F3000 X-35.25 Y20.25 E3.36759
G1 X50 Y20.25 E7.08857
G1 X50.882 Y20.29 E0.07341
G1 X51.757 Y20.41 E0.07344
G1 X52.617 Y20.608 E0.07338
G1 X53.456 Y20.883 E0.07342
G1 X54.267 Y21.233 E0.07345
G1 X55.042 Y21.655 E0.07338
G1 X55.777 Y22.146 E0.0735
G1 X56.464 Y22.7 E0.07338
G1 X57.097 Y23.315 E0.07339
G1 X57.673 Y23.984 E0.07341
G1 X58.186 Y24.703 E0.07344
G1 X58.631 Y25.466 E0.07345
G1 X59.006 Y26.265 E0.07339
G1 X59.307 Y27.095 E0.07341
G1 X59.532 Y27.949 E0.07343
G1 X59.678 Y28.82 E0.07343
G1 X59.75 Y30 E0.0983
G1 X59.75 Y50 E1.66301
G1 X59.71 Y50.882 E0.07341
G1 X59.59 Y51.757 E0.07344
G1 X59.392 Y52.617 E0.07338
G1 X59.117 Y53.456 E0.07342
G1 X58.767 Y54.267 E0.07345
G1 X58.345 Y55.042 E0.07338
G1 X57.854 Y55.777 E0.0735
G1 X57.3 Y56.464 E0.07338
G1 X56.685 Y57.097 E0.07339
G1 X56.016 Y57.673 E0.07341
G1 X55.297 Y58.186 E0.07344
G1 X54.534 Y58.631 E0.07345
G1 X53.735 Y59.006 E0.07339
G1 X52.905 Y59.307 E0.07341
G1 X52.051 Y59.532 E0.07343
G1 X51.18 Y59.678 E0.07343
G1 X50 Y59.75 E0.0983
G1 X45 Y59.75 E0.41575
G1 X44.118 Y59.71 E0.07341
G1 X43.243 Y59.59 E0.07344
G1 X42.383 Y59.392 E0.07338
G1 X41.544 Y59.117 E0.07342
G1 X40.733 Y58.767 E0.07345
G1 X39.958 Y58.345 E0.07338
G1 X39.223 Y57.854 E0.0735
G1 X38.536 Y57.3 E0.07338
G1 X37.903 Y56.685 E0.07339
G1 X37.327 Y56.016 E0.07341
G1 X36.814 Y55.297 E0.07344
G1 X36.369 Y54.534 E0.07345
G1 X35.994 Y53.735 E0.07339
G1 X35.693 Y52.905 E0.07341
G1 X35.468 Y52.051 E0.07343
G1 X35.322 Y51.18 E0.07343
G1 X35.25 Y50 E0.0983
G1 X35.25 Y44.75 E0.43654
G1 X-50 Y44.75 E7.08857
G1 X-50.882 Y44.71 E0.07341
G1 X-51.757 Y44.59 E0.07344
G1 X-52.617 Y44.392 E0.07338
G1 X-53.456 Y44.117 E0.07342
G1 X-54.267 Y43.767 E0.07345
G1 X-55.042 Y43.345 E0.07338
G1 X-55.777 Y42.854 E0.0735
G1 X-56.464 Y42.3 E0.07338
G1 X-57.097 Y41.685 E0.07339
G1 X-57.673 Y41.016 E0.07341
G1 X-58.186 Y40.297 E0.07344
G1 X-58.631 Y39.534 E0.07345
G1 X-59.006 Y38.735 E0.07339
G1 X-59.307 Y37.905 E0.07341
G1 X-59.532 Y37.051 E0.07343
G1 X-59.678 Y36.18 E0.07343
G1 X-59.75 Y35 E0.0983
G1 X-59.75 Y-35 E5.82052
G1 X-59.71 Y-35.882 E0.07341
G1 X-59.59 Y-36.757 E0.07344
G1 X-59.392 Y-37.617 E0.07338
G1 X-59.117 Y-38.456 E0.07342
G1 X-58.767 Y-39.267 E0.07345
G1 X-58.345 Y-40.042 E0.07338
G1 X-57.854 Y-40.777 E0.0735
G1 X-57.3 Y-41.464 E0.07338
G1 X-56.685 Y-42.097 E0.07339
G1 X-56.016 Y-42.673 E0.07341
G1 X-55.297 Y-43.186 E0.07344
G1 X-54.534 Y-43.631 E0.07345
G1 X-53.735 Y-44.006 E0.07339
G1 X-52.905 Y-44.307 E0.07341
G1 X-52.051 Y-44.532 E0.07343
G1 X-51.18 Y-44.678 E0.07343
G1 X-50 Y-44.75 E0.0983
G1 X35.25 Y-44.75 E7.08857
G1 X35.25 Y-50 E0.43654
G1 X35.29 Y-50.882 E0.07341
G1 X35.41 Y-51.757 E0.07344
G1 X35.608 Y-52.617 E0.07338
G1 X35.883 Y-53.456 E0.07342
G1 X36.233 Y-54.267 E0.07345
G1 X36.655 Y-55.042 E0.07338
G1 X37.146 Y-55.777 E0.0735
G1 X37.7 Y-56.464 E0.07338
G1 X38.315 Y-57.097 E0.07339
G1 X38.984 Y-57.673 E0.07341
G1 X39.703 Y-58.186 E0.07344
G1 X40.466 Y-58.631 E0.07345
G1 X41.265 Y-59.006 E0.07339
G1 X42.095 Y-59.307 E0.07341
G1 X42.949 Y-59.532 E0.07343
G1 X43.82 Y-59.678 E0.07343
G1 X45 Y-59.75 E0.0983
G1 X50 Y-59.75 E0.41575
G1 X50.882 Y-59.71 E0.07341
G1 X51.757 Y-59.59 E0.07344
G1 X52.617 Y-59.392 E0.07338
G1 X53.456 Y-59.117 E0.07342
G1 X54.267 Y-58.767 E0.07345
G1 X55.042 Y-58.345 E0.07338
G1 X55.777 Y-57.854 E0.0735
G1 X56.464 Y-57.3 E0.07338
G1 X57.097 Y-56.685 E0.07339
G1 X57.673 Y-56.016 E0.07341
G1 X58.186 Y-55.297 E0.07344
G1 X58.631 Y-54.534 E0.07345
G1 X59.006 Y-53.735 E0.07339
G1 X59.307 Y-52.905 E0.07341
G1 X59.532 Y-52.051 E0.07343
G1 X59.678 Y-51.18 E0.07343
G1 X59.75 Y-50 E0.0983
G1 X59.75 Y-30 E1.66301
G1 X59.71 Y-29.118 E0.07341
G1 X59.59 Y-28.243 E0.07344
G1 X59.392 Y-27.383 E0.07338
G1 X59.117 Y-26.544 E0.07342
G1 X58.767 Y-25.733 E0.07345
G1 X58.345 Y-24.958 E0.07338
G1 X57.854 Y-24.223 E0.0735
G1 X57.3 Y-23.536 E0.07338
G1 X56.685 Y-22.903 E0.07339
G1 X56.016 Y-22.327 E0.07341
G1 X55.297 Y-21.814 E0.07344
G1 X54.534 Y-21.369 E0.07345
G1 X53.735 Y-20.994 E0.07339
G1 X52.905 Y-20.693 E0.07341
G1 X52.051 Y-20.468 E0.07343
G1 X51.18 Y-20.322 E0.07343
G1 X50 Y-20.25 E0.0983
G1 X-35.25 Y-20.25 E7.08857
M566 X1800 Y1800
G0 F3600 X-35.75 Y-20.75
M566 X1200 Y1200
G1 F3000 X-35.75 Y20.75 E3.45074
G1 X50 Y20.75 E7.13014
G1 X50.859 Y20.79 E0.0715
G1 X51.711 Y20.91 E0.07154
G1 X52.548 Y21.108 E0.07152
G1 X53.362 Y21.383 E0.07144
G1 X54.148 Y21.732 E0.07151
G1 X54.898 Y22.153 E0.07152
G1 X55.606 Y22.642 E0.07155
G1 X56.265 Y23.194 E0.07148
G1 X56.87 Y23.806 E0.07156
G1 X57.415 Y24.471 E0.07149
G1 X57.897 Y25.183 E0.07149
G1 X58.31 Y25.937 E0.07148
G1 X58.651 Y26.727 E0.07155
G1 X58.918 Y27.544 E0.07147
G1 X59.108 Y28.383 E0.07153
G1 X59.218 Y29.236 E0.07151
G1 X59.25 Y30 E0.06358
G1 X59.25 Y50 E1.66301
G1 X59.21 Y50.859 E0.0715
G1 X59.09 Y51.711 E0.07154
G1 X58.892 Y52.548 E0.07152
G1 X58.617 Y53.362 E0.07144
G1 X58.268 Y54.148 E0.07151
G1 X57.847 Y54.898 E0.07152
G1 X57.358 Y55.606 E0.07155
G1 X56.806 Y56.265 E0.07148
G1 X56.194 Y56.87 E0.07156
G1 X55.529 Y57.415 E0.07149
G1 X54.817 Y57.897 E0.07149
G1 X54.063 Y58.31 E0.07148
G1 X53.273 Y58.651 E0.07155
G1 X52.456 Y58.918 E0.07147
G1 X51.617 Y59.108 E0.07153
G1 X50.764 Y59.218 E0.07151
G1 X50 Y59.25 E0.06358
G1 X45 Y59.25 E0.41575
G1 X44.141 Y59.21 E0.0715
G1 X43.289 Y59.09 E0.07154
G1 X42.452 Y58.892 E0.07152
G1 X41.638 Y58.617 E0.07144
G1 X40.852 Y58.268 E0.07151
G1 X40.102 Y57.847 E0.07152
G1 X39.394 Y57.358 E0.07155
G1 X38.735 Y56.806 E0.07148
G1 X38.13 Y56.194 E0.07156
G1 X37.585 Y55.529 E0.07149
G1 X37.103 Y54.817 E0.07149
G1 X36.69 Y54.063 E0.07148
G1 X36.349 Y53.273 E0.07155
G1 X36.082 Y52.456 E0.07147
G1 X35.892 Y51.617 E0.07153
G1 X35.782 Y50.764 E0.07151
G1 X35.75 Y50 E0.06358
G1 X35.75 Y44.25 E0.47811
G1 X-50 Y44.25 E7.13014
G1 X-50.859 Y44.21 E0.0715
G1 X-51.711 Y44.09 E0.07154
G1 X-52.548 Y43.892 E0.07152
G1 X-53.362 Y43.617 E0.07144
G1 X-54.148 Y43.268 E0.07151
G1 X-54.898 Y42.847 E0.07152
G1 X-55.606 Y42.358 E0.07155
G1 X-56.265 Y41.806 E0.07148
G1 X-56.87 Y41.194 E0.07156
G1 X-57.415 Y40.529 E0.07149
G1 X-57.897 Y39.817 E0.07149
G1 X-58.31 Y39.063 E0.07148
G1 X-58.651 Y38.273 E0.07155
G1 X-58.918 Y37.456 E0.07147
G1 X-59.108 Y36.617 E0.07153
G1 X-59.218 Y35.764 E0.07151
G1 X-59.25 Y35 E0.06358
G1 X-59.25 Y-35 E5.82052
G1 X-59.21 Y-35.859 E0.0715
G1 X-59.09 Y-36.711 E0.07154
G1 X-58.892 Y-37.548 E0.07152
G1 X-58.617 Y-38.362 E0.07144
G1 X-58.268 Y-39.148 E0.07151
G1 X-57.847 Y-39.898 E0.07152
G1 X-57.358 Y-40.606 E0.07155
G1 X-56.806 Y-41.265 E0.07148
G1 X-56.194 Y-41.87 E0.07156
G1 X-55.529 Y-42.415 E0.07149
G1 X-54.817 Y-42.897 E0.07149
G1 X-54.063 Y-43.31 E0.07148
G1 X-53.273 Y-43.651 E0.07155
G1 X-52.456 Y-43.918 E0.07147
G1 X-51.617 Y-44.108 E0.07153
G1 X-50.764 Y-44.218 E0.07151
G1 X-50 Y-44.25 E0.06358
G1 X35.75 Y-44.25 E7.13014
G1 X35.75 Y-50 E0.47811
G1 X35.79 Y-50.859 E0.0715
G1 X35.91 Y-51.711 E0.07154
G1 X36.108 Y-52.548 E0.07152
G1 X36.383 Y-53.362 E0.07144
G1 X36.732 Y-54.148 E0.07151
G1 X37.153 Y-54.898 E0.07152
G1 X37.642 Y-55.606 E0.07155
G1 X38.194 Y-56.265 E0.07148
G1 X38.806 Y-56.87 E0.07156
G1 X39.471 Y-57.415 E0.07149
G1 X40.183 Y-57.897 E0.07149
G1 X40.937 Y-58.31 E0.07148
G1 X41.727 Y-58.651 E0.07155
G1 X42.544 Y-58.918 E0.07147
G1 X43.383 Y-59.108 E0.07153
G1 X44.236 Y-59.218 E0.07151
G1 X45 Y-59.25 E0.06358
G1 X50 Y-59.25 E0.41575
G1 X50.859 Y-59.21 E0.0715
G1 X51.711 Y-59.09 E0.07154
G1 X52.548 Y-58.892 E0.07152
G1 X53.362 Y-58.617 E0.07144
G1 X54.148 Y-58.268 E0.07151
G1 X54.898 Y-57.847 E0.07152
G1 X55.606 Y-57.358 E0.07155
G1 X56.265 Y-56.806 E0.07148
G1 X56.87 Y-56.194 E0.07156
G1 X57.415 Y-55.529 E0.07149
G1 X57.897 Y-54.817 E0.07149
G1 X58.31 Y-54.063 E0.07148
G1 X58.651 Y-53.273 E0.07155
G1 X58.918 Y-52.456 E0.07147
G1 X59.108 Y-51.617 E0.07153
G1 X59.218 Y-50.764 E0.07151
G1 X59.25 Y-50 E0.06358
G1 X59.25 Y-30 E1.66301
G1 X59.21 Y-29.141 E0.0715
G1 X59.09 Y-28.289 E0.07154
G1 X58.892 Y-27.452 E0.07152
G1 X58.617 Y-26.638 E0.07144
G1 X58.268 Y-25.852 E0.07151
G1 X57.847 Y-25.102 E0.07152
G1 X57.358 Y-24.394 E0.07155
G1 X56.806 Y-23.735 E0.07148
G1 X56.194 Y-23.13 E0.07156
G1 X55.529 Y-22.585 E0.07149
G1 X54.817 Y-22.103 E0.07149
G1 X54.063 Y-21.69 E0.07148
G1 X53.273 Y-21.349 E0.07155
G1 X52.456 Y-21.082 E0.07147
G1 X51.617 Y-20.892 E0.07153
G1 X50.764 Y-20.782 E0.07151
G1 X50 Y-20.75 E0.06358
G1 X-35.75 Y-20.75 E7.13014
M566 X1800 Y1800
G0 F3600 X-36.25 Y-21.25
M566 X1200 Y1200
G1 F3000 X-36.25 Y21.25 E3.53389
G1 X50 Y21.25 E7.17172
G1 X50.835 Y21.29 E0.06951
G1 X51.663 Y21.41 E0.06957
G1 X52.476 Y21.608 E0.06958
G1 X53.266 Y21.882 E0.06953
G1 X54.026 Y22.231 E0.06954
G1 X54.749 Y22.651 E0.06953
G1 X55.429 Y23.138 E0.06955
G1 X56.06 Y23.688 E0.0696
G1 X56.635 Y24.295 E0.06952
G1 X57.149 Y24.955 E0.06956
G1 X57.598 Y25.661 E0.06957
G1 X57.978 Y26.406 E0.06954
G1 X58.285 Y27.184 E0.06955
G1 X58.516 Y27.988 E0.06956
G1 X58.669 Y28.81 E0.06952
G1 X58.75 Y30 E0.09918
G1 X58.75 Y50 E1.66301
G1 X58.71 Y50.835 E0.06951
G1 X58.59 Y51.663 E0.06957
G1 X58.392 Y52.476 E0.06958
G1 X58.118 Y53.266 E0.06953
G1 X57.769 Y54.026 E0.06954
G1 X57.349 Y54.749 E0.06953
G1 X56.862 Y55.429 E0.06955
G1 X56.312 Y56.06 E0.0696
G1 X55.705 Y56.635 E0.06952
G1 X55.045 Y57.149 E0.06956
G1 X54.339 Y57.598 E0.06957
G1 X53.594 Y57.978 E0.06954
G1 X52.816 Y58.285 E0.06955
G1 X52.012 Y58.516 E0.06956
G1 X51.19 Y58.669 E0.06952
G1 X50 Y58.75 E0.09918
G1 X45 Y58.75 E0.41575
G1 X44.165 Y58.71 E0.06951
G1 X43.337 Y58.59 E0.06957
G1 X42.524 Y58.392 E0.06958
G1 X41.734 Y58.118 E0.06953
G1 X40.974 Y57.769 E0.06954
G1 X40.251 Y57.349 E0.06953
G1 X39.571 Y56.862 E0.06955
G1 X38.94 Y56.312 E0.0696
G1 X38.365 Y55.705 E0.06952
G1 X37.851 Y55.045 E0.06956
G1 X37.402 Y54.339 E0.06957
G1 X37.022 Y53.594 E0.06954
G1 X36.715 Y52.816 E0.06955
G1 X36.484 Y52.012 E0.06956
G1 X36.331 Y51.19 E0.06952
G1 X36.25 Y50 E0.09918
G1 X36.25 Y43.75 E0.51969
G1 X-50 Y43.75 E7.17172
G1 X-50.835 Y43.71 E0.06951
G1 X-51.663 Y43.59 E0.06957
G1 X-52.476 Y43.392 E0.06958
G1 X-53.266 Y43.118 E0.06953
G1 X-54.026 Y42.769 E0.06954
G1 X-54.749 Y42.349 E0.06953
G1 X-55.429 Y41.862 E0.06955
G1 X-56.06 Y41.312 E0.0696
G1 X-56.635 Y40.705 E0.06952
G1 X-57.149 Y40.045 E0.06956
G1 X-57.598 Y39.339 E0.06957
G1 X-57.978 Y38.594 E0.06954
G1 X-58.285 Y37.816 E0.06955
G1 X-58.516 Y37.012 E0.06956
G1 X-58.669 Y36.19 E0.06952
G1 X-58.75 Y35 E0.09918
G1 X-58.75 Y-35 E5.82052
G1 X-58.71 Y-35.835 E0.06951
G1 X-58.59 Y-36.663 E0.06957
G1 X-58.392 Y-37.476 E0.06958
G1 X-58.118 Y-38.266 E0.06953
G1 X-57.769 Y-39.026 E0.06954
G1 X-57.349 Y-39.749 E0.06953
G1 X-56.862 Y-40.429 E0.06955
G1 X-56.312 Y-41.06 E0.0696
G1 X-55.705 Y-41.635 E0.06952
G1 X-55.045 Y-42.149 E0.06956
G1 X-54.339 Y-42.598 E0.06957
G1 X-53.594 Y-42.978 E0.06954
G1 X-52.816 Y-43.285 E0.06955
G1 X-52.012 Y-43.516 E0.06956
G1 X-51.19 Y-43.669 E0.06952
G1 X-50 Y-43.75 E0.09918
G1 X36.25 Y-43.75 E7.17172
G1 X36.25 Y-50 E0.51969
G1 X36.29 Y-50.835 E0.06951
G1 X36.41 Y-51.663 E0.06957
G1 X36.608 Y-52.476 E0.06958
G1 X36.882 Y-53.266 E0.06953
G1 X37.231 Y-54.026 E0.06954
G1 X37.651 Y-54.749 E0.06953
G1 X38.138 Y-55.429 E0.06955
G1 X38.688 Y-56.06 E0.0696
G1 X39.295 Y-56.635 E0.06952
G1 X39.955 Y-57.149 E0.06956
G1 X40.661 Y-57.598 E0.06957
G1 X41.406 Y-57.978 E0.06954
G1 X42.184 Y-58.285 E0.06955
G1 X42.988 Y-58.516 E0.06956
G1 X43.81 Y-58.669 E0.06952
G1 X45 Y-58.75 E0.09918
G1 X50 Y-58.75 E0.41575
G1 X50.835 Y-58.71 E0.06951
G1 X51.663 Y-58.59 E0.06957
G1 X52.476 Y-58.392 E0.06958
G1 X53.266 Y-58.118 E0.06953
G1 X54.026 Y-57.769 E0.06954
G1 X54.749 Y-57.349 E0.06953
G1 X55.429 Y-56.862 E0.06955
G1 X56.06 Y-56.312 E0.0696
G1 X56.635 Y-55.705 E0.06952
G1 X57.149 Y-55.045 E0.06956
G1 X57.598 Y-54.339 E0.06957
G1 X57.978 Y-53.594 E0.06954
G1 X58.285 Y-52.816 E0.06955
G1 X58.516 Y-52.012 E0.06956
G1 X58.669 Y-51.19 E0.06952
G1 X58.75 Y-50 E0.09918
G1 X58.75 Y-30 E1.66301
G1 X58.71 Y-29.165 E0.06951
G1 X58.59 Y-28.337 E0.06957
G1 X58.392 Y-27.524 E0.06958
G1 X58.118 Y-26.734 E0.06953
G1 X57.769 Y-25.974 E0.06954
G1 X57.349 Y-25.251 E0.06953
G1 X56.862 Y-24.571 E0.06955
G1 X56.312 Y-23.94 E0.0696
G1 X55.705 Y-23.365 E0.06952
G1 X55.045 Y-22.851 E0.06956
G1 X54.339 Y-22.402 E0.06957
G1 X53.594 Y-22.022 E0.06954
G1 X52.816 Y-21.715 E0.06955
G1 X52.012 Y-21.484 E0.06956
G1 X51.19 Y-21.331 E0.06952
G1 X50 Y-21.25 E0.09918
G1 X-36.25 Y-21.25 E7.17172
M566 X1800 Y1800
G0 F3600 X-36.75 Y-21.75
M566 X1200 Y1200
G1 F3000 X-36.75 Y21.75 E3.61704
G1 X50 Y21.75 E7.21329
G1 X50.811 Y21.79 E0.06752
G1 X51.614 Y21.91 E0.06751
G1 X52.402 Y22.107 E0.06754
G1 X53.167 Y22.382 E0.0676
G1 X53.9 Y22.73 E0.06747
G1 X54.596 Y23.149 E0.06755
G1 X55.247 Y23.634 E0.0675
G1 X55.848 Y24.181 E0.06757
G1 X56.392 Y24.784 E0.06753
G1 X56.874 Y25.438 E0.06755
G1 X57.289 Y26.136 E0.06752
G1 X57.634 Y26.871 E0.06751
G1 X57.904 Y27.637 E0.06753
G1 X58.098 Y28.425 E0.06748
G1 X58.214 Y29.229 E0.06755
G1 X58.25 Y30 E0.06418
G1 X58.25 Y50 E1.66301
G1 X58.21 Y50.811 E0.06752
G1 X58.09 Y51.614 E0.06751
G1 X57.893 Y52.402 E0.06754
G1 X57.618 Y53.167 E0.0676
G1 X57.27 Y53.9 E0.06747
G1 X56.851 Y54.596 E0.06755
G1 X56.366 Y55.247 E0.0675
G1 X55.819 Y55.848 E0.06757
G1 X55.216 Y56.392 E0.06753
G1 X54.562 Y56.874 E0.06755
G1 X53.864 Y57.289 E0.06752
G1 X53.129 Y57.634 E0.06751
G1 X52.363 Y57.904 E0.06753
G1 X51.575 Y58.098 E0.06748
G1 X50.771 Y58.214 E0.06755
G1 X50 Y58.25 E0.06418
G1 X45 Y58.25 E0.41575
G1 X44.189 Y58.21 E0.06752
G1 X43.386 Y58.09 E0.06751
G1 X42.598 Y57.893 E0.06754
G1 X41.833 Y57.618 E0.0676
G1 X41.1 Y57.27 E0.06747
G1 X40.404 Y56.851 E0.06755
G1 X39.753 Y56.366 E0.0675
G1 X39.152 Y55.819 E0.06757
G1 X38.608 Y55.216 E0.06753
G1 X38.126 Y54.562 E0.06755
G1 X37.711 Y53.864 E0.06752
G1 X37.366 Y53.129 E0.06751
G1 X37.096 Y52.363 E0.06753
G1 X36.902 Y51.575 E0.06748
G1 X36.786 Y50.771 E0.06755
G1 X36.75 Y50 E0.06418
G1 X36.75 Y43.25 E0.56126
G1 X-50 Y43.25 E7.21329
G1 X-50.811 Y43.21 E0.06752
G1 X-51.614 Y43.09 E0.06751
G1 X-52.402 Y42.893 E0.06754
G1 X-53.167 Y42.618 E0.0676
G1 X-53.9 Y42.27 E0.06747
G1 X-54.596 Y41.851 E0.06755
G1 X-55.247 Y41.366 E0.0675
G1 X-55.848 Y40.819 E0.06757
G1 X-56.392 Y40.216 E0.06753
G1 X-56.874 Y39.562 E0.06755
G1 X-57.289 Y38.864 E0.06752
G1 X-57.634 Y38.129 E0.06751
G1 X-57.904 Y37.363 E0.06753
G1 X-58.098 Y36.575 E0.06748
G1 X-58.214 Y35.771 E0.06755
G1 X-58.25 Y35 E0.06418
G1 X-58.25 Y-35 E5.82052
G1 X-58.21 Y-35.811 E0.06752
G1 X-58.09 Y-36.614 E0.06751
G1 X-57.893 Y-37.402 E0.06754
G1 X-57.618 Y-38.167 E0.0676
G1 X-57.27 Y-38.9 E0.06747
G1 X-56.851 Y-39.596 E0.06755
G1 X-56.366 Y-40.247 E0.0675
G1 X-55.819 Y-40.848 E0.06757
G1 X-55.216 Y-41.392 E0.06753
G1 X-54.562 Y-41.874 E0.06755
G1 X-53.864 Y-42.289 E0.06752
G1 X-53.129 Y-42.634 E0.06751
G1 X-52.363 Y-42.904 E0.06753
G1 X-51.575 Y-43.098 E0.06748
G1 X-50.771 Y-43.214 E0.06755
G1 X-50 Y-43.25 E0.06418
G1 X36.75 Y-43.25 E7.21329
G1 X36.75 Y-50 E0.56126
G1 X36.79 Y-50.811 E0.06752
G1 X36.91 Y-51.614 E0.06751
G1 X37.107 Y-52.402 E0.06754
G1 X37.382 Y-53.167 E0.0676
G1 X37.73 Y-53.9 E0.06747
G1 X38.149 Y-54.596 E0.06755
G1 X38.634 Y-55.247 E0.0675
G1 X39.181 Y-55.848 E0.06757
G1 X39.784 Y-56.392 E0.06753
G1 X40.438 Y-56.874 E0.06755
G1 X41.136 Y-57.289 E0.06752
G1 X41.871 Y-57.634 E0.06751
G1 X42.637 Y-57.904 E0.06753
G1 X43.425 Y-58.098 E0.06748
G1 X44.229 Y-58.214 E0.06755
G1 X45 Y-58.25 E0.06418
G1 X50 Y-58.25 E0.41575
G1 X50.811 Y-58.21 E0.06752
G1 X51.614 Y-58.09 E0.06751
G1 X52.402 Y-57.893 E0.06754
G1 X53.167 Y-57.618 E0.0676
G1 X53.9 Y-57.27 E0.06747
G1 X54.596 Y-56.851 E0.06755
