;FLAVOR:RepRap
;TIME:194
;Filament used: 0.286953m
;Layer height: 0.2
;MINX:-7.25
;MINY:-20.75
;MINZ:0.4
;MAXX:7.25
;MAXY:20.75
;MAXZ:5
;POSTPROCESSED
;Generated with Cura_SteamEngine 4.13.1
T0
M190 S60
M104 S215
M109 S215
M82 ;absolute extrusion mode
G28 ;Home
G1 Z15.0 F6000 ;Move the platform down 15mm
;Prime the extruder
G92 E0
G1 F200 E3
G92 E0
M83 ;relative extrusion mode
G1 F1500 E-6.5
;LAYER_COUNT:24
;LAYER:0
M107 P1
M204 T5000
M566 X1800 Y1800
G0 F3600 X7.191 Y-1.362 Z0.4
M204 P3000
M566 X1200 Y1200
;TYPE:SKIRT
G1 F1500 E6.5
G1 F3000 X7.191 Y1.371 E0.22725
G1 X7.222 Y2.821 E0.1206
G1 X7.248 Y3.705 E0.07354
G1 X7.25 Y3.83 E0.0104
G1 X7.25 Y15.817 E0.99672
G1 X7.241 Y16.544 E0.06045
G1 X7.194 Y17.124 E0.04839
G1 X7.067 Y17.693 E0.04848
G1 X6.865 Y18.24 E0.04849
G1 X6.589 Y18.753 E0.04844
G1 X6.246 Y19.224 E0.04845
G1 X5.841 Y19.644 E0.04851
G1 X5.383 Y20.004 E0.04844
G1 X4.88 Y20.298 E0.04844
G1 X4.342 Y20.521 E0.04843
G1 X3.778 Y20.668 E0.04846
G1 X3.11 Y20.739 E0.05586
G1 X2.67 Y20.75 E0.0366
G1 X-2.348 Y20.75 E0.41725
G1 X-3.046 Y20.741 E0.05804
G1 X-3.627 Y20.693 E0.04847
G1 X-4.195 Y20.567 E0.04838
G1 X-4.742 Y20.364 E0.04851
G1 X-5.255 Y20.088 E0.04844
G1 X-5.726 Y19.744 E0.0485
G1 X-6.145 Y19.34 E0.0484
G1 X-6.505 Y18.881 E0.0485
G1 X-6.799 Y18.378 E0.04844
G1 X-7.021 Y17.839 E0.04847
G1 X-7.168 Y17.275 E0.04846
G1 X-7.239 Y16.606 E0.05594
G1 X-7.25 Y16.158 E0.03726
G1 X-7.25 Y4.147 E0.99872
G1 X-7.228 Y2.666 E0.12316
G1 X-7.191 Y1.362 E0.10847
G1 X-7.191 Y-1.371 E0.22725
G1 X-7.223 Y-2.854 E0.12334
G1 X-7.248 Y-3.705 E0.07079
G1 X-7.25 Y-3.83 E0.0104
G1 X-7.25 Y-15.884 E1.00229
G1 X-7.241 Y-16.549 E0.0553
G1 X-7.193 Y-17.129 E0.04839
G1 X-7.066 Y-17.698 E0.04848
G1 X-6.863 Y-18.244 E0.04844
G1 X-6.586 Y-18.757 E0.04848
G1 X-6.243 Y-19.228 E0.04845
G1 X-5.838 Y-19.647 E0.04846
G1 X-5.379 Y-20.007 E0.0485
G1 X-4.876 Y-20.3 E0.0484
G1 X-4.337 Y-20.522 E0.04847
G1 X-3.773 Y-20.668 E0.04844
G1 X-3.11 Y-20.739 E0.05544
G1 X-2.67 Y-20.75 E0.0366
G1 X2.354 Y-20.75 E0.41775
G1 X3.052 Y-20.74 E0.05804
G1 X3.633 Y-20.691 E0.04848
G1 X4.201 Y-20.564 E0.0484
G1 X4.747 Y-20.36 E0.04847
G1 X5.26 Y-20.084 E0.04844
G1 X5.73 Y-19.739 E0.04848
G1 X6.149 Y-19.334 E0.04846
G1 X6.509 Y-18.875 E0.0485
G1 X6.802 Y-18.372 E0.0484
G1 X7.023 Y-17.833 E0.04844
G1 X7.169 Y-17.268 E0.04852
G1 X7.239 Y-16.609 E0.0551
G1 X7.25 Y-16.17 E0.03651
G1 X7.25 Y-4.179 E0.99706
G1 X7.228 Y-2.666 E0.12582
G1 X7.191 Y-1.362 E0.10847
M566 X1800 Y1800
G0 F3600 X6.691 Y-1.376
M566 X1200 Y1200
G1 F3000 X6.691 Y1.382 E0.22933
G1 X6.722 Y2.836 E0.12093
G1 X6.75 Y3.83 E0.08268
G1 X6.75 Y15.81 E0.99614
G1 X6.741 Y16.537 E0.06045
G1 X6.694 Y17.083 E0.04557
G1 X6.568 Y17.616 E0.04554
G1 X6.367 Y18.124 E0.04543
G1 X6.093 Y18.598 E0.04552
G1 X5.753 Y19.027 E0.04552
G1 X5.354 Y19.402 E0.04553
G1 X4.905 Y19.716 E0.04556
G1 X4.416 Y19.96 E0.04544
G1 X3.895 Y20.13 E0.04557
G1 X3.096 Y20.24 E0.06706
G1 X2.67 Y20.25 E0.03543
G1 X-2.341 Y20.25 E0.41667
G1 X-3.039 Y20.241 E0.05804
G1 X-3.585 Y20.194 E0.04557
G1 X-4.117 Y20.068 E0.04546
G1 X-4.626 Y19.866 E0.04553
G1 X-5.1 Y19.592 E0.04552
G1 X-5.529 Y19.252 E0.04552
G1 X-5.904 Y18.853 E0.04553
G1 X-6.217 Y18.404 E0.04551
G1 X-6.461 Y17.914 E0.04552
G1 X-6.631 Y17.394 E0.04549
G1 X-6.74 Y16.592 E0.0673
G1 X-6.75 Y16.158 E0.0361
G1 X-6.75 Y4.154 E0.99814
G1 X-6.728 Y2.68 E0.12258
G1 X-6.691 Y1.376 E0.10847
G1 X-6.691 Y-1.382 E0.22933
G1 X-6.723 Y-2.865 E0.12334
G1 X-6.75 Y-3.83 E0.08027
G1 X-6.75 Y-15.877 E1.00171
G1 X-6.741 Y-16.542 E0.0553
G1 X-6.693 Y-17.087 E0.04549
G1 X-6.567 Y-17.62 E0.04554
G1 X-6.365 Y-18.128 E0.04546
G1 X-6.09 Y-18.602 E0.04557
G1 X-5.75 Y-19.031 E0.04552
G1 X-5.351 Y-19.405 E0.04547
G1 X-4.902 Y-19.718 E0.04551
G1 X-4.412 Y-19.962 E0.04552
G1 X-3.891 Y-20.131 E0.04554
G1 X-3.096 Y-20.24 E0.06672
G1 X-2.67 Y-20.25 E0.03543
G1 X2.347 Y-20.25 E0.41717
G1 X3.045 Y-20.24 E0.05804
G1 X3.59 Y-20.192 E0.04549
G1 X4.122 Y-20.065 E0.04548
G1 X4.631 Y-19.862 E0.04557
G1 X5.104 Y-19.588 E0.04545
G1 X5.533 Y-19.247 E0.04557
G1 X5.907 Y-18.848 E0.04547
G1 X6.219 Y-18.398 E0.04553
G1 X6.463 Y-17.908 E0.04552
G1 X6.632 Y-17.387 E0.04554
G1 X6.74 Y-16.595 E0.06646
G1 X6.75 Y-16.17 E0.03535
G1 X6.75 Y-4.186 E0.99647
G1 X6.728 Y-2.68 E0.12524
G1 X6.691 Y-1.376 E0.10847
M566 X1800 Y1800
G0 F3600 X6.191 Y-1.354
M566 X1200 Y1200
G1 F3000 X6.191 Y1.393 E0.22841
G1 X6.223 Y2.85 E0.12118
G1 X6.249 Y3.734 E0.07354
G1 X6.25 Y15.804 E1.00362
G1 X6.241 Y16.531 E0.06045
G1 X6.195 Y17.039 E0.04241
G1 X6.07 Y17.533 E0.04237
G1 X5.869 Y18.001 E0.04235
G1 X5.598 Y18.432 E0.04233
G1 X5.262 Y18.816 E0.04243
G1 X4.871 Y19.142 E0.04233
G1 X4.433 Y19.403 E0.0424
G1 X3.961 Y19.593 E0.04231
G1 X3.464 Y19.706 E0.04238
G1 X2.761 Y19.749 E0.05856
G1 X-2.335 Y19.75 E0.42373
G1 X-3.033 Y19.741 E0.05804
G1 X-3.54 Y19.694 E0.04234
G1 X-4.034 Y19.569 E0.04237
G1 X-4.502 Y19.368 E0.04235
G1 X-4.934 Y19.097 E0.0424
G1 X-5.317 Y18.761 E0.04236
G1 X-5.643 Y18.37 E0.04233
G1 X-5.904 Y17.932 E0.0424
G1 X-6.093 Y17.459 E0.04235
G1 X-6.207 Y16.962 E0.0424
G1 X-6.249 Y16.246 E0.05964
G1 X-6.25 Y4.161 E1.00487
G1 X-6.229 Y2.694 E0.12199
G1 X-6.191 Y1.347 E0.11205
G1 X-6.191 Y-1.411 E0.22933
G1 X-6.223 Y-2.85 E0.11968
G1 X-6.249 Y-3.734 E0.07354
G1 X-6.25 Y-15.87 E1.00911
G1 X-6.241 Y-16.535 E0.0553
G1 X-6.194 Y-17.042 E0.04234
G1 X-6.068 Y-17.536 E0.04239
G1 X-5.867 Y-18.004 E0.04235
G1 X-5.595 Y-18.435 E0.04238
G1 X-5.259 Y-18.818 E0.04236
G1 X-4.868 Y-19.144 E0.04233
G1 X-4.43 Y-19.405 E0.0424
G1 X-3.957 Y-19.594 E0.04235
G1 X-3.46 Y-19.707 E0.04238
G1 X-2.761 Y-19.749 E0.05823
G1 X2.34 Y-19.75 E0.42415
G1 X3.038 Y-19.74 E0.05804
G1 X3.545 Y-19.692 E0.04235
G1 X4.039 Y-19.567 E0.04237
G1 X4.507 Y-19.365 E0.04238
G1 X4.937 Y-19.093 E0.04231
G1 X5.32 Y-18.757 E0.04236
G1 X5.646 Y-18.365 E0.04239
G1 X5.906 Y-17.927 E0.04235
G1 X6.095 Y-17.454 E0.04235
G1 X6.207 Y-16.957 E0.04236
G1 X6.249 Y-16.261 E0.05798
G1 X6.25 Y-4.193 E1.00346
G1 X6.229 Y-2.694 E0.12465
G1 X6.191 Y-1.354 E0.11147
M566 X1800 Y1800
G1 F1500 E-6.5
;MESH:RoboCol25-Bd20Mnt.3mf
G0 F3600 X3.665 Y-4.014
G0 X2.486 Y-4.014
G0 X1.25 Y-8.931
M566 X1200 Y1200
;TYPE:WALL-INNER
G1 F1500 E6.5
G1 F3000 X0.811 Y-9.147 E0.04068
G1 X0.027 Y-9.265 E0.06592
G1 X-.756 Y-9.163 E0.06566
G1 X-1.25 Y-8.934 E0.04528
G1 X-1.25 Y-10.236 E0.10826
G1 X-1.096 Y-10.16 E0.01428
G1 X-.159 Y-9.993 E0.07914
G1 X0.662 Y-10.052 E0.06844
G1 X1.25 Y-10.249 E0.05156
G1 X1.25 Y-8.931 E0.10959
M566 X1800 Y1800
G0 F3600 X1.327 Y-8.336
M566 X1200 Y1200
G1 F3000 X0.66 Y-8.664 E0.0618
G1 X0.022 Y-8.76 E0.05365
G1 X-.615 Y-8.677 E0.05341
G1 X-1.281 Y-8.368 E0.06105
G1 X-1.75 Y-7.913 E0.05433
G1 X-1.75 Y-11.064 E0.26201
G1 X-1.688 Y-11.008 E0.00695
G1 X-.939 Y-10.64 E0.06939
G1 X-.133 Y-10.496 E0.06808
G1 X0.563 Y-10.546 E0.05802
G1 X1.326 Y-10.801 E0.06689
G1 X1.75 Y-11.074 E0.04193
G1 X1.75 Y-7.906 E0.26342
G1 X1.327 Y-8.336 E0.05015
M566 X1800 Y1800
G0 F3600 X1.75 Y-5.098
M566 X1200 Y1200
G1 F3000 X1.75 Y-4.75 E0.02894
G1 X1.413 Y-4.75 E0.02802
G1 X1.75 Y-5.098 E0.01587
M566 X1800 Y1800
G0 F3600 X0.191 Y-4.972
G0 X-1.75 Y-5.084
M566 X1200 Y1200
G1 F3000 X-1.401 Y-4.75 E0.04017
G1 X-1.75 Y-4.75 E0.00463
G1 X-1.75 Y-5.084 E0.00739
M566 X1800 Y1800
G0 F3600 X-1.41 Y-5.451
M566 X1200 Y1200
G1 F3000 X-.994 Y-5.052 E0.04793
G1 X-.544 Y-4.83 E0.04172
G1 X0.018 Y-4.744 E0.04727
G1 X0.515 Y-4.821 E0.04182
G1 X1.034 Y-5.077 E0.04812
G1 X1.438 Y-5.494 E0.04828
G1 X1.663 Y-5.934 E0.04109
G1 X1.756 Y-6.495 E0.04728
G1 X1.688 Y-6.992 E0.04171
G1 X1.437 Y-7.511 E0.04794
G1 X1.03 Y-7.925 E0.04827
G1 X0.509 Y-8.181 E0.04827
G1 X0.017 Y-8.255 E0.04137
G1 X-.474 Y-8.191 E0.04117
G1 X-.994 Y-7.95 E0.04766
G1 X-1.409 Y-7.547 E0.0481
G1 X-1.646 Y-7.112 E0.04119
G1 X-1.757 Y-6.548 E0.0478
G1 X-1.673 Y-5.963 E0.04914
G1 X-1.41 Y-5.451 E0.04786
M566 X1800 Y1800
G0 F3600 X-2.25 Y-4.25
M566 X1200 Y1200
G1 F3000 X-2.25 Y-6.548 E0.19108
G1 X-2.25 Y-11.892 E0.44436
G1 X-2.25 Y-12.419 E0.04382
G1 X-1.921 Y-11.892 E0.02085
G1 X-1.405 Y-11.426 E0.05781
G1 X-.782 Y-11.12 E0.05771
G1 X-.106 Y-10.999 E0.0571
G1 X0.464 Y-11.04 E0.04752
G1 X1.108 Y-11.255 E0.05645
G1 X1.587 Y-11.563 E0.04735
G1 X2.054 Y-12.066 E0.05707
G1 X2.25 Y-12.452 E0.036
G1 X2.25 Y-6.495 E0.49533
G1 X2.25 Y-4.25 E0.18667
G1 X0.018 Y-4.25 E0.18559
G1 X-2.25 Y-4.25 E0.18858
M566 X1800 Y1800
G0 F3600 X-2.25 Y-14.546
M566 X1200 Y1200
G1 F3000 X-2.25 Y-15.75 E0.10011
G1 X-1.636 Y-15.75 E0.05105
G1 X-1.09 Y-15.75 E0.0454
G1 X-1.636 Y-15.397 E0.0232
G1 X-2.093 Y-14.877 E0.05756
G1 X-2.25 Y-14.546 E0.03046
M566 X1800 Y1800
G0 F3600 X-1.496 Y-15.237
G0 X-.92 Y-15.593
G0 X0.614 Y-15.702
G0 X2.25 Y-14.595
M566 X1200 Y1200
G1 F3000 X1.874 Y-15.163 E0.05664
G1 X1.347 Y-15.612 E0.05757
G1 X1.046 Y-15.75 E0.02753
G1 X2.25 Y-15.75 E0.10011
G1 X2.25 Y-15.163 E0.04881
G1 X2.25 Y-14.595 E0.0162
M566 X1800 Y1800
G0 F3600 X1.803 Y-14.365
M566 X1200 Y1200
;TYPE:WALL-OUTER
G1 F3000 X1.496 Y-14.828 E0.04619
G1 X1.076 Y-15.186 E0.04589
G1 X0.572 Y-15.417 E0.0461
G1 X0.022 Y-15.5 E0.04625
G1 X-.42 Y-15.455 E0.03694
G1 X-.84 Y-15.316 E0.03679
G1 X-1.306 Y-15.015 E0.04613
G1 X-1.671 Y-14.6 E0.04596
G1 X-1.909 Y-14.097 E0.04627
G1 X-1.999 Y-13.556 E0.0456
G1 X-1.961 Y-13.108 E0.03739
G1 X-1.827 Y-12.686 E0.03682
G1 X-1.534 Y-12.216 E0.04605
G1 X-1.122 Y-11.844 E0.04616
G1 X-.625 Y-11.6 E0.04604
G1 X-0.079 Y-11.502 E0.04613
G1 X0.365 Y-11.534 E0.03701
G1 X0.89 Y-11.709 E0.04602
G1 X1.263 Y-11.949 E0.03688
G1 X1.64 Y-12.355 E0.04607
G1 X1.891 Y-12.848 E0.046
G1 X1.997 Y-13.393 E0.04617
G1 X1.95 Y-13.946 E0.04615
G1 X1.803 Y-14.365 E0.03692
M566 X1800 Y1800
G0 F3600 X1.665 Y-14.573
G0 X1.956 Y-14.765
G0 X2.43 Y-15.93
G0 X2.75 Y-16.25
M566 X1200 Y1200
G1 F3000 X2.75 Y-3.75 E1.03938
G1 X-2.75 Y-3.75 E0.45733
G1 X-2.75 Y-16.25 E1.03938
G1 X2.75 Y-16.25 E0.45733
M566 X1800 Y1800
G0 F3600 X2.75 Y-16
G0 X2.43 Y-15.93
G0 X2.176 Y-12.799
G0 X0.512 Y-8.011
G0 X0.358 Y-7.698
M566 X1200 Y1200
G1 F3000 X0.012 Y-7.75 E0.02909
G1 X-.333 Y-7.705 E0.02893
G1 X-.707 Y-7.532 E0.03426
G1 X-1.006 Y-7.241 E0.03469
G1 X-1.17 Y-6.94 E0.0285
G1 X-1.25 Y-6.535 E0.03433
G1 X-1.19 Y-6.117 E0.03511
G1 X-1.003 Y-5.754 E0.03395
G1 X-.704 Y-5.466 E0.03452
G1 X-.392 Y-5.313 E0.02889
G1 X0.018 Y-5.25 E0.03449
G1 X0.363 Y-5.303 E0.02902
G1 X0.735 Y-5.487 E0.03451
G1 X1.027 Y-5.788 E0.03487
G1 X1.182 Y-6.092 E0.02837
G1 X1.25 Y-6.502 E0.03456
G1 X1.203 Y-6.846 E0.02887
G1 X1.023 Y-7.219 E0.03444
G1 X0.733 Y-7.514 E0.0344
G1 X0.358 Y-7.698 E0.03473
M566 X1800 Y1800
G0 F3600 X0.111 Y-7.735
G0 X0.163 Y-8.081
G0 X-.871 Y-9.357
M566 X1200 Y1200
;TYPE:SKIN
G1 F3000 X-1.024 Y-9.509 E0.01793
M566 X1800 Y1800
G0 F3600 X-.66 Y-9.852
M566 X1200 Y1200
G1 F3000 X-.261 Y-9.454 E0.04686
M566 X1800 Y1800
G0 F3600 X0.113 Y-9.785
M566 X1200 Y1200
G1 F3000 X0.475 Y-9.424 E0.04251
M566 X1800 Y1800
G0 F3600 X0.759 Y-9.847
M566 X1200 Y1200
G1 F3000 X1.025 Y-9.581 E0.03128
M566 X1800 Y1800
G1 F1500 E-6.5
;MESH:RoboCol25-Bd20Mnt.3mf(1)
G0 F3600 X1.543 Y-6.499
G0 X1.25 Y-4.02
G0 X1.25 Y-2.835
G0 X1.25 Y2.835
G0 X1.25 Y4.02
G0 X2.075 Y5.548
G0 X2.176 Y7.201
G0 X1.25 Y9.751
M566 X1200 Y1200
;TYPE:WALL-INNER
G1 F1500 E6.5
G1 F3000 X1.25 Y11.069 E0.10959
G1 X0.811 Y10.853 E0.04068
G1 X0.027 Y10.735 E0.06592
G1 X-.756 Y10.837 E0.06566
G1 X-1.25 Y11.066 E0.04528
G1 X-1.25 Y9.764 E0.10826
G1 X-1.096 Y9.84 E0.01428
G1 X-.159 Y10.007 E0.07914
G1 X0.662 Y9.948 E0.06844
G1 X1.25 Y9.751 E0.05156
M566 X1800 Y1800
G0 F3600 X1.326 Y9.199
M566 X1200 Y1200
G1 F3000 X1.75 Y8.926 E0.04193
G1 X1.75 Y12.094 E0.26342
G1 X1.327 Y11.664 E0.05015
G1 X0.66 Y11.336 E0.0618
G1 X0.022 Y11.24 E0.05365
G1 X-.615 Y11.323 E0.05341
G1 X-1.281 Y11.632 E0.06105
G1 X-1.75 Y12.087 E0.05433
G1 X-1.75 Y8.936 E0.26201
G1 X-1.688 Y8.992 E0.00695
G1 X-.939 Y9.36 E0.06939
G1 X-.133 Y9.504 E0.06808
G1 X0.563 Y9.454 E0.05802
G1 X1.326 Y9.199 E0.06689
M566 X1800 Y1800
G0 F3600 X1.75 Y14.902
M566 X1200 Y1200
G1 F3000 X1.75 Y15.25 E0.02894
G1 X1.413 Y15.25 E0.02802
G1 X1.75 Y14.902 E0.01587
M566 X1800 Y1800
G0 F3600 X0.191 Y15.028
G0 X-1.75 Y14.916
M566 X1200 Y1200
G1 F3000 X-1.401 Y15.25 E0.04017
G1 X-1.75 Y15.25 E0.00463
G1 X-1.75 Y14.916 E0.00739
M566 X1800 Y1800
G0 F3600 X-1.41 Y14.549
M566 X1200 Y1200
G1 F3000 X-.994 Y14.948 E0.04793
G1 X-.544 Y15.17 E0.04172
G1 X0.018 Y15.256 E0.04727
G1 X0.515 Y15.179 E0.04182
G1 X1.034 Y14.923 E0.04812
G1 X1.438 Y14.506 E0.04828
G1 X1.663 Y14.066 E0.04109
G1 X1.756 Y13.505 E0.04728
G1 X1.688 Y13.008 E0.04171
G1 X1.437 Y12.489 E0.04794
G1 X1.03 Y12.075 E0.04827
G1 X0.509 Y11.819 E0.04827
G1 X0.017 Y11.745 E0.04137
G1 X-.474 Y11.809 E0.04117
G1 X-.994 Y12.05 E0.04766
G1 X-1.409 Y12.453 E0.0481
G1 X-1.646 Y12.888 E0.04119
G1 X-1.757 Y13.452 E0.0478
G1 X-1.673 Y14.037 E0.04914
G1 X-1.41 Y14.549 E0.04786
M566 X1800 Y1800
G0 F3600 X-2.25 Y15.75
M566 X1200 Y1200
G1 F3000 X-2.25 Y13.452 E0.19108
G1 X-2.25 Y8.108 E0.44436
G1 X-2.25 Y7.581 E0.04382
G1 X-1.921 Y8.108 E0.02085
G1 X-1.405 Y8.574 E0.05781
G1 X-.782 Y8.88 E0.05771
G1 X-.106 Y9.001 E0.0571
G1 X0.464 Y8.96 E0.04752
G1 X1.108 Y8.745 E0.05645
G1 X1.587 Y8.437 E0.04735
G1 X2.054 Y7.934 E0.05707
G1 X2.25 Y7.548 E0.036
G1 X2.25 Y13.505 E0.49533
G1 X2.25 Y15.75 E0.18667
G1 X0.018 Y15.75 E0.18559
G1 X-2.25 Y15.75 E0.18858
M566 X1800 Y1800
G0 F3600 X-2.25 Y5.454
M566 X1200 Y1200
G1 F3000 X-2.25 Y4.25 E0.10011
G1 X-1.636 Y4.25 E0.05105
G1 X-1.09 Y4.25 E0.0454
G1 X-1.636 Y4.603 E0.0232
G1 X-2.093 Y5.123 E0.05756
G1 X-2.25 Y5.454 E0.03046
M566 X1800 Y1800
G0 F3600 X-1.496 Y4.763
G0 X-.92 Y4.407
G0 X0.614 Y4.298
G0 X2.25 Y5.405
M566 X1200 Y1200
G1 F3000 X1.874 Y4.837 E0.05664
G1 X1.347 Y4.388 E0.05757
G1 X1.046 Y4.25 E0.02753
G1 X2.25 Y4.25 E0.10011
G1 X2.25 Y4.837 E0.04881
G1 X2.25 Y5.405 E0.0162
M566 X1800 Y1800
G0 F3600 X1.803 Y5.635
M566 X1200 Y1200
;TYPE:WALL-OUTER
G1 F3000 X1.496 Y5.172 E0.04619
G1 X1.076 Y4.814 E0.04589
G1 X0.572 Y4.583 E0.0461
G1 X0.022 Y4.5 E0.04625
G1 X-.42 Y4.545 E0.03694
G1 X-.84 Y4.684 E0.03679
G1 X-1.306 Y4.985 E0.04613
G1 X-1.671 Y5.4 E0.04596
G1 X-1.909 Y5.903 E0.04627
G1 X-1.999 Y6.444 E0.0456
G1 X-1.961 Y6.892 E0.03739
G1 X-1.827 Y7.314 E0.03682
G1 X-1.534 Y7.784 E0.04605
G1 X-1.122 Y8.156 E0.04616
G1 X-.625 Y8.4 E0.04604
G1 X-0.079 Y8.498 E0.04613
G1 X0.365 Y8.466 E0.03701
G1 X0.89 Y8.291 E0.04602
G1 X1.263 Y8.051 E0.03688
G1 X1.64 Y7.645 E0.04607
G1 X1.891 Y7.152 E0.046
G1 X1.997 Y6.607 E0.04617
G1 X1.95 Y6.054 E0.04615
G1 X1.803 Y5.635 E0.03692
M566 X1800 Y1800
G0 F3600 X1.665 Y5.427
G0 X1.956 Y5.235
G0 X2.43 Y4.07
G0 X2.75 Y3.75
M566 X1200 Y1200
G1 F3000 X2.75 Y16.25 E1.03938
G1 X-2.75 Y16.25 E0.45733
G1 X-2.75 Y3.75 E1.03938
G1 X2.75 Y3.75 E0.45733
M566 X1800 Y1800
G0 F3600 X2.75 Y4
G0 X2.43 Y4.07
G0 X2.176 Y7.201
G0 X0.512 Y11.989
G0 X0.358 Y12.302
M566 X1200 Y1200
G1 F3000 X0.012 Y12.25 E0.02909
G1 X-.333 Y12.295 E0.02893
G1 X-.707 Y12.468 E0.03426
G1 X-1.006 Y12.759 E0.03469
G1 X-1.17 Y13.06 E0.0285
G1 X-1.25 Y13.465 E0.03433
G1 X-1.19 Y13.883 E0.03511
G1 X-1.003 Y14.246 E0.03395
G1 X-.704 Y14.534 E0.03452
G1 X-.392 Y14.687 E0.02889
G1 X0.018 Y14.75 E0.03449
G1 X0.363 Y14.697 E0.02902
G1 X0.735 Y14.513 E0.03451
G1 X1.027 Y14.212 E0.03487
G1 X1.182 Y13.908 E0.02837
G1 X1.25 Y13.498 E0.03456
G1 X1.203 Y13.154 E0.02887
G1 X1.023 Y12.781 E0.03444
G1 X0.733 Y12.486 E0.0344
G1 X0.358 Y12.302 E0.03473
M566 X1800 Y1800
G0 F3600 X0.111 Y12.265
G0 X0.163 Y11.919
G0 X-.71 Y10.603
M566 X1200 Y1200
;TYPE:SKIN
G1 F3000 X-1.025 Y10.288 E0.03704
M566 X1800 Y1800
G0 F3600 X-.417 Y10.189
M566 X1200 Y1200
G1 F3000 X-0.085 Y10.521 E0.03904
M566 X1800 Y1800
G0 F3600 X0.299 Y10.199
M566 X1200 Y1200
G1 F3000 X0.71 Y10.61 E0.04833
M566 X1800 Y1800
G0 F3600 X1.025 Y10.217
M566 X1200 Y1200
G1 F3000 X0.908 Y10.101 E0.0137
M566 X1800 Y1800
G1 F1500 E-6.5
;MESH:NONMESH
G0 F600 X0.908 Y10.101 Z0.6
G0 F3600 X2.176 Y7.201
G0 X2.075 Y5.548
G0 X1.714 Y4.979
G0 X-.708 Y3.761
G0 X-.708 Y2.835
G0 X-.708 Y-2.835
G0 X-.708 Y-4.02
G0 X-1.47 Y-6.028
G0 X-1.25 Y-8.935
;TIME_ELAPSED:17.873635
;LAYER:1
M106 S28.3 P1
M566 X1200 Y1200
;TYPE:WALL-INNER
;MESH:RoboCol25-Bd20Mnt.3mf
G1 F1500 E6.5
