;FLAVOR:RepRap
;TIME:678
;Filament used: 2.20443m
;Layer height: 0.3
;MINX:-47.25
;MINY:-22.75
;MINZ:0.4
;MAXX:47.25
;MAXY:22.75
;MAXZ:3.1
;POSTPROCESSED
;Generated with Cura_SteamEngine 4.13.1
T0
M190 S80
M104 S235
M109 S235
M82 ;absolute extrusion mode
G28 ;Home
G1 Z15.0 F6000 ;Move the platform down 15mm
;Prime the extruder
G92 E0
G1 F200 E3
G92 E0
M83 ;relative extrusion mode
G1 F1500 E-6.5
;LAYER_COUNT:10
;LAYER:0
M107 P1
M204 T5000
M566 X1800 Y1800
G0 F3600 X-15.5 Y-22.75 Z0.4
M204 P3000
M566 X1200 Y1200
;TYPE:SKIRT
G1 F1500 E6.5
G1 F3000 X15.5 Y-22.75 E2.57766
G1 X16.382 Y-22.71 E0.07341
G1 X17.257 Y-22.59 E0.07344
G1 X18.117 Y-22.392 E0.07338
G1 X18.956 Y-22.117 E0.07342
G1 X19.767 Y-21.767 E0.07345
G1 X20.542 Y-21.345 E0.07338
G1 X21.277 Y-20.854 E0.0735
G1 X21.964 Y-20.3 E0.07338
G1 X22.394 Y-19.894 E0.04917
G1 X44.394 Y2.106 E2.58703
G1 X44.99 Y2.758 E0.07345
G1 X45.524 Y3.461 E0.07341
G1 X45.992 Y4.209 E0.07337
G1 X46.39 Y4.997 E0.07341
G1 X46.716 Y5.818 E0.07345
G1 X46.966 Y6.665 E0.07343
G1 X47.139 Y7.531 E0.07343
G1 X47.232 Y8.409 E0.07341
G1 X47.25 Y9 E0.04916
G1 X47.25 Y13 E0.3326
G1 X47.21 Y13.882 E0.07341
G1 X47.09 Y14.757 E0.07344
G1 X46.892 Y15.617 E0.07338
G1 X46.617 Y16.456 E0.07342
G1 X46.267 Y17.267 E0.07345
G1 X45.845 Y18.042 E0.07338
G1 X45.354 Y18.777 E0.0735
G1 X44.8 Y19.464 E0.07338
G1 X44.185 Y20.097 E0.07339
G1 X43.516 Y20.673 E0.07341
G1 X42.797 Y21.186 E0.07344
G1 X42.034 Y21.631 E0.07345
G1 X41.235 Y22.006 E0.07339
G1 X40.405 Y22.307 E0.07341
G1 X39.551 Y22.532 E0.07343
G1 X38.68 Y22.678 E0.07343
G1 X37.5 Y22.75 E0.0983
G1 X-37.5 Y22.75 E6.23628
G1 X-38.382 Y22.71 E0.07341
G1 X-39.257 Y22.59 E0.07344
G1 X-40.117 Y22.392 E0.07338
G1 X-40.956 Y22.117 E0.07342
G1 X-41.767 Y21.767 E0.07345
G1 X-42.542 Y21.345 E0.07338
G1 X-43.277 Y20.854 E0.0735
G1 X-43.964 Y20.3 E0.07338
G1 X-44.597 Y19.685 E0.07339
G1 X-45.173 Y19.016 E0.07341
G1 X-45.686 Y18.297 E0.07344
G1 X-46.131 Y17.534 E0.07345
G1 X-46.506 Y16.735 E0.07339
G1 X-46.807 Y15.905 E0.07341
G1 X-47.032 Y15.051 E0.07343
G1 X-47.178 Y14.18 E0.07343
G1 X-47.25 Y13 E0.0983
G1 X-47.25 Y9 E0.3326
G1 X-47.21 Y8.118 E0.07341
G1 X-47.09 Y7.243 E0.07344
G1 X-46.892 Y6.383 E0.07338
G1 X-46.617 Y5.544 E0.07342
G1 X-46.267 Y4.733 E0.07345
G1 X-45.845 Y3.958 E0.07338
G1 X-45.354 Y3.223 E0.0735
G1 X-44.8 Y2.536 E0.07338
G1 X-44.394 Y2.106 E0.04917
G1 X-22.394 Y-19.894 E2.58703
G1 X-21.742 Y-20.49 E0.07345
G1 X-21.039 Y-21.024 E0.07341
G1 X-20.291 Y-21.492 E0.07337
G1 X-19.503 Y-21.89 E0.07341
G1 X-18.682 Y-22.216 E0.07345
G1 X-17.835 Y-22.466 E0.07343
G1 X-16.969 Y-22.639 E0.07343
G1 X-16.091 Y-22.732 E0.07341
G1 X-15.5 Y-22.75 E0.04916
M566 X1800 Y1800
G0 F3600 X-15.5 Y-22.25
M566 X1200 Y1200
G1 F3000 X15.5 Y-22.25 E2.57766
G1 X16.359 Y-22.21 E0.0715
G1 X17.211 Y-22.09 E0.07154
G1 X18.048 Y-21.892 E0.07152
G1 X18.862 Y-21.617 E0.07144
G1 X19.648 Y-21.268 E0.07151
G1 X20.398 Y-20.847 E0.07152
G1 X21.106 Y-20.358 E0.07155
G1 X22.041 Y-19.541 E0.10324
G1 X44.041 Y2.459 E2.58703
G1 X44.62 Y3.095 E0.07152
G1 X45.138 Y3.782 E0.07154
G1 X45.589 Y4.514 E0.07149
G1 X45.971 Y5.284 E0.07147
G1 X46.279 Y6.087 E0.07151
G1 X46.512 Y6.915 E0.07152
G1 X46.667 Y7.761 E0.07152
G1 X46.75 Y9 E0.10325
G1 X46.75 Y13 E0.3326
G1 X46.71 Y13.859 E0.0715
G1 X46.59 Y14.711 E0.07154
G1 X46.392 Y15.548 E0.07152
G1 X46.117 Y16.362 E0.07144
G1 X45.768 Y17.148 E0.07151
G1 X45.347 Y17.898 E0.07152
G1 X44.858 Y18.606 E0.07155
G1 X44.306 Y19.265 E0.07148
G1 X43.694 Y19.87 E0.07156
G1 X43.029 Y20.415 E0.07149
G1 X42.317 Y20.897 E0.07149
G1 X41.563 Y21.31 E0.07148
G1 X40.773 Y21.651 E0.07155
G1 X39.956 Y21.918 E0.07147
G1 X39.117 Y22.108 E0.07153
G1 X38.264 Y22.218 E0.07151
G1 X37.5 Y22.25 E0.06358
G1 X-37.5 Y22.25 E6.23628
G1 X-38.359 Y22.21 E0.0715
G1 X-39.211 Y22.09 E0.07154
G1 X-40.048 Y21.892 E0.07152
G1 X-40.862 Y21.617 E0.07144
G1 X-41.648 Y21.268 E0.07151
G1 X-42.398 Y20.847 E0.07152
G1 X-43.106 Y20.358 E0.07155
G1 X-43.765 Y19.806 E0.07148
G1 X-44.37 Y19.194 E0.07156
G1 X-44.915 Y18.529 E0.07149
G1 X-45.397 Y17.817 E0.07149
G1 X-45.81 Y17.063 E0.07148
G1 X-46.151 Y16.273 E0.07155
G1 X-46.418 Y15.456 E0.07147
G1 X-46.608 Y14.617 E0.07153
G1 X-46.718 Y13.764 E0.07151
G1 X-46.75 Y13 E0.06358
G1 X-46.75 Y9 E0.3326
G1 X-46.71 Y8.141 E0.0715
G1 X-46.59 Y7.289 E0.07154
G1 X-46.392 Y6.452 E0.07152
G1 X-46.117 Y5.638 E0.07144
G1 X-45.768 Y4.852 E0.07151
G1 X-45.347 Y4.102 E0.07152
G1 X-44.858 Y3.394 E0.07155
G1 X-44.041 Y2.459 E0.10324
G1 X-22.041 Y-19.541 E2.58703
G1 X-21.405 Y-20.12 E0.07152
G1 X-20.718 Y-20.638 E0.07154
G1 X-19.986 Y-21.089 E0.07149
G1 X-19.216 Y-21.471 E0.07147
G1 X-18.413 Y-21.779 E0.07151
G1 X-17.585 Y-22.012 E0.07152
G1 X-16.739 Y-22.167 E0.07152
G1 X-15.5 Y-22.25 E0.10325
M566 X1800 Y1800
G0 F3600 X-15.5 Y-21.75
M566 X1200 Y1200
G1 F3000 X15.5 Y-21.75 E2.57766
G1 X16.335 Y-21.71 E0.06951
G1 X17.163 Y-21.59 E0.06957
G1 X17.976 Y-21.392 E0.06958
G1 X18.766 Y-21.118 E0.06953
G1 X19.526 Y-20.769 E0.06954
G1 X20.249 Y-20.349 E0.06953
G1 X20.929 Y-19.862 E0.06955
G1 X21.687 Y-19.187 E0.0844
G1 X43.687 Y2.813 E2.58703
G1 X44.25 Y3.432 E0.06958
G1 X44.75 Y4.102 E0.06951
G1 X45.185 Y4.816 E0.06952
G1 X45.549 Y5.569 E0.06954
G1 X45.84 Y6.354 E0.06961
G1 X46.055 Y7.162 E0.06952
G1 X46.191 Y7.987 E0.06952
G1 X46.25 Y9 E0.08437
G1 X46.25 Y13 E0.3326
G1 X46.21 Y13.835 E0.06951
G1 X46.09 Y14.663 E0.06957
G1 X45.892 Y15.476 E0.06958
G1 X45.618 Y16.266 E0.06953
G1 X45.269 Y17.026 E0.06954
G1 X44.849 Y17.749 E0.06953
G1 X44.362 Y18.429 E0.06955
G1 X43.812 Y19.06 E0.0696
G1 X43.205 Y19.635 E0.06952
G1 X42.545 Y20.149 E0.06956
G1 X41.839 Y20.598 E0.06957
G1 X41.094 Y20.978 E0.06954
G1 X40.316 Y21.285 E0.06955
G1 X39.512 Y21.516 E0.06956
G1 X38.69 Y21.669 E0.06952
G1 X37.5 Y21.75 E0.09918
G1 X-37.5 Y21.75 E6.23628
G1 X-38.335 Y21.71 E0.06951
G1 X-39.163 Y21.59 E0.06957
G1 X-39.976 Y21.392 E0.06958
G1 X-40.766 Y21.118 E0.06953
G1 X-41.526 Y20.769 E0.06954
G1 X-42.249 Y20.349 E0.06953
G1 X-42.929 Y19.862 E0.06955
G1 X-43.56 Y19.312 E0.0696
G1 X-44.135 Y18.705 E0.06952
G1 X-44.649 Y18.045 E0.06956
G1 X-45.098 Y17.339 E0.06957
G1 X-45.478 Y16.594 E0.06954
G1 X-45.785 Y15.816 E0.06955
G1 X-46.016 Y15.012 E0.06956
G1 X-46.169 Y14.19 E0.06952
G1 X-46.25 Y13 E0.09918
G1 X-46.25 Y9 E0.3326
G1 X-46.21 Y8.165 E0.06951
G1 X-46.09 Y7.337 E0.06957
G1 X-45.892 Y6.524 E0.06958
G1 X-45.618 Y5.734 E0.06953
G1 X-45.269 Y4.974 E0.06954
G1 X-44.849 Y4.251 E0.06953
G1 X-44.362 Y3.571 E0.06955
G1 X-43.687 Y2.813 E0.0844
G1 X-21.687 Y-19.187 E2.58703
G1 X-21.068 Y-19.75 E0.06958
G1 X-20.398 Y-20.25 E0.06951
G1 X-19.684 Y-20.685 E0.06952
G1 X-18.931 Y-21.049 E0.06954
G1 X-18.146 Y-21.34 E0.06961
G1 X-17.338 Y-21.555 E0.06952
G1 X-16.513 Y-21.691 E0.06952
G1 X-15.5 Y-21.75 E0.08437
M566 X1800 Y1800
G0 F3600 X-15.5 Y-21.25
M566 X1200 Y1200
G1 F3000 X15.5 Y-21.25 E2.57766
G1 X16.311 Y-21.21 E0.06752
G1 X17.114 Y-21.09 E0.06751
G1 X17.902 Y-20.893 E0.06754
G1 X18.667 Y-20.618 E0.0676
G1 X19.4 Y-20.27 E0.06747
G1 X20.096 Y-19.851 E0.06755
G1 X20.747 Y-19.366 E0.0675
G1 X21.334 Y-18.834 E0.06587
G1 X43.334 Y3.166 E2.58703
G1 X43.879 Y3.768 E0.06752
G1 X44.362 Y4.421 E0.06754
G1 X44.779 Y5.118 E0.06754
G1 X45.126 Y5.852 E0.06751
G1 X45.398 Y6.617 E0.06751
G1 X45.594 Y7.405 E0.06752
G1 X45.712 Y8.209 E0.06757
G1 X45.75 Y9 E0.06585
G1 X45.75 Y13 E0.3326
G1 X45.71 Y13.811 E0.06752
G1 X45.59 Y14.614 E0.06751
G1 X45.393 Y15.402 E0.06754
G1 X45.118 Y16.167 E0.0676
G1 X44.77 Y16.9 E0.06747
G1 X44.351 Y17.596 E0.06755
G1 X43.866 Y18.247 E0.0675
G1 X43.319 Y18.848 E0.06757
G1 X42.716 Y19.392 E0.06753
G1 X42.062 Y19.874 E0.06755
G1 X41.364 Y20.289 E0.06752
G1 X40.629 Y20.634 E0.06751
G1 X39.863 Y20.904 E0.06753
G1 X39.075 Y21.098 E0.06748
G1 X38.271 Y21.214 E0.06755
G1 X37.5 Y21.25 E0.06418
G1 X-37.5 Y21.25 E6.23628
G1 X-38.311 Y21.21 E0.06752
G1 X-39.114 Y21.09 E0.06751
G1 X-39.902 Y20.893 E0.06754
G1 X-40.667 Y20.618 E0.0676
G1 X-41.4 Y20.27 E0.06747
G1 X-42.096 Y19.851 E0.06755
G1 X-42.747 Y19.366 E0.0675
G1 X-43.348 Y18.819 E0.06757
G1 X-43.892 Y18.216 E0.06753
G1 X-44.374 Y17.562 E0.06755
G1 X-44.789 Y16.864 E0.06752
G1 X-45.134 Y16.129 E0.06751
G1 X-45.404 Y15.363 E0.06753
G1 X-45.598 Y14.575 E0.06748
G1 X-45.714 Y13.771 E0.06755
G1 X-45.75 Y13 E0.06418
G1 X-45.75 Y9 E0.3326
G1 X-45.71 Y8.189 E0.06752
G1 X-45.59 Y7.386 E0.06751
G1 X-45.393 Y6.598 E0.06754
G1 X-45.118 Y5.833 E0.0676
G1 X-44.77 Y5.1 E0.06747
G1 X-44.351 Y4.404 E0.06755
G1 X-43.866 Y3.753 E0.0675
G1 X-43.334 Y3.166 E0.06587
G1 X-21.334 Y-18.834 E2.58703
G1 X-20.732 Y-19.379 E0.06752
G1 X-20.079 Y-19.862 E0.06754
G1 X-19.382 Y-20.279 E0.06754
G1 X-18.648 Y-20.626 E0.06751
G1 X-17.883 Y-20.898 E0.06751
G1 X-17.095 Y-21.094 E0.06752
G1 X-16.291 Y-21.212 E0.06757
G1 X-15.5 Y-21.25 E0.06585
M566 X1800 Y1800
G0 F3600 X-15.5 Y-20.75
M566 X1200 Y1200
G1 F3000 X15.5 Y-20.75 E2.57766
G1 X16.286 Y-20.71 E0.06544
G1 X17.064 Y-20.591 E0.06544
G1 X17.826 Y-20.393 E0.06546
G1 X18.564 Y-20.119 E0.06546
G1 X19.27 Y-19.771 E0.06545
G1 X19.938 Y-19.354 E0.06548
G1 X20.559 Y-18.871 E0.06542
G1 X20.98 Y-18.48 E0.04778
G1 X42.98 Y3.52 E2.58703
G1 X43.508 Y4.104 E0.06546
G1 X43.973 Y4.739 E0.06544
G1 X44.372 Y5.417 E0.06541
G1 X44.7 Y6.133 E0.06549
G1 X44.954 Y6.878 E0.06545
G1 X45.131 Y7.645 E0.06545
G1 X45.229 Y8.426 E0.06545
G1 X45.25 Y9 E0.04776
G1 X45.25 Y13 E0.3326
G1 X45.21 Y13.786 E0.06544
G1 X45.091 Y14.564 E0.06544
G1 X44.893 Y15.326 E0.06546
G1 X44.619 Y16.064 E0.06546
G1 X44.271 Y16.77 E0.06545
G1 X43.854 Y17.438 E0.06548
G1 X43.371 Y18.059 E0.06542
G1 X42.827 Y18.629 E0.06552
G1 X42.229 Y19.14 E0.06541
G1 X41.582 Y19.588 E0.06544
G1 X40.892 Y19.968 E0.0655
G1 X40.168 Y20.276 E0.06542
G1 X39.416 Y20.509 E0.06546
G1 X38.645 Y20.665 E0.06541
G1 X37.5 Y20.75 E0.09547
G1 X-37.5 Y20.75 E6.23628
G1 X-38.286 Y20.71 E0.06544
G1 X-39.064 Y20.591 E0.06544
G1 X-39.826 Y20.393 E0.06546
G1 X-40.564 Y20.119 E0.06546
G1 X-41.27 Y19.771 E0.06545
G1 X-41.938 Y19.354 E0.06548
G1 X-42.559 Y18.871 E0.06542
G1 X-43.129 Y18.327 E0.06552
G1 X-43.64 Y17.729 E0.06541
G1 X-44.088 Y17.082 E0.06544
G1 X-44.468 Y16.392 E0.0655
G1 X-44.776 Y15.668 E0.06542
G1 X-45.009 Y14.916 E0.06546
G1 X-45.165 Y14.145 E0.06541
G1 X-45.25 Y13 E0.09547
G1 X-45.25 Y9 E0.3326
G1 X-45.21 Y8.214 E0.06544
G1 X-45.091 Y7.436 E0.06544
G1 X-44.893 Y6.674 E0.06546
G1 X-44.619 Y5.936 E0.06546
G1 X-44.271 Y5.23 E0.06545
G1 X-43.854 Y4.562 E0.06548
G1 X-43.371 Y3.941 E0.06542
G1 X-42.98 Y3.52 E0.04778
G1 X-20.98 Y-18.48 E2.58703
G1 X-20.396 Y-19.008 E0.06546
G1 X-19.761 Y-19.473 E0.06544
G1 X-19.083 Y-19.872 E0.06541
G1 X-18.367 Y-20.2 E0.06549
G1 X-17.622 Y-20.454 E0.06545
G1 X-16.855 Y-20.631 E0.06545
G1 X-16.074 Y-20.729 E0.06545
G1 X-15.5 Y-20.75 E0.04776
M566 X1800 Y1800
G0 F3600 X-15.5 Y-20.25
M566 X1200 Y1200
G1 F3000 X15.5 Y-20.25 E2.57766
G1 X16.26 Y-20.21 E0.06328
G1 X17.012 Y-20.091 E0.06331
G1 X17.747 Y-19.893 E0.06329
G1 X18.458 Y-19.619 E0.06336
G1 X19.136 Y-19.273 E0.06329
G1 X19.773 Y-18.857 E0.06326
G1 X20.627 Y-18.127 E0.09342
G1 X42.627 Y3.873 E2.58703
G1 X43.136 Y4.439 E0.06329
G1 X43.583 Y5.055 E0.06329
G1 X43.963 Y5.715 E0.06333
G1 X44.272 Y6.411 E0.06332
G1 X44.506 Y7.135 E0.06327
G1 X44.663 Y7.88 E0.06331
G1 X44.75 Y9 E0.09341
G1 X44.75 Y13 E0.3326
G1 X44.71 Y13.76 E0.06328
G1 X44.591 Y14.512 E0.06331
G1 X44.393 Y15.247 E0.06329
G1 X44.119 Y15.958 E0.06336
G1 X43.773 Y16.636 E0.06329
G1 X43.357 Y17.273 E0.06326
G1 X42.876 Y17.864 E0.06336
G1 X42.337 Y18.401 E0.06326
G1 X41.744 Y18.878 E0.06328
G1 X41.104 Y19.291 E0.06333
G1 X40.424 Y19.634 E0.06333
G1 X39.712 Y19.904 E0.06332
G1 X38.976 Y20.098 E0.06329
G1 X38.224 Y20.214 E0.06327
G1 X37.5 Y20.25 E0.06028
G1 X-37.5 Y20.25 E6.23628
G1 X-38.26 Y20.21 E0.06328
G1 X-39.012 Y20.091 E0.06331
G1 X-39.747 Y19.893 E0.06329
G1 X-40.458 Y19.619 E0.06336
G1 X-41.136 Y19.273 E0.06329
G1 X-41.773 Y18.857 E0.06326
G1 X-42.364 Y18.376 E0.06336
G1 X-42.901 Y17.837 E0.06326
G1 X-43.378 Y17.244 E0.06328
G1 X-43.791 Y16.604 E0.06333
G1 X-44.134 Y15.924 E0.06333
G1 X-44.404 Y15.212 E0.06332
G1 X-44.598 Y14.476 E0.06329
G1 X-44.714 Y13.724 E0.06327
G1 X-44.75 Y13 E0.06028
G1 X-44.75 Y9 E0.3326
G1 X-44.71 Y8.24 E0.06328
G1 X-44.591 Y7.488 E0.06331
G1 X-44.393 Y6.753 E0.06329
G1 X-44.119 Y6.042 E0.06336
G1 X-43.773 Y5.364 E0.06329
G1 X-43.357 Y4.727 E0.06326
G1 X-42.627 Y3.873 E0.09342
G1 X-20.627 Y-18.127 E2.58703
G1 X-20.061 Y-18.636 E0.06329
G1 X-19.445 Y-19.083 E0.06329
G1 X-18.785 Y-19.463 E0.06333
G1 X-18.089 Y-19.772 E0.06332
G1 X-17.365 Y-20.006 E0.06327
G1 X-16.62 Y-20.163 E0.06331
G1 X-15.5 Y-20.25 E0.09341
M566 X1800 Y1800
G0 F3600 X-15.5 Y-19.75
M566 X1200 Y1200
G1 F3000 X15.5 Y-19.75 E2.57766
G1 X16.233 Y-19.71 E0.06104
G1 X16.958 Y-19.591 E0.06109
G1 X17.666 Y-19.393 E0.06113
G1 X18.348 Y-19.12 E0.06108
G1 X18.996 Y-18.774 E0.06108
G1 X19.603 Y-18.36 E0.06109
G1 X20.273 Y-17.773 E0.07407
G1 X42.273 Y4.227 E2.58703
G1 X42.763 Y4.774 E0.06106
G1 X43.191 Y5.371 E0.06108
G1 X43.552 Y6.011 E0.0611
G1 X43.841 Y6.686 E0.06105
G1 X44.055 Y7.389 E0.0611
G1 X44.191 Y8.111 E0.06109
G1 X44.25 Y9 E0.07408
G1 X44.25 Y13 E0.3326
G1 X44.21 Y13.733 E0.06104
G1 X44.091 Y14.458 E0.06109
G1 X43.893 Y15.166 E0.06113
G1 X43.62 Y15.848 E0.06108
G1 X43.274 Y16.496 E0.06108
G1 X42.86 Y17.103 E0.06109
G1 X42.383 Y17.661 E0.06104
G1 X41.847 Y18.164 E0.06112
G1 X41.26 Y18.606 E0.0611
G1 X40.629 Y18.981 E0.06103
G1 X39.961 Y19.286 E0.06106
G1 X39.263 Y19.516 E0.06111
G1 X38.544 Y19.669 E0.06112
G1 X37.5 Y19.75 E0.08707
G1 X-37.5 Y19.75 E6.23628
G1 X-38.233 Y19.71 E0.06104
G1 X-38.958 Y19.591 E0.06109
G1 X-39.666 Y19.393 E0.06113
G1 X-40.348 Y19.12 E0.06108
G1 X-40.996 Y18.774 E0.06108
G1 X-41.603 Y18.36 E0.06109
G1 X-42.161 Y17.883 E0.06104
G1 X-42.664 Y17.347 E0.06112
G1 X-43.106 Y16.76 E0.0611
G1 X-43.481 Y16.129 E0.06103
G1 X-43.786 Y15.461 E0.06106
G1 X-44.016 Y14.763 E0.06111
G1 X-44.169 Y14.044 E0.06112
G1 X-44.25 Y13 E0.08707
G1 X-44.25 Y9 E0.3326
G1 X-44.21 Y8.267 E0.06104
G1 X-44.091 Y7.542 E0.06109
G1 X-43.893 Y6.834 E0.06113
G1 X-43.62 Y6.152 E0.06108
G1 X-43.274 Y5.504 E0.06108
G1 X-42.86 Y4.897 E0.06109
G1 X-42.273 Y4.227 E0.07407
G1 X-20.273 Y-17.773 E2.58703
G1 X-19.726 Y-18.263 E0.06106
G1 X-19.129 Y-18.691 E0.06108
G1 X-18.489 Y-19.052 E0.0611
G1 X-17.814 Y-19.341 E0.06105
G1 X-17.111 Y-19.555 E0.0611
G1 X-16.389 Y-19.691 E0.06109
G1 X-15.5 Y-19.75 E0.07408
M566 X1800 Y1800
G0 F3600 X-15.5 Y-19.25
M566 X1200 Y1200
G1 F3000 X15.5 Y-19.25 E2.57766
G1 X16.206 Y-19.21 E0.0588
G1 X16.902 Y-19.091 E0.05871
G1 X17.581 Y-18.893 E0.05881
G1 X18.233 Y-18.621 E0.05874
G1 X18.85 Y-18.276 E0.05878
G1 X19.425 Y-17.864 E0.05882
G1 X19.919 Y-17.419 E0.05528
G1 X41.919 Y4.581 E2.58703
G1 X42.39 Y5.108 E0.05877
G1 X42.798 Y5.685 E0.05876
G1 X43.139 Y6.304 E0.05876
G1 X43.407 Y6.958 E0.05877
G1 X43.6 Y7.638 E0.05878
G1 X43.715 Y8.336 E0.05882
G1 X43.75 Y9 E0.05529
G1 X43.75 Y13 E0.3326
G1 X43.71 Y13.706 E0.0588
G1 X43.591 Y14.402 E0.05871
G1 X43.393 Y15.081 E0.05881
G1 X43.121 Y15.733 E0.05874
G1 X42.776 Y16.35 E0.05878
G1 X42.364 Y16.925 E0.05882
G1 X41.89 Y17.449 E0.05875
G1 X41.359 Y17.916 E0.0588
G1 X40.78 Y18.32 E0.05871
G1 X40.158 Y18.657 E0.05882
G1 X39.502 Y18.921 E0.0588
G1 X38.821 Y19.109 E0.05874
G1 X38.123 Y19.219 E0.05876
G1 X37.5 Y19.25 E0.05187
G1 X-37.5 Y19.25 E6.23628
G1 X-38.206 Y19.21 E0.0588
G1 X-38.902 Y19.091 E0.05871
G1 X-39.581 Y18.893 E0.05881
G1 X-40.233 Y18.621 E0.05874
G1 X-40.85 Y18.276 E0.05878
G1 X-41.425 Y17.864 E0.05882
G1 X-41.949 Y17.39 E0.05875
G1 X-42.416 Y16.859 E0.0588
G1 X-42.82 Y16.28 E0.05871
G1 X-43.157 Y15.658 E0.05882
G1 X-43.421 Y15.002 E0.0588
G1 X-43.609 Y14.321 E0.05874
G1 X-43.719 Y13.623 E0.05876
G1 X-43.75 Y13 E0.05187
G1 X-43.75 Y9 E0.3326
G1 X-43.71 Y8.294 E0.0588
G1 X-43.591 Y7.598 E0.05871
G1 X-43.393 Y6.919 E0.05881
G1 X-43.121 Y6.267 E0.05874
G1 X-42.776 Y5.65 E0.05878
G1 X-42.364 Y5.075 E0.05882
G1 X-41.919 Y4.581 E0.05528
G1 X-19.919 Y-17.419 E2.58703
G1 X-19.392 Y-17.89 E0.05877
G1 X-18.815 Y-18.298 E0.05876
G1 X-18.196 Y-18.639 E0.05876
G1 X-17.542 Y-18.907 E0.05877
G1 X-16.862 Y-19.1 E0.05878
