;FLAVOR:RepRap
;TIME:1153
;Filament used: 2.97348m
;Layer height: 0.2
;MINX:-42.75
;MINY:-30.25
;MINZ:0.4
;MAXX:42.75
;MAXY:18.25
;MAXZ:12
;POSTPROCESSED
;Generated with Cura_SteamEngine 4.13.1
T0
M190 S60
M104 S215
M109 S215
M82 ;absolute extrusion mode
G28 ;Home
G1 Z15.0 F6000 ;Move the platform down 15mm
;Prime the extruder
G92 E0
G1 F200 E3
G92 E0
M83 ;relative extrusion mode
G1 F1500 E-6.5
;LAYER_COUNT:59
;LAYER:0
M107 P1
M204 T5000
M566 X1800 Y1800
G0 F3600 X-5.25 Y-4.25 Z0.4
M204 P3000
M566 X1200 Y1200
;TYPE:SKIRT
G1 F1500 E6.5
G1 F3000 X5.25 Y-4.25 E0.87308
G1 X5.25 Y-20.5 E1.35119
G1 X5.29 Y-21.382 E0.07341
G1 X5.41 Y-22.257 E0.07344
G1 X5.608 Y-23.117 E0.07338
G1 X5.883 Y-23.956 E0.07342
G1 X6.233 Y-24.767 E0.07345
G1 X6.655 Y-25.542 E0.07338
G1 X7.146 Y-26.277 E0.0735
G1 X7.7 Y-26.964 E0.07338
G1 X8.315 Y-27.597 E0.07339
G1 X8.984 Y-28.173 E0.07341
G1 X9.703 Y-28.686 E0.07344
G1 X10.466 Y-29.131 E0.07345
G1 X11.265 Y-29.506 E0.07339
G1 X12.095 Y-29.807 E0.07341
G1 X12.949 Y-30.032 E0.07343
G1 X13.82 Y-30.178 E0.07343
G1 X15 Y-30.25 E0.0983
G1 X27 Y-30.25 E0.9978
G1 X27.882 Y-30.21 E0.07341
G1 X28.757 Y-30.09 E0.07344
G1 X29.617 Y-29.892 E0.07338
G1 X30.456 Y-29.617 E0.07342
G1 X31.267 Y-29.267 E0.07345
G1 X32.042 Y-28.845 E0.07338
G1 X32.777 Y-28.354 E0.0735
G1 X33.464 Y-27.8 E0.07338
G1 X34.097 Y-27.185 E0.07339
G1 X34.673 Y-26.516 E0.07341
G1 X35.186 Y-25.797 E0.07344
G1 X35.631 Y-25.034 E0.07345
G1 X36.006 Y-24.235 E0.07339
G1 X36.307 Y-23.405 E0.07341
G1 X36.532 Y-22.551 E0.07343
G1 X36.678 Y-21.68 E0.07343
G1 X36.75 Y-20.5 E0.0983
G1 X36.75 Y-3.49 E1.41439
G1 X37.267 Y-3.267 E0.04682
G1 X38.042 Y-2.845 E0.07338
G1 X38.777 Y-2.354 E0.0735
G1 X39.464 Y-1.8 E0.07338
G1 X40.097 Y-1.185 E0.07339
G1 X40.673 Y-.516 E0.07341
G1 X41.186 Y0.203 E0.07344
G1 X41.631 Y0.966 E0.07345
G1 X42.006 Y1.765 E0.07339
G1 X42.307 Y2.595 E0.07341
G1 X42.532 Y3.449 E0.07343
G1 X42.678 Y4.32 E0.07343
G1 X42.75 Y5.5 E0.0983
G1 X42.75 Y8.5 E0.24945
G1 X42.71 Y9.382 E0.07341
G1 X42.59 Y10.257 E0.07344
G1 X42.392 Y11.117 E0.07338
G1 X42.117 Y11.956 E0.07342
G1 X41.767 Y12.767 E0.07345
G1 X41.345 Y13.542 E0.07338
G1 X40.854 Y14.277 E0.0735
G1 X40.3 Y14.964 E0.07338
G1 X39.685 Y15.597 E0.07339
G1 X39.016 Y16.173 E0.07341
G1 X38.297 Y16.686 E0.07344
G1 X37.534 Y17.131 E0.07345
G1 X36.735 Y17.506 E0.07339
G1 X35.905 Y17.807 E0.07341
G1 X35.051 Y18.032 E0.07343
G1 X34.18 Y18.178 E0.07343
G1 X33 Y18.25 E0.0983
G1 X-33 Y18.25 E5.48792
G1 X-33.882 Y18.21 E0.07341
G1 X-34.757 Y18.09 E0.07344
G1 X-35.617 Y17.892 E0.07338
G1 X-36.456 Y17.617 E0.07342
G1 X-37.267 Y17.267 E0.07345
G1 X-38.042 Y16.845 E0.07338
G1 X-38.777 Y16.354 E0.0735
G1 X-39.464 Y15.8 E0.07338
G1 X-40.097 Y15.185 E0.07339
G1 X-40.673 Y14.516 E0.07341
G1 X-41.186 Y13.797 E0.07344
G1 X-41.631 Y13.034 E0.07345
G1 X-42.006 Y12.235 E0.07339
G1 X-42.307 Y11.405 E0.07341
G1 X-42.532 Y10.551 E0.07343
G1 X-42.678 Y9.68 E0.07343
G1 X-42.75 Y8.5 E0.0983
G1 X-42.75 Y5.5 E0.24945
G1 X-42.71 Y4.618 E0.07341
G1 X-42.59 Y3.743 E0.07344
G1 X-42.392 Y2.883 E0.07338
G1 X-42.117 Y2.044 E0.07342
G1 X-41.767 Y1.233 E0.07345
G1 X-41.345 Y0.458 E0.07338
G1 X-40.854 Y-.277 E0.0735
G1 X-40.3 Y-.964 E0.07338
G1 X-39.685 Y-1.597 E0.07339
G1 X-39.016 Y-2.173 E0.07341
G1 X-38.297 Y-2.686 E0.07344
G1 X-37.534 Y-3.131 E0.07345
G1 X-36.75 Y-3.499 E0.07201
G1 X-36.75 Y-20.5 E1.41364
G1 X-36.71 Y-21.382 E0.07341
G1 X-36.59 Y-22.257 E0.07344
G1 X-36.392 Y-23.117 E0.07338
G1 X-36.117 Y-23.956 E0.07342
G1 X-35.767 Y-24.767 E0.07345
G1 X-35.345 Y-25.542 E0.07338
G1 X-34.854 Y-26.277 E0.0735
G1 X-34.3 Y-26.964 E0.07338
G1 X-33.685 Y-27.597 E0.07339
G1 X-33.016 Y-28.173 E0.07341
G1 X-32.297 Y-28.686 E0.07344
G1 X-31.534 Y-29.131 E0.07345
G1 X-30.735 Y-29.506 E0.07339
G1 X-29.905 Y-29.807 E0.07341
G1 X-29.051 Y-30.032 E0.07343
G1 X-28.18 Y-30.178 E0.07343
G1 X-27 Y-30.25 E0.0983
G1 X-15 Y-30.25 E0.9978
G1 X-14.118 Y-30.21 E0.07341
G1 X-13.243 Y-30.09 E0.07344
G1 X-12.383 Y-29.892 E0.07338
G1 X-11.544 Y-29.617 E0.07342
G1 X-10.733 Y-29.267 E0.07345
G1 X-9.958 Y-28.845 E0.07338
G1 X-9.223 Y-28.354 E0.0735
G1 X-8.536 Y-27.8 E0.07338
G1 X-7.903 Y-27.185 E0.07339
G1 X-7.327 Y-26.516 E0.07341
G1 X-6.814 Y-25.797 E0.07344
G1 X-6.369 Y-25.034 E0.07345
G1 X-5.994 Y-24.235 E0.07339
G1 X-5.693 Y-23.405 E0.07341
G1 X-5.468 Y-22.551 E0.07343
G1 X-5.322 Y-21.68 E0.07343
G1 X-5.25 Y-20.5 E0.0983
G1 X-5.25 Y-4.25 E1.35119
M566 X1800 Y1800
G0 F3600 X-5.75 Y-3.75
M566 X1200 Y1200
G1 F3000 X5.75 Y-3.75 E0.95623
G1 X5.75 Y-20.5 E1.39277
G1 X5.79 Y-21.359 E0.0715
G1 X5.91 Y-22.211 E0.07154
G1 X6.108 Y-23.048 E0.07152
G1 X6.383 Y-23.862 E0.07144
G1 X6.732 Y-24.648 E0.07151
G1 X7.153 Y-25.398 E0.07152
G1 X7.642 Y-26.106 E0.07155
G1 X8.194 Y-26.765 E0.07148
G1 X8.806 Y-27.37 E0.07156
G1 X9.471 Y-27.915 E0.07149
G1 X10.183 Y-28.397 E0.07149
G1 X10.937 Y-28.81 E0.07148
G1 X11.727 Y-29.151 E0.07155
G1 X12.544 Y-29.418 E0.07147
G1 X13.383 Y-29.608 E0.07153
G1 X14.236 Y-29.718 E0.07151
G1 X15 Y-29.75 E0.06358
G1 X27 Y-29.75 E0.9978
G1 X27.859 Y-29.71 E0.0715
G1 X28.711 Y-29.59 E0.07154
G1 X29.548 Y-29.392 E0.07152
G1 X30.362 Y-29.117 E0.07144
G1 X31.148 Y-28.768 E0.07151
G1 X31.898 Y-28.347 E0.07152
G1 X32.606 Y-27.858 E0.07155
G1 X33.265 Y-27.306 E0.07148
G1 X33.87 Y-26.694 E0.07156
G1 X34.415 Y-26.029 E0.07149
G1 X34.897 Y-25.317 E0.07149
G1 X35.31 Y-24.563 E0.07148
G1 X35.651 Y-23.773 E0.07155
G1 X35.918 Y-22.956 E0.07147
G1 X36.108 Y-22.117 E0.07153
G1 X36.218 Y-21.264 E0.07151
G1 X36.25 Y-20.5 E0.06358
G1 X36.25 Y-3.155 E1.44224
G1 X36.362 Y-3.117 E0.00983
G1 X37.148 Y-2.768 E0.07151
G1 X37.898 Y-2.347 E0.07152
G1 X38.606 Y-1.858 E0.07155
G1 X39.265 Y-1.306 E0.07148
G1 X39.87 Y-.694 E0.07156
G1 X40.415 Y-0.029 E0.07149
G1 X40.897 Y0.683 E0.07149
G1 X41.31 Y1.437 E0.07148
G1 X41.651 Y2.227 E0.07155
G1 X41.918 Y3.044 E0.07147
G1 X42.108 Y3.883 E0.07153
G1 X42.218 Y4.736 E0.07151
G1 X42.25 Y5.5 E0.06358
G1 X42.25 Y8.5 E0.24945
G1 X42.21 Y9.359 E0.0715
G1 X42.09 Y10.211 E0.07154
G1 X41.892 Y11.048 E0.07152
G1 X41.617 Y11.862 E0.07144
G1 X41.268 Y12.648 E0.07151
G1 X40.847 Y13.398 E0.07152
G1 X40.358 Y14.106 E0.07155
G1 X39.806 Y14.765 E0.07148
G1 X39.194 Y15.37 E0.07156
G1 X38.529 Y15.915 E0.07149
G1 X37.817 Y16.397 E0.07149
G1 X37.063 Y16.81 E0.07148
G1 X36.273 Y17.151 E0.07155
G1 X35.456 Y17.418 E0.07147
G1 X34.617 Y17.608 E0.07153
G1 X33.764 Y17.718 E0.07151
G1 X33 Y17.75 E0.06358
G1 X-33 Y17.75 E5.48792
G1 X-33.859 Y17.71 E0.0715
G1 X-34.711 Y17.59 E0.07154
G1 X-35.548 Y17.392 E0.07152
G1 X-36.362 Y17.117 E0.07144
G1 X-37.148 Y16.768 E0.07151
G1 X-37.898 Y16.347 E0.07152
G1 X-38.606 Y15.858 E0.07155
G1 X-39.265 Y15.306 E0.07148
G1 X-39.87 Y14.694 E0.07156
G1 X-40.415 Y14.029 E0.07149
G1 X-40.897 Y13.317 E0.07149
G1 X-41.31 Y12.563 E0.07148
G1 X-41.651 Y11.773 E0.07155
G1 X-41.918 Y10.956 E0.07147
G1 X-42.108 Y10.117 E0.07153
G1 X-42.218 Y9.264 E0.07151
G1 X-42.25 Y8.5 E0.06358
G1 X-42.25 Y5.5 E0.24945
G1 X-42.21 Y4.641 E0.0715
G1 X-42.09 Y3.789 E0.07154
G1 X-41.892 Y2.952 E0.07152
G1 X-41.617 Y2.138 E0.07144
G1 X-41.268 Y1.352 E0.07151
G1 X-40.847 Y0.602 E0.07152
G1 X-40.358 Y-.106 E0.07155
G1 X-39.806 Y-.765 E0.07148
G1 X-39.194 Y-1.37 E0.07156
G1 X-38.529 Y-1.915 E0.07149
G1 X-37.817 Y-2.397 E0.07149
G1 X-37.063 Y-2.81 E0.07148
G1 X-36.273 Y-3.151 E0.07155
G1 X-36.25 Y-3.159 E0.00202
G1 X-36.25 Y-20.5 E1.44191
G1 X-36.21 Y-21.359 E0.0715
G1 X-36.09 Y-22.211 E0.07154
G1 X-35.892 Y-23.048 E0.07152
G1 X-35.617 Y-23.862 E0.07144
G1 X-35.268 Y-24.648 E0.07151
G1 X-34.847 Y-25.398 E0.07152
G1 X-34.358 Y-26.106 E0.07155
G1 X-33.806 Y-26.765 E0.07148
G1 X-33.194 Y-27.37 E0.07156
G1 X-32.529 Y-27.915 E0.07149
G1 X-31.817 Y-28.397 E0.07149
G1 X-31.063 Y-28.81 E0.07148
G1 X-30.273 Y-29.151 E0.07155
G1 X-29.456 Y-29.418 E0.07147
G1 X-28.617 Y-29.608 E0.07153
G1 X-27.764 Y-29.718 E0.07151
G1 X-27 Y-29.75 E0.06358
G1 X-15 Y-29.75 E0.9978
G1 X-14.141 Y-29.71 E0.0715
G1 X-13.289 Y-29.59 E0.07154
G1 X-12.452 Y-29.392 E0.07152
G1 X-11.638 Y-29.117 E0.07144
G1 X-10.852 Y-28.768 E0.07151
G1 X-10.102 Y-28.347 E0.07152
G1 X-9.394 Y-27.858 E0.07155
G1 X-8.735 Y-27.306 E0.07148
G1 X-8.13 Y-26.694 E0.07156
G1 X-7.585 Y-26.029 E0.07149
G1 X-7.103 Y-25.317 E0.07149
G1 X-6.69 Y-24.563 E0.07148
G1 X-6.349 Y-23.773 E0.07155
G1 X-6.082 Y-22.956 E0.07147
G1 X-5.892 Y-22.117 E0.07153
G1 X-5.782 Y-21.264 E0.07151
G1 X-5.75 Y-20.5 E0.06358
G1 X-5.75 Y-3.75 E1.39277
M566 X1800 Y1800
G0 F3600 X-6.25 Y-3.25
M566 X1200 Y1200
G1 F3000 X6.25 Y-3.25 E1.03938
G1 X6.25 Y-20.5 E1.43434
G1 X6.29 Y-21.335 E0.06951
G1 X6.41 Y-22.163 E0.06957
G1 X6.608 Y-22.976 E0.06958
G1 X6.882 Y-23.766 E0.06953
G1 X7.231 Y-24.526 E0.06954
G1 X7.651 Y-25.249 E0.06953
G1 X8.138 Y-25.929 E0.06955
G1 X8.688 Y-26.56 E0.0696
G1 X9.295 Y-27.135 E0.06952
G1 X9.955 Y-27.649 E0.06956
G1 X10.661 Y-28.098 E0.06957
G1 X11.406 Y-28.478 E0.06954
G1 X12.184 Y-28.785 E0.06955
G1 X12.988 Y-29.016 E0.06956
G1 X13.81 Y-29.169 E0.06952
G1 X15 Y-29.25 E0.09918
G1 X27 Y-29.25 E0.9978
G1 X27.835 Y-29.21 E0.06951
G1 X28.663 Y-29.09 E0.06957
G1 X29.476 Y-28.892 E0.06958
G1 X30.266 Y-28.618 E0.06953
G1 X31.026 Y-28.269 E0.06954
G1 X31.749 Y-27.849 E0.06953
G1 X32.429 Y-27.362 E0.06955
G1 X33.06 Y-26.812 E0.0696
G1 X33.635 Y-26.205 E0.06952
G1 X34.149 Y-25.545 E0.06956
G1 X34.598 Y-24.839 E0.06957
G1 X34.978 Y-24.094 E0.06954
G1 X35.285 Y-23.316 E0.06955
G1 X35.516 Y-22.512 E0.06956
G1 X35.669 Y-21.69 E0.06952
G1 X35.75 Y-20.5 E0.09918
G1 X35.75 Y-2.797 E1.47201
G1 X36.266 Y-2.618 E0.04541
G1 X37.026 Y-2.269 E0.06954
G1 X37.749 Y-1.849 E0.06953
G1 X38.429 Y-1.362 E0.06955
G1 X39.06 Y-.812 E0.0696
G1 X39.635 Y-.205 E0.06952
G1 X40.149 Y0.455 E0.06956
G1 X40.598 Y1.161 E0.06957
G1 X40.978 Y1.906 E0.06954
G1 X41.285 Y2.684 E0.06955
G1 X41.516 Y3.488 E0.06956
G1 X41.669 Y4.31 E0.06952
G1 X41.75 Y5.5 E0.09918
G1 X41.75 Y8.5 E0.24945
G1 X41.71 Y9.335 E0.06951
G1 X41.59 Y10.163 E0.06957
G1 X41.392 Y10.976 E0.06958
G1 X41.118 Y11.766 E0.06953
G1 X40.769 Y12.526 E0.06954
G1 X40.349 Y13.249 E0.06953
G1 X39.862 Y13.929 E0.06955
G1 X39.312 Y14.56 E0.0696
G1 X38.705 Y15.135 E0.06952
G1 X38.045 Y15.649 E0.06956
G1 X37.339 Y16.098 E0.06957
G1 X36.594 Y16.478 E0.06954
G1 X35.816 Y16.785 E0.06955
G1 X35.012 Y17.016 E0.06956
G1 X34.19 Y17.169 E0.06952
G1 X33 Y17.25 E0.09918
G1 X-33 Y17.25 E5.48792
G1 X-33.835 Y17.21 E0.06951
G1 X-34.663 Y17.09 E0.06957
G1 X-35.476 Y16.892 E0.06958
G1 X-36.266 Y16.618 E0.06953
G1 X-37.026 Y16.269 E0.06954
G1 X-37.749 Y15.849 E0.06953
G1 X-38.429 Y15.362 E0.06955
G1 X-39.06 Y14.812 E0.0696
G1 X-39.635 Y14.205 E0.06952
G1 X-40.149 Y13.545 E0.06956
G1 X-40.598 Y12.839 E0.06957
G1 X-40.978 Y12.094 E0.06954
G1 X-41.285 Y11.316 E0.06955
G1 X-41.516 Y10.512 E0.06956
G1 X-41.669 Y9.69 E0.06952
G1 X-41.75 Y8.5 E0.09918
G1 X-41.75 Y5.5 E0.24945
G1 X-41.71 Y4.665 E0.06951
G1 X-41.59 Y3.837 E0.06957
G1 X-41.392 Y3.024 E0.06958
G1 X-41.118 Y2.234 E0.06953
G1 X-40.769 Y1.474 E0.06954
G1 X-40.349 Y0.751 E0.06953
G1 X-39.862 Y0.071 E0.06955
G1 X-39.312 Y-.56 E0.0696
G1 X-38.705 Y-1.135 E0.06952
G1 X-38.045 Y-1.649 E0.06956
G1 X-37.339 Y-2.098 E0.06957
G1 X-36.594 Y-2.478 E0.06954
G1 X-35.816 Y-2.785 E0.06955
G1 X-35.75 Y-2.804 E0.00571
G1 X-35.75 Y-20.5 E1.47143
G1 X-35.71 Y-21.335 E0.06951
G1 X-35.59 Y-22.163 E0.06957
G1 X-35.392 Y-22.976 E0.06958
G1 X-35.118 Y-23.766 E0.06953
G1 X-34.769 Y-24.526 E0.06954
G1 X-34.349 Y-25.249 E0.06953
G1 X-33.862 Y-25.929 E0.06955
G1 X-33.312 Y-26.56 E0.0696
G1 X-32.705 Y-27.135 E0.06952
G1 X-32.045 Y-27.649 E0.06956
G1 X-31.339 Y-28.098 E0.06957
G1 X-30.594 Y-28.478 E0.06954
G1 X-29.816 Y-28.785 E0.06955
G1 X-29.012 Y-29.016 E0.06956
G1 X-28.19 Y-29.169 E0.06952
G1 X-27 Y-29.25 E0.09918
G1 X-15 Y-29.25 E0.9978
G1 X-14.165 Y-29.21 E0.06951
G1 X-13.337 Y-29.09 E0.06957
G1 X-12.524 Y-28.892 E0.06958
G1 X-11.734 Y-28.618 E0.06953
G1 X-10.974 Y-28.269 E0.06954
G1 X-10.251 Y-27.849 E0.06953
G1 X-9.571 Y-27.362 E0.06955
G1 X-8.94 Y-26.812 E0.0696
G1 X-8.365 Y-26.205 E0.06952
G1 X-7.851 Y-25.545 E0.06956
G1 X-7.402 Y-24.839 E0.06957
G1 X-7.022 Y-24.094 E0.06954
G1 X-6.715 Y-23.316 E0.06955
G1 X-6.484 Y-22.512 E0.06956
G1 X-6.331 Y-21.69 E0.06952
G1 X-6.25 Y-20.5 E0.09918
G1 X-6.25 Y-3.25 E1.43434
M566 X1800 Y1800
G0 F3600 X-6.75 Y-2.75
M566 X1200 Y1200
G1 F3000 X6.75 Y-2.75 E1.12253
G1 X6.75 Y-20.5 E1.47592
G1 X6.79 Y-21.311 E0.06752
G1 X6.91 Y-22.114 E0.06751
G1 X7.107 Y-22.902 E0.06754
G1 X7.382 Y-23.667 E0.0676
G1 X7.73 Y-24.4 E0.06747
G1 X8.149 Y-25.096 E0.06755
G1 X8.634 Y-25.747 E0.0675
G1 X9.181 Y-26.348 E0.06757
G1 X9.784 Y-26.892 E0.06753
G1 X10.438 Y-27.374 E0.06755
G1 X11.136 Y-27.789 E0.06752
G1 X11.871 Y-28.134 E0.06751
G1 X12.637 Y-28.404 E0.06753
G1 X13.425 Y-28.598 E0.06748
G1 X14.229 Y-28.714 E0.06755
G1 X15 Y-28.75 E0.06418
G1 X27 Y-28.75 E0.9978
G1 X27.811 Y-28.71 E0.06752
G1 X28.614 Y-28.59 E0.06751
G1 X29.402 Y-28.393 E0.06754
G1 X30.167 Y-28.118 E0.0676
G1 X30.9 Y-27.77 E0.06747
G1 X31.596 Y-27.351 E0.06755
G1 X32.247 Y-26.866 E0.0675
G1 X32.848 Y-26.319 E0.06757
G1 X33.392 Y-25.716 E0.06753
G1 X33.874 Y-25.062 E0.06755
G1 X34.289 Y-24.364 E0.06752
G1 X34.634 Y-23.629 E0.06751
G1 X34.904 Y-22.863 E0.06753
G1 X35.098 Y-22.075 E0.06748
G1 X35.214 Y-21.271 E0.06755
G1 X35.25 Y-20.5 E0.06418
G1 X35.25 Y-2.431 E1.50244
G1 X35.402 Y-2.393 E0.01303
G1 X36.167 Y-2.118 E0.0676
G1 X36.9 Y-1.77 E0.06747
G1 X37.596 Y-1.351 E0.06755
G1 X38.247 Y-.866 E0.0675
G1 X38.848 Y-.319 E0.06757
G1 X39.392 Y0.284 E0.06753
G1 X39.874 Y0.938 E0.06755
G1 X40.289 Y1.636 E0.06752
G1 X40.634 Y2.371 E0.06751
G1 X40.904 Y3.137 E0.06753
G1 X41.098 Y3.925 E0.06748
G1 X41.214 Y4.729 E0.06755
G1 X41.25 Y5.5 E0.06418
G1 X41.25 Y8.5 E0.24945
G1 X41.21 Y9.311 E0.06752
G1 X41.09 Y10.114 E0.06751
G1 X40.893 Y10.902 E0.06754
G1 X40.618 Y11.667 E0.0676
G1 X40.27 Y12.4 E0.06747
G1 X39.851 Y13.096 E0.06755
G1 X39.366 Y13.747 E0.0675
G1 X38.819 Y14.348 E0.06757
G1 X38.216 Y14.892 E0.06753
G1 X37.562 Y15.374 E0.06755
G1 X36.864 Y15.789 E0.06752
G1 X36.129 Y16.134 E0.06751
G1 X35.363 Y16.404 E0.06753
G1 X34.575 Y16.598 E0.06748
G1 X33.771 Y16.714 E0.06755
G1 X33 Y16.75 E0.06418
G1 X-33 Y16.75 E5.48792
G1 X-33.811 Y16.71 E0.06752
G1 X-34.614 Y16.59 E0.06751
G1 X-35.402 Y16.393 E0.06754
G1 X-36.167 Y16.118 E0.0676
G1 X-36.9 Y15.77 E0.06747
G1 X-37.596 Y15.351 E0.06755
G1 X-38.247 Y14.866 E0.0675
G1 X-38.848 Y14.319 E0.06757
G1 X-39.392 Y13.716 E0.06753
G1 X-39.874 Y13.062 E0.06755
G1 X-40.289 Y12.364 E0.06752
G1 X-40.634 Y11.629 E0.06751
G1 X-40.904 Y10.863 E0.06753
G1 X-41.098 Y10.075 E0.06748
G1 X-41.214 Y9.271 E0.06755
G1 X-41.25 Y8.5 E0.06418
G1 X-41.25 Y5.5 E0.24945
G1 X-41.21 Y4.689 E0.06752
G1 X-41.09 Y3.886 E0.06751
G1 X-40.893 Y3.098 E0.06754
G1 X-40.618 Y2.333 E0.0676
G1 X-40.27 Y1.6 E0.06747
G1 X-39.851 Y0.904 E0.06755
G1 X-39.366 Y0.253 E0.0675
G1 X-38.819 Y-.348 E0.06757
G1 X-38.216 Y-.892 E0.06753
G1 X-37.562 Y-1.374 E0.06755
G1 X-36.864 Y-1.789 E0.06752
G1 X-36.129 Y-2.134 E0.06751
G1 X-35.363 Y-2.404 E0.06753
G1 X-35.25 Y-2.432 E0.00968
G1 X-35.25 Y-20.5 E1.50236
G1 X-35.21 Y-21.311 E0.06752
G1 X-35.09 Y-22.114 E0.06751
G1 X-34.893 Y-22.902 E0.06754
G1 X-34.618 Y-23.667 E0.0676
G1 X-34.27 Y-24.4 E0.06747
G1 X-33.851 Y-25.096 E0.06755
G1 X-33.366 Y-25.747 E0.0675
G1 X-32.819 Y-26.348 E0.06757
G1 X-32.216 Y-26.892 E0.06753
G1 X-31.562 Y-27.374 E0.06755
G1 X-30.864 Y-27.789 E0.06752
G1 X-30.129 Y-28.134 E0.06751
G1 X-29.363 Y-28.404 E0.06753
G1 X-28.575 Y-28.598 E0.06748
G1 X-27.771 Y-28.714 E0.06755
G1 X-27 Y-28.75 E0.06418
G1 X-15 Y-28.75 E0.9978
G1 X-14.189 Y-28.71 E0.06752
G1 X-13.386 Y-28.59 E0.06751
G1 X-12.598 Y-28.393 E0.06754
G1 X-11.833 Y-28.118 E0.0676
G1 X-11.1 Y-27.77 E0.06747
G1 X-10.404 Y-27.351 E0.06755
G1 X-9.753 Y-26.866 E0.0675
G1 X-9.152 Y-26.319 E0.06757
G1 X-8.608 Y-25.716 E0.06753
G1 X-8.126 Y-25.062 E0.06755
G1 X-7.711 Y-24.364 E0.06752
G1 X-7.366 Y-23.629 E0.06751
G1 X-7.096 Y-22.863 E0.06753
G1 X-6.902 Y-22.075 E0.06748
G1 X-6.786 Y-21.271 E0.06755
G1 X-6.75 Y-20.5 E0.06418
G1 X-6.75 Y-2.75 E1.47592
M566 X1800 Y1800
G0 F3600 X-7.25 Y-2.25
M566 X1200 Y1200
