;FLAVOR:RepRap
;TIME:3833
;Filament used: 12.1715m
;Layer height: 0.3
;MINX:-47.25
;MINY:-22.888
;MINZ:0.4
;MAXX:47.25
;MAXY:22.884
;MAXZ:40
;POSTPROCESSED
;Generated with Cura_SteamEngine 4.13.1
T0
M190 S80
M104 S235
M109 S235
M82 ;absolute extrusion mode
G28 ;Home
G1 Z15.0 F6000 ;Move the platform down 15mm
;Prime the extruder
G92 E0
G1 F200 E3
G92 E0
M83 ;relative extrusion mode
G1 F1500 E-6.5
;LAYER_COUNT:133
;LAYER:0
M107 P1
M204 T5000
M566 X1800 Y1800
G0 F3600 X14.197 Y-22.789 Z0.4
M204 P3000
M566 X1200 Y1200
;TYPE:SKIRT
G1 F1500 E6.5
G1 F3000 X14.923 Y-22.87 E0.06074
G1 X15.806 Y-22.888 E0.07344
G1 X16.686 Y-22.826 E0.07335
G1 X17.558 Y-22.685 E0.07345
G1 X18.413 Y-22.465 E0.07341
G1 X19.245 Y-22.169 E0.07343
G1 X20.046 Y-21.798 E0.0734
G1 X20.811 Y-21.357 E0.07342
G1 X21.533 Y-20.849 E0.07341
G1 X22.456 Y-20.035 E0.10233
G1 X44.377 Y1.885 E2.57768
G1 X44.973 Y2.537 E0.07345
G1 X45.507 Y3.24 E0.07341
G1 X45.975 Y3.988 E0.07337
G1 X46.373 Y4.776 E0.07341
G1 X46.699 Y5.597 E0.07345
G1 X46.949 Y6.444 E0.07343
G1 X47.122 Y7.31 E0.07343
G1 X47.215 Y8.188 E0.07341
G1 X47.235 Y8.419 E0.01928
G1 X47.25 Y8.961 E0.04508
G1 X47.25 Y12.961 E0.3326
G1 X47.21 Y13.843 E0.07341
G1 X47.09 Y14.718 E0.07344
G1 X46.892 Y15.578 E0.07338
G1 X46.617 Y16.417 E0.07342
G1 X46.267 Y17.228 E0.07345
G1 X45.845 Y18.003 E0.07338
G1 X45.354 Y18.738 E0.0735
G1 X44.8 Y19.425 E0.07338
G1 X44.185 Y20.058 E0.07339
G1 X43.516 Y20.634 E0.07341
G1 X42.797 Y21.147 E0.07344
G1 X42.034 Y21.592 E0.07345
G1 X41.235 Y21.967 E0.07339
G1 X40.405 Y22.268 E0.07341
G1 X39.551 Y22.493 E0.07343
G1 X38.68 Y22.639 E0.07343
G1 X37.5 Y22.711 E0.0983
G1 X34.237 Y22.711 E0.27132
G1 X33.831 Y22.754 E0.03395
G1 X32.948 Y22.768 E0.07343
G1 X32.199 Y22.711 E0.06246
G1 X-31.302 Y22.711 E5.28013
G1 X-31.694 Y22.787 E0.0332
G1 X-32.573 Y22.875 E0.07345
G1 X-33.456 Y22.884 E0.07343
G1 X-34.336 Y22.813 E0.07341
G1 X-34.924 Y22.711 E0.04962
G1 X-37.5 Y22.711 E0.2142
G1 X-38.382 Y22.671 E0.07341
G1 X-39.257 Y22.551 E0.07344
G1 X-40.117 Y22.353 E0.07338
G1 X-40.956 Y22.078 E0.07342
G1 X-41.767 Y21.728 E0.07345
G1 X-42.542 Y21.306 E0.07338
G1 X-43.277 Y20.815 E0.0735
G1 X-43.964 Y20.261 E0.07338
G1 X-44.597 Y19.646 E0.07339
G1 X-45.173 Y18.977 E0.07341
G1 X-45.686 Y18.258 E0.07344
G1 X-46.131 Y17.495 E0.07345
G1 X-46.506 Y16.696 E0.07339
G1 X-46.807 Y15.866 E0.07341
G1 X-47.032 Y15.012 E0.07343
G1 X-47.178 Y14.141 E0.07343
G1 X-47.25 Y12.961 E0.0983
G1 X-47.25 Y8.961 E0.3326
G1 X-47.21 Y8.079 E0.07341
G1 X-47.09 Y7.204 E0.07344
G1 X-46.892 Y6.344 E0.07338
G1 X-46.617 Y5.505 E0.07342
G1 X-46.267 Y4.694 E0.07345
G1 X-45.845 Y3.919 E0.07338
G1 X-45.354 Y3.184 E0.0735
G1 X-44.8 Y2.497 E0.07338
G1 X-44.394 Y2.067 E0.04917
G1 X-22.394 Y-19.933 E2.58703
G1 X-21.742 Y-20.529 E0.07345
G1 X-21.039 Y-21.063 E0.07341
G1 X-20.291 Y-21.531 E0.07337
G1 X-19.503 Y-21.929 E0.07341
G1 X-18.682 Y-22.255 E0.07345
G1 X-17.835 Y-22.505 E0.07343
G1 X-16.969 Y-22.678 E0.07343
G1 X-16.091 Y-22.771 E0.07341
G1 X-15.5 Y-22.789 E0.04916
G1 X14.197 Y-22.789 E2.46932
M566 X1800 Y1800
G0 F3600 X14.278 Y-22.301
M566 X1200 Y1200
G1 F3000 X15.134 Y-22.381 E0.07149
G1 X15.994 Y-22.381 E0.07151
G1 X16.85 Y-22.301 E0.07149
G1 X17.696 Y-22.142 E0.07158
G1 X18.522 Y-21.905 E0.07145
G1 X19.323 Y-21.592 E0.07151
G1 X20.092 Y-21.206 E0.07155
G1 X20.821 Y-20.75 E0.0715
G1 X21.505 Y-20.229 E0.07149
G1 X22.103 Y-19.682 E0.06739
G1 X44.024 Y2.238 E2.57768
G1 X44.603 Y2.874 E0.07152
G1 X45.12 Y3.561 E0.07149
G1 X45.572 Y4.292 E0.07146
G1 X45.954 Y5.063 E0.07155
G1 X46.262 Y5.866 E0.07151
G1 X46.495 Y6.694 E0.07152
G1 X46.65 Y7.54 E0.07152
G1 X46.725 Y8.396 E0.07145
G1 X46.75 Y8.961 E0.04703
G1 X46.75 Y12.961 E0.3326
G1 X46.71 Y13.82 E0.0715
G1 X46.59 Y14.672 E0.07154
G1 X46.392 Y15.509 E0.07152
G1 X46.117 Y16.323 E0.07144
G1 X45.768 Y17.109 E0.07151
G1 X45.347 Y17.859 E0.07152
G1 X44.858 Y18.567 E0.07155
G1 X44.306 Y19.226 E0.07148
G1 X43.694 Y19.831 E0.07156
G1 X43.029 Y20.376 E0.07149
G1 X42.317 Y20.858 E0.07149
G1 X41.563 Y21.271 E0.07148
G1 X40.773 Y21.612 E0.07155
G1 X39.956 Y21.879 E0.07147
G1 X39.117 Y22.069 E0.07153
G1 X38.264 Y22.179 E0.07151
G1 X37.5 Y22.211 E0.06358
G1 X34.228 Y22.211 E0.27207
G1 X33.622 Y22.264 E0.05058
G1 X32.762 Y22.26 E0.07151
G1 X32.269 Y22.211 E0.0412
G1 X-31.346 Y22.211 E5.28961
G1 X-31.922 Y22.313 E0.04864
G1 X-32.779 Y22.384 E0.0715
G1 X-33.639 Y22.375 E0.07151
G1 X-34.494 Y22.286 E0.07148
G1 X-34.871 Y22.211 E0.03196
G1 X-37.5 Y22.211 E0.2186
G1 X-38.359 Y22.171 E0.0715
G1 X-39.211 Y22.051 E0.07154
G1 X-40.048 Y21.853 E0.07152
G1 X-40.862 Y21.578 E0.07144
G1 X-41.648 Y21.229 E0.07151
G1 X-42.398 Y20.808 E0.07152
G1 X-43.106 Y20.319 E0.07155
G1 X-43.765 Y19.767 E0.07148
G1 X-44.37 Y19.155 E0.07156
G1 X-44.915 Y18.49 E0.07149
G1 X-45.397 Y17.778 E0.07149
G1 X-45.81 Y17.024 E0.07148
G1 X-46.151 Y16.234 E0.07155
G1 X-46.418 Y15.417 E0.07147
G1 X-46.608 Y14.578 E0.07153
G1 X-46.718 Y13.725 E0.07151
G1 X-46.75 Y12.961 E0.06358
G1 X-46.75 Y8.961 E0.3326
G1 X-46.71 Y8.102 E0.0715
G1 X-46.59 Y7.25 E0.07154
G1 X-46.392 Y6.413 E0.07152
G1 X-46.117 Y5.599 E0.07144
G1 X-45.768 Y4.813 E0.07151
G1 X-45.347 Y4.063 E0.07152
G1 X-44.858 Y3.355 E0.07155
G1 X-44.041 Y2.42 E0.10324
G1 X-22.041 Y-19.58 E2.58703
G1 X-21.405 Y-20.159 E0.07152
G1 X-20.718 Y-20.677 E0.07154
G1 X-19.986 Y-21.128 E0.07149
G1 X-19.216 Y-21.51 E0.07147
G1 X-18.413 Y-21.818 E0.07151
G1 X-17.585 Y-22.051 E0.07152
G1 X-16.739 Y-22.206 E0.07152
G1 X-15.5 Y-22.289 E0.10325
G1 X14.214 Y-22.289 E2.47073
G1 X14.278 Y-22.301 E0.00541
M566 X1800 Y1800
G0 F3600 X14.282 Y-21.789
M566 X1200 Y1200
G1 F3000 X14.506 Y-21.827 E0.01889
G1 X15.341 Y-21.888 E0.06962
G1 X16.177 Y-21.869 E0.06953
G1 X17.007 Y-21.771 E0.06949
G1 X17.825 Y-21.593 E0.06961
G1 X18.621 Y-21.339 E0.06948
G1 X19.39 Y-21.009 E0.06958
G1 X20.124 Y-20.608 E0.06955
G1 X20.816 Y-20.138 E0.06956
G1 X21.749 Y-19.328 E0.10274
G1 X43.67 Y2.592 E2.57768
G1 X44.233 Y3.211 E0.06958
G1 X44.733 Y3.881 E0.06951
G1 X45.168 Y4.595 E0.06952
G1 X45.532 Y5.348 E0.06954
G1 X45.823 Y6.132 E0.06954
G1 X46.038 Y6.941 E0.0696
G1 X46.174 Y7.766 E0.06952
G1 X46.196 Y7.992 E0.01888
G1 X46.25 Y8.961 E0.0807
G1 X46.25 Y12.961 E0.3326
G1 X46.21 Y13.796 E0.06951
G1 X46.09 Y14.624 E0.06957
G1 X45.892 Y15.437 E0.06958
G1 X45.618 Y16.227 E0.06953
G1 X45.269 Y16.987 E0.06954
G1 X44.849 Y17.71 E0.06953
G1 X44.362 Y18.39 E0.06955
G1 X43.812 Y19.021 E0.0696
G1 X43.205 Y19.596 E0.06952
G1 X42.545 Y20.11 E0.06956
G1 X41.839 Y20.559 E0.06957
G1 X41.094 Y20.939 E0.06954
G1 X40.316 Y21.246 E0.06955
G1 X39.512 Y21.477 E0.06956
G1 X38.69 Y21.63 E0.06952
G1 X37.5 Y21.711 E0.09918
G1 X34.265 Y21.711 E0.26899
G1 X33.418 Y21.77 E0.0706
G1 X32.582 Y21.747 E0.06954
G1 X32.289 Y21.711 E0.02455
G1 X-31.358 Y21.711 E5.29227
G1 X-32.146 Y21.837 E0.06635
G1 X-32.98 Y21.889 E0.06948
G1 X-33.816 Y21.861 E0.06955
G1 X-34.646 Y21.754 E0.06959
G1 X-34.834 Y21.711 E0.01604
G1 X-37.5 Y21.711 E0.22168
G1 X-38.335 Y21.671 E0.06951
G1 X-39.163 Y21.551 E0.06957
G1 X-39.976 Y21.353 E0.06958
G1 X-40.766 Y21.079 E0.06953
G1 X-41.526 Y20.73 E0.06954
G1 X-42.249 Y20.31 E0.06953
G1 X-42.929 Y19.823 E0.06955
G1 X-43.56 Y19.273 E0.0696
G1 X-44.135 Y18.666 E0.06952
G1 X-44.649 Y18.006 E0.06956
G1 X-45.098 Y17.3 E0.06957
G1 X-45.478 Y16.555 E0.06954
G1 X-45.785 Y15.777 E0.06955
G1 X-46.016 Y14.973 E0.06956
G1 X-46.169 Y14.151 E0.06952
G1 X-46.25 Y12.961 E0.09918
G1 X-46.25 Y8.961 E0.3326
G1 X-46.21 Y8.126 E0.06951
G1 X-46.09 Y7.298 E0.06957
G1 X-45.892 Y6.485 E0.06958
G1 X-45.618 Y5.695 E0.06953
G1 X-45.269 Y4.935 E0.06954
G1 X-44.849 Y4.212 E0.06953
G1 X-44.362 Y3.532 E0.06955
G1 X-43.687 Y2.774 E0.0844
G1 X-21.687 Y-19.226 E2.58703
G1 X-21.068 Y-19.789 E0.06958
G1 X-20.398 Y-20.289 E0.06951
G1 X-19.684 Y-20.724 E0.06952
G1 X-18.931 Y-21.088 E0.06954
G1 X-18.146 Y-21.379 E0.06961
G1 X-17.338 Y-21.594 E0.06952
G1 X-16.513 Y-21.73 E0.06952
G1 X-15.5 Y-21.789 E0.08437
G1 X14.282 Y-21.789 E2.47638
M566 X1800 Y1800
G0 F3600 X14.336 Y-21.289
M566 X1200 Y1200
G1 F3000 X14.731 Y-21.349 E0.03322
G1 X15.542 Y-21.391 E0.06753
G1 X16.353 Y-21.353 E0.06751
G1 X17.157 Y-21.235 E0.06757
G1 X17.945 Y-21.039 E0.06752
G1 X18.71 Y-20.767 E0.06751
G1 X19.444 Y-20.42 E0.06751
G1 X20.141 Y-20.003 E0.06754
G1 X20.794 Y-19.52 E0.06754
G1 X21.395 Y-18.975 E0.06746
G1 X43.316 Y2.945 E2.57768
G1 X43.862 Y3.547 E0.06758
G1 X44.345 Y4.2 E0.06754
G1 X44.762 Y4.897 E0.06754
G1 X45.109 Y5.631 E0.06751
G1 X45.381 Y6.396 E0.06751
G1 X45.577 Y7.184 E0.06752
G1 X45.695 Y7.988 E0.06757
G1 X45.716 Y8.211 E0.01862
G1 X45.75 Y8.961 E0.06243
G1 X45.75 Y12.961 E0.3326
G1 X45.71 Y13.772 E0.06752
G1 X45.59 Y14.575 E0.06751
G1 X45.393 Y15.363 E0.06754
G1 X45.118 Y16.128 E0.0676
G1 X44.77 Y16.861 E0.06747
G1 X44.351 Y17.557 E0.06755
G1 X43.866 Y18.208 E0.0675
G1 X43.319 Y18.809 E0.06757
G1 X42.716 Y19.353 E0.06753
G1 X42.062 Y19.835 E0.06755
G1 X41.364 Y20.25 E0.06752
G1 X40.629 Y20.595 E0.06751
G1 X39.863 Y20.865 E0.06753
G1 X39.075 Y21.059 E0.06748
G1 X38.271 Y21.175 E0.06755
G1 X37.5 Y21.211 E0.06418
G1 X34.188 Y21.211 E0.27539
G1 X34.031 Y21.234 E0.01319
G1 X33.22 Y21.272 E0.06751
G1 X32.409 Y21.23 E0.06753
G1 X32.284 Y21.211 E0.01051
G1 X-31.428 Y21.211 E5.29767
G1 X-31.56 Y21.243 E0.01129
G1 X-32.365 Y21.356 E0.06759
G1 X-33.176 Y21.39 E0.06749
G1 X-33.987 Y21.343 E0.06755
G1 X-34.789 Y21.217 E0.0675
G1 X-34.812 Y21.211 E0.00198
G1 X-37.5 Y21.211 E0.22351
G1 X-38.311 Y21.171 E0.06752
G1 X-39.114 Y21.051 E0.06751
G1 X-39.902 Y20.854 E0.06754
G1 X-40.667 Y20.579 E0.0676
G1 X-41.4 Y20.231 E0.06747
G1 X-42.096 Y19.812 E0.06755
G1 X-42.747 Y19.327 E0.0675
G1 X-43.348 Y18.78 E0.06757
G1 X-43.892 Y18.177 E0.06753
G1 X-44.374 Y17.523 E0.06755
G1 X-44.789 Y16.825 E0.06752
G1 X-45.134 Y16.09 E0.06751
G1 X-45.404 Y15.324 E0.06753
G1 X-45.598 Y14.536 E0.06748
G1 X-45.714 Y13.732 E0.06755
G1 X-45.75 Y12.961 E0.06418
G1 X-45.75 Y8.961 E0.3326
G1 X-45.71 Y8.15 E0.06752
G1 X-45.59 Y7.347 E0.06751
G1 X-45.393 Y6.559 E0.06754
G1 X-45.118 Y5.794 E0.0676
G1 X-44.77 Y5.061 E0.06747
G1 X-44.351 Y4.365 E0.06755
G1 X-43.866 Y3.714 E0.0675
G1 X-43.334 Y3.127 E0.06587
G1 X-21.334 Y-18.873 E2.58703
G1 X-20.732 Y-19.418 E0.06752
G1 X-20.079 Y-19.901 E0.06754
G1 X-19.382 Y-20.318 E0.06754
G1 X-18.648 Y-20.665 E0.06751
G1 X-17.883 Y-20.937 E0.06751
G1 X-17.095 Y-21.133 E0.06752
G1 X-16.291 Y-21.251 E0.06757
G1 X-15.5 Y-21.289 E0.06585
G1 X14.336 Y-21.289 E2.48087
M566 X1800 Y1800
G0 F3600 X14.354 Y-20.789
M566 X1200 Y1200
G1 F3000 X14.95 Y-20.867 E0.04998
G1 X15.737 Y-20.889 E0.06546
G1 X16.522 Y-20.831 E0.06545
G1 X17.297 Y-20.694 E0.06544
G1 X18.054 Y-20.479 E0.06543
G1 X18.786 Y-20.189 E0.06547
G1 X19.484 Y-19.825 E0.06546
G1 X20.142 Y-19.393 E0.06545
G1 X20.752 Y-18.896 E0.06543
G1 X21.042 Y-18.621 E0.03323
G1 X42.963 Y3.299 E2.57768
G1 X43.491 Y3.883 E0.06546
G1 X43.956 Y4.518 E0.06544
G1 X44.355 Y5.196 E0.06541
G1 X44.683 Y5.912 E0.06549
G1 X44.937 Y6.657 E0.06545
G1 X45.114 Y7.424 E0.06545
G1 X45.212 Y8.205 E0.06545
G1 X45.232 Y8.426 E0.01845
G1 X45.25 Y8.961 E0.04451
G1 X45.25 Y12.961 E0.3326
G1 X45.21 Y13.747 E0.06544
G1 X45.091 Y14.525 E0.06544
G1 X44.893 Y15.287 E0.06546
G1 X44.619 Y16.025 E0.06546
G1 X44.271 Y16.731 E0.06545
G1 X43.854 Y17.399 E0.06548
G1 X43.371 Y18.02 E0.06542
G1 X42.827 Y18.59 E0.06552
G1 X42.229 Y19.101 E0.06541
G1 X41.582 Y19.549 E0.06544
G1 X40.892 Y19.929 E0.0655
G1 X40.168 Y20.237 E0.06542
G1 X39.416 Y20.47 E0.06546
G1 X38.645 Y20.626 E0.06541
G1 X37.5 Y20.711 E0.09547
G1 X34.133 Y20.711 E0.27997
G1 X33.814 Y20.751 E0.02673
G1 X33.027 Y20.769 E0.06546
G1 X32.281 Y20.711 E0.06222
G1 X-31.498 Y20.711 E5.30325
G1 X-31.797 Y20.778 E0.02548
G1 X-32.579 Y20.872 E0.06549
G1 X-33.366 Y20.886 E0.06545
G1 X-34.15 Y20.82 E0.06542
G1 X-34.732 Y20.711 E0.04923
G1 X-37.5 Y20.711 E0.23016
G1 X-38.286 Y20.671 E0.06544
G1 X-39.064 Y20.552 E0.06544
G1 X-39.826 Y20.354 E0.06546
G1 X-40.564 Y20.08 E0.06546
G1 X-41.27 Y19.732 E0.06545
G1 X-41.938 Y19.315 E0.06548
G1 X-42.559 Y18.832 E0.06542
G1 X-43.129 Y18.288 E0.06552
G1 X-43.64 Y17.69 E0.06541
G1 X-44.088 Y17.043 E0.06544
G1 X-44.468 Y16.353 E0.0655
G1 X-44.776 Y15.629 E0.06542
G1 X-45.009 Y14.877 E0.06546
G1 X-45.165 Y14.106 E0.06541
G1 X-45.25 Y12.961 E0.09547
G1 X-45.25 Y8.961 E0.3326
G1 X-45.21 Y8.175 E0.06544
G1 X-45.091 Y7.397 E0.06544
G1 X-44.893 Y6.635 E0.06546
G1 X-44.619 Y5.897 E0.06546
G1 X-44.271 Y5.191 E0.06545
G1 X-43.854 Y4.523 E0.06548
G1 X-43.371 Y3.902 E0.06542
G1 X-42.98 Y3.481 E0.04778
G1 X-20.98 Y-18.519 E2.58703
G1 X-20.396 Y-19.047 E0.06546
G1 X-19.761 Y-19.512 E0.06544
G1 X-19.083 Y-19.911 E0.06541
G1 X-18.367 Y-20.239 E0.06549
G1 X-17.622 Y-20.493 E0.06545
G1 X-16.855 Y-20.67 E0.06545
G1 X-16.074 Y-20.768 E0.06545
G1 X-15.5 Y-20.789 E0.04776
G1 X14.354 Y-20.789 E2.48237
M566 X1800 Y1800
G0 F3600 X14.407 Y-20.298
M566 X1200 Y1200
G1 F3000 X15.164 Y-20.38 E0.06331
G1 X15.925 Y-20.382 E0.06328
G1 X16.683 Y-20.304 E0.06336
G1 X17.428 Y-20.147 E0.06331
G1 X18.152 Y-19.913 E0.06327
G1 X18.848 Y-19.604 E0.06332
G1 X19.507 Y-19.223 E0.06329
G1 X20.123 Y-18.776 E0.06329
G1 X20.688 Y-18.268 E0.06318
G1 X42.609 Y3.652 E2.57768
G1 X43.119 Y4.218 E0.06335
G1 X43.566 Y4.834 E0.06329
G1 X43.946 Y5.494 E0.06333
G1 X44.255 Y6.19 E0.06332
G1 X44.489 Y6.914 E0.06327
G1 X44.646 Y7.659 E0.06331
G1 X44.724 Y8.417 E0.06336
G1 X44.75 Y8.961 E0.04529
G1 X44.75 Y12.961 E0.3326
G1 X44.71 Y13.721 E0.06328
G1 X44.591 Y14.473 E0.06331
G1 X44.393 Y15.208 E0.06329
G1 X44.119 Y15.919 E0.06336
G1 X43.773 Y16.597 E0.06329
G1 X43.357 Y17.234 E0.06326
G1 X42.876 Y17.825 E0.06336
G1 X42.337 Y18.362 E0.06326
G1 X41.744 Y18.839 E0.06328
G1 X41.104 Y19.252 E0.06333
G1 X40.424 Y19.595 E0.06333
G1 X39.712 Y19.865 E0.06332
G1 X38.976 Y20.059 E0.06329
G1 X38.224 Y20.175 E0.06327
G1 X37.5 Y20.211 E0.06028
G1 X34.107 Y20.211 E0.28213
G1 X33.602 Y20.263 E0.04221
G1 X32.841 Y20.261 E0.06328
G1 X32.379 Y20.211 E0.03864
G1 X-31.552 Y20.211 E5.31588
G1 X-32.03 Y20.309 E0.04057
G1 X-32.788 Y20.383 E0.06333
G1 X-33.549 Y20.377 E0.06328
G1 X-34.306 Y20.291 E0.06335
G1 X-34.666 Y20.211 E0.03066
G1 X-37.5 Y20.211 E0.23565
G1 X-38.26 Y20.171 E0.06328
G1 X-39.012 Y20.052 E0.06331
G1 X-39.747 Y19.854 E0.06329
G1 X-40.458 Y19.58 E0.06336
G1 X-41.136 Y19.234 E0.06329
G1 X-41.773 Y18.818 E0.06326
G1 X-42.364 Y18.337 E0.06336
G1 X-42.901 Y17.798 E0.06326
G1 X-43.378 Y17.205 E0.06328
G1 X-43.791 Y16.565 E0.06333
G1 X-44.134 Y15.885 E0.06333
G1 X-44.404 Y15.173 E0.06332
G1 X-44.598 Y14.437 E0.06329
G1 X-44.714 Y13.685 E0.06327
G1 X-44.75 Y12.961 E0.06028
G1 X-44.75 Y8.961 E0.3326
G1 X-44.71 Y8.201 E0.06328
G1 X-44.591 Y7.449 E0.06331
G1 X-44.393 Y6.714 E0.06329
G1 X-44.119 Y6.003 E0.06336
G1 X-43.773 Y5.325 E0.06329
G1 X-43.357 Y4.688 E0.06326
G1 X-42.627 Y3.834 E0.09342
G1 X-20.627 Y-18.166 E2.58703
G1 X-20.061 Y-18.675 E0.06329
G1 X-19.445 Y-19.122 E0.06329
G1 X-18.785 Y-19.502 E0.06333
G1 X-18.089 Y-19.811 E0.06332
G1 X-17.365 Y-20.045 E0.06327
G1 X-16.62 Y-20.202 E0.06331
G1 X-15.5 Y-20.289 E0.09341
G1 X14.365 Y-20.289 E2.48328
G1 X14.407 Y-20.298 E0.00357
M566 X1800 Y1800
G0 F3600 X14.64 Y-19.828
M566 X1200 Y1200
G1 F3000 X15.372 Y-19.888 E0.06107
G1 X16.106 Y-19.869 E0.06105
G1 X16.834 Y-19.77 E0.06109
G1 X17.547 Y-19.593 E0.06109
G1 X18.236 Y-19.339 E0.06106
G1 X18.894 Y-19.011 E0.06113
G1 X19.512 Y-18.615 E0.06103
G1 X20.335 Y-17.914 E0.08989
G1 X42.256 Y4.006 E2.57768
G1 X42.746 Y4.553 E0.06106
G1 X43.174 Y5.15 E0.06108
G1 X43.535 Y5.79 E0.0611
G1 X43.824 Y6.465 E0.06105
G1 X44.038 Y7.168 E0.0611
G1 X44.174 Y7.89 E0.06109
G1 X44.218 Y8.461 E0.04762
G1 X44.25 Y8.961 E0.04166
G1 X44.25 Y12.961 E0.3326
G1 X44.21 Y13.694 E0.06104
G1 X44.091 Y14.419 E0.06109
G1 X43.893 Y15.127 E0.06113
G1 X43.62 Y15.809 E0.06108
G1 X43.274 Y16.457 E0.06108
G1 X42.86 Y17.064 E0.06109
G1 X42.383 Y17.622 E0.06104
G1 X41.847 Y18.125 E0.06112
G1 X41.26 Y18.567 E0.0611
G1 X40.629 Y18.942 E0.06103
G1 X39.961 Y19.247 E0.06106
G1 X39.263 Y19.477 E0.06111
G1 X38.544 Y19.63 E0.06112
G1 X37.5 Y19.711 E0.08707
G1 X34.14 Y19.711 E0.27939
G1 X33.397 Y19.77 E0.06198
G1 X32.663 Y19.747 E0.06106
