;FLAVOR:RepRap
;TIME:271
;Filament used: 0.406271m
;Layer height: 0.2
;MINX:-6.75
;MINY:-30.25
;MINZ:0.4
;MAXX:6.75
;MAXY:30.25
;MAXZ:5
;POSTPROCESSED
;Generated with Cura_SteamEngine 4.13.1
T0
M190 S60
M104 S215
M109 S215
M82 ;absolute extrusion mode
G28 ;Home
G1 Z15.0 F6000 ;Move the platform down 15mm
;Prime the extruder
G92 E0
G1 F200 E3
G92 E0
M83 ;relative extrusion mode
G1 F1500 E-6.5
;LAYER_COUNT:24
;LAYER:0
M107 P1
M204 T5000
M566 X1800 Y1800
G0 F3600 X6.75 Y5.814 Z0.4
M204 P3000
M566 X1200 Y1200
;TYPE:SKIRT
G1 F1500 E6.5
G1 F3000 X6.728 Y7.32 E0.12524
G1 X6.691 Y8.624 E0.10847
G1 X6.691 Y11.382 E0.22933
G1 X6.722 Y12.836 E0.12093
G1 X6.75 Y13.83 E0.08268
G1 X6.75 Y25.81 E0.99614
G1 X6.741 Y26.537 E0.06045
G1 X6.694 Y27.083 E0.04557
G1 X6.568 Y27.616 E0.04554
G1 X6.367 Y28.124 E0.04543
G1 X6.093 Y28.598 E0.04552
G1 X5.753 Y29.027 E0.04552
G1 X5.354 Y29.402 E0.04553
G1 X4.905 Y29.716 E0.04556
G1 X4.416 Y29.96 E0.04544
G1 X3.895 Y30.13 E0.04557
G1 X3.096 Y30.24 E0.06706
G1 X2.67 Y30.25 E0.03543
G1 X-2.341 Y30.25 E0.41667
G1 X-3.039 Y30.241 E0.05804
G1 X-3.585 Y30.194 E0.04557
G1 X-4.117 Y30.068 E0.04546
G1 X-4.626 Y29.866 E0.04553
G1 X-5.1 Y29.592 E0.04552
G1 X-5.529 Y29.252 E0.04552
G1 X-5.904 Y28.853 E0.04553
G1 X-6.217 Y28.404 E0.04551
G1 X-6.461 Y27.914 E0.04552
G1 X-6.631 Y27.394 E0.04549
G1 X-6.74 Y26.592 E0.0673
G1 X-6.75 Y26.158 E0.0361
G1 X-6.75 Y14.154 E0.99814
G1 X-6.728 Y12.68 E0.12258
G1 X-6.691 Y11.376 E0.10847
G1 X-6.691 Y8.618 E0.22933
G1 X-6.723 Y7.135 E0.12334
G1 X-6.75 Y6.17 E0.08027
G1 X-6.75 Y-5.846 E0.99913
G1 X-6.728 Y-7.32 E0.12258
G1 X-6.691 Y-8.624 E0.10847
G1 X-6.691 Y-11.382 E0.22933
G1 X-6.723 Y-12.865 E0.12334
G1 X-6.75 Y-13.83 E0.08027
G1 X-6.75 Y-25.877 E1.00171
G1 X-6.741 Y-26.542 E0.0553
G1 X-6.693 Y-27.087 E0.04549
G1 X-6.567 Y-27.62 E0.04554
G1 X-6.365 Y-28.128 E0.04546
G1 X-6.09 Y-28.602 E0.04557
G1 X-5.75 Y-29.031 E0.04552
G1 X-5.351 Y-29.405 E0.04547
G1 X-4.902 Y-29.718 E0.04551
G1 X-4.412 Y-29.962 E0.04552
G1 X-3.891 Y-30.131 E0.04554
G1 X-3.096 Y-30.24 E0.06672
G1 X-2.67 Y-30.25 E0.03543
G1 X2.347 Y-30.25 E0.41717
G1 X3.045 Y-30.24 E0.05804
G1 X3.59 Y-30.192 E0.04549
G1 X4.122 Y-30.065 E0.04548
G1 X4.631 Y-29.862 E0.04557
G1 X5.104 Y-29.588 E0.04545
G1 X5.533 Y-29.247 E0.04557
G1 X5.907 Y-28.848 E0.04547
G1 X6.219 Y-28.398 E0.04553
G1 X6.463 Y-27.908 E0.04552
G1 X6.632 Y-27.387 E0.04554
G1 X6.74 Y-26.595 E0.06646
G1 X6.75 Y-26.17 E0.03535
G1 X6.75 Y-14.186 E0.99647
G1 X6.728 Y-12.68 E0.12524
G1 X6.691 Y-11.376 E0.10847
G1 X6.691 Y-8.618 E0.22933
G1 X6.722 Y-7.164 E0.12093
G1 X6.75 Y-6.17 E0.08268
G1 X6.75 Y5.814 E0.99647
M566 X1800 Y1800
G0 F3600 X6.25 Y5.807
M566 X1200 Y1200
G1 F3000 X6.229 Y7.306 E0.12465
G1 X6.191 Y8.646 E0.11147
G1 X6.191 Y11.393 E0.22841
G1 X6.223 Y12.85 E0.12118
G1 X6.249 Y13.734 E0.07354
G1 X6.25 Y25.804 E1.00362
G1 X6.241 Y26.531 E0.06045
G1 X6.195 Y27.039 E0.04241
G1 X6.07 Y27.533 E0.04237
G1 X5.869 Y28.001 E0.04235
G1 X5.598 Y28.432 E0.04233
G1 X5.262 Y28.816 E0.04243
G1 X4.871 Y29.142 E0.04233
G1 X4.433 Y29.403 E0.0424
G1 X3.961 Y29.593 E0.04231
G1 X3.464 Y29.706 E0.04238
G1 X2.761 Y29.749 E0.05856
G1 X-2.335 Y29.75 E0.42373
G1 X-3.033 Y29.741 E0.05804
G1 X-3.54 Y29.694 E0.04234
G1 X-4.034 Y29.569 E0.04237
G1 X-4.502 Y29.368 E0.04235
G1 X-4.934 Y29.097 E0.0424
G1 X-5.317 Y28.761 E0.04236
G1 X-5.643 Y28.37 E0.04233
G1 X-5.904 Y27.932 E0.0424
G1 X-6.093 Y27.459 E0.04235
G1 X-6.207 Y26.962 E0.0424
G1 X-6.249 Y26.246 E0.05964
G1 X-6.25 Y14.161 E1.00487
G1 X-6.229 Y12.694 E0.12199
G1 X-6.191 Y11.347 E0.11205
G1 X-6.191 Y8.589 E0.22933
G1 X-6.223 Y7.15 E0.11968
G1 X-6.249 Y6.266 E0.07354
G1 X-6.25 Y-5.839 E1.00653
G1 X-6.229 Y-7.306 E0.12199
G1 X-6.191 Y-8.653 E0.11205
G1 X-6.191 Y-11.411 E0.22933
G1 X-6.223 Y-12.85 E0.11968
G1 X-6.249 Y-13.734 E0.07354
G1 X-6.25 Y-25.87 E1.00911
G1 X-6.241 Y-26.535 E0.0553
G1 X-6.194 Y-27.042 E0.04234
G1 X-6.068 Y-27.536 E0.04239
G1 X-5.867 Y-28.004 E0.04235
G1 X-5.595 Y-28.435 E0.04238
G1 X-5.259 Y-28.818 E0.04236
G1 X-4.868 Y-29.144 E0.04233
G1 X-4.43 Y-29.405 E0.0424
G1 X-3.957 Y-29.594 E0.04235
G1 X-3.46 Y-29.707 E0.04238
G1 X-2.761 Y-29.749 E0.05823
G1 X2.34 Y-29.75 E0.42415
G1 X3.038 Y-29.74 E0.05804
G1 X3.545 Y-29.692 E0.04235
G1 X4.039 Y-29.567 E0.04237
G1 X4.507 Y-29.365 E0.04238
G1 X4.937 Y-29.093 E0.04231
G1 X5.32 Y-28.757 E0.04236
G1 X5.646 Y-28.365 E0.04239
G1 X5.906 Y-27.927 E0.04235
G1 X6.095 Y-27.454 E0.04235
G1 X6.207 Y-26.957 E0.04236
G1 X6.249 Y-26.261 E0.05798
G1 X6.25 Y-14.193 E1.00346
G1 X6.229 Y-12.694 E0.12465
G1 X6.191 Y-11.354 E0.11147
G1 X6.191 Y-8.607 E0.22841
G1 X6.223 Y-7.15 E0.12118
G1 X6.249 Y-6.266 E0.07354
G1 X6.25 Y5.807 E1.00387
M566 X1800 Y1800
G1 F1500 E-6.5
;MESH:RoboCol25-Bd25Mnt.3mf
G0 F3600 X3.665 Y5.807
G0 X2.48 Y5.807
G0 X1.25 Y0.768
M566 X1200 Y1200
;TYPE:WALL-INNER
G1 F1500 E6.5
G1 F3000 X1.203 Y0.74 E0.00455
G1 X0.558 Y0.544 E0.05605
G1 X-0.01 Y0.491 E0.04743
G1 X-.794 Y0.592 E0.06573
G1 X-1.25 Y0.787 E0.04124
G1 X-1.25 Y-.236 E0.08506
G1 X-1.096 Y-.16 E0.01428
G1 X-.159 Y0.007 E0.07914
G1 X0.662 Y-0.052 E0.06844
G1 X1.25 Y-.249 E0.05156
G1 X1.25 Y0.768 E0.08456
M566 X1800 Y1800
G0 F3600 X0.998 Y1.2
M566 X1200 Y1200
G1 F3000 X0.461 Y1.037 E0.04666
G1 X-0.001 Y0.994 E0.03858
G1 X-.661 Y1.079 E0.05533
G1 X-1.303 Y1.353 E0.05804
G1 X-1.75 Y1.719 E0.04804
G1 X-1.75 Y-1.064 E0.23141
G1 X-1.688 Y-1.008 E0.00695
G1 X-.939 Y-.64 E0.06939
G1 X-.133 Y-.496 E0.06808
G1 X0.563 Y-.546 E0.05802
G1 X1.326 Y-.801 E0.06689
G1 X1.75 Y-1.074 E0.04193
G1 X1.75 Y1.733 E0.2334
G1 X1.575 Y1.547 E0.02124
G1 X0.998 Y1.2 E0.05599
M566 X1800 Y1800
G0 F3600 X0.793 Y1.66
M566 X1200 Y1200
G1 F3000 X0.364 Y1.53 E0.03727
G1 X0.008 Y1.497 E0.02973
G1 X-.528 Y1.566 E0.04494
G1 X-1.041 Y1.785 E0.04638
G1 X-1.469 Y2.136 E0.04603
G1 X-1.787 Y2.592 E0.04623
G1 X-1.966 Y3.116 E0.04604
G1 X-1.998 Y3.671 E0.04623
G1 X-1.875 Y4.209 E0.04589
G1 X-1.607 Y4.7 E0.04651
G1 X-1.207 Y5.103 E0.04721
G1 X-.633 Y5.405 E0.05393
G1 X-0.08 Y5.503 E0.0467
G1 X0.476 Y5.449 E0.04645
G1 X0.991 Y5.243 E0.04612
G1 X1.431 Y4.905 E0.04613
G1 X1.762 Y4.458 E0.04625
G1 X1.955 Y3.941 E0.04589
G1 X2.002 Y3.385 E0.0464
G1 X1.893 Y2.84 E0.04621
G1 X1.639 Y2.344 E0.04634
G1 X1.258 Y1.94 E0.04617
G1 X0.793 Y1.66 E0.04513
M566 X1800 Y1800
G0 F3600 X2.25 Y2.84
M566 X1200 Y1200
G1 F3000 X2.25 Y3.385 E0.02733
G1 X2.25 Y3.941 E0.0251
G1 X2.25 Y4.458 E0.03351
G1 X2.25 Y5.75 E0.10743
G1 X0.992 Y5.75 E0.1046
G1 X0.476 Y5.75 E0.03421
G1 X-0.08 Y5.75 E0.02532
G1 X-.633 Y5.75 E0.02715
G1 X-2.25 Y5.75 E0.13445
G1 X-2.25 Y4.209 E0.12813
G1 X-2.25 Y3.671 E0.02794
G1 X-2.25 Y3.116 E0.02474
G1 X-2.25 Y2.592 E0.03239
G1 X-2.25 Y-1.892 E0.37285
G1 X-2.25 Y-2.419 E0.04382
G1 X-1.921 Y-1.892 E0.02085
G1 X-1.405 Y-1.426 E0.05781
G1 X-.782 Y-1.12 E0.05771
G1 X-.106 Y-.999 E0.0571
G1 X0.464 Y-1.04 E0.04752
G1 X1.108 Y-1.255 E0.05645
G1 X1.587 Y-1.563 E0.04735
G1 X2.054 Y-2.066 E0.05707
G1 X2.25 Y-2.452 E0.036
G1 X2.25 Y2.84 E0.44003
M566 X1800 Y1800
G0 F3600 X2.25 Y-4.595
M566 X1200 Y1200
G1 F3000 X1.874 Y-5.163 E0.05664
G1 X1.347 Y-5.612 E0.05757
G1 X1.046 Y-5.75 E0.02753
G1 X2.25 Y-5.75 E0.10011
G1 X2.25 Y-5.163 E0.04881
G1 X2.25 Y-4.595 E0.0162
M566 X1800 Y1800
G0 F3600 X1.233 Y-5.432
G0 X0.614 Y-5.702
G0 X-.92 Y-5.593
G0 X-2.25 Y-4.546
M566 X1200 Y1200
G1 F3000 X-2.25 Y-5.75 E0.10011
G1 X-1.636 Y-5.75 E0.05105
G1 X-1.09 Y-5.75 E0.0454
G1 X-1.636 Y-5.397 E0.0232
G1 X-2.093 Y-4.877 E0.05756
G1 X-2.25 Y-4.546 E0.03046
M566 X1800 Y1800
G0 F3600 X-1.909 Y-4.097
M566 X1200 Y1200
;TYPE:WALL-OUTER
G1 F3000 X-1.999 Y-3.556 E0.0456
G1 X-1.961 Y-3.108 E0.03739
G1 X-1.827 Y-2.686 E0.03682
G1 X-1.534 Y-2.216 E0.04605
G1 X-1.122 Y-1.844 E0.04616
G1 X-.625 Y-1.6 E0.04604
G1 X-0.079 Y-1.502 E0.04613
G1 X0.365 Y-1.534 E0.03701
G1 X0.89 Y-1.709 E0.04602
G1 X1.263 Y-1.949 E0.03688
G1 X1.64 Y-2.355 E0.04607
G1 X1.891 Y-2.848 E0.046
G1 X1.997 Y-3.393 E0.04617
G1 X1.95 Y-3.946 E0.04615
G1 X1.803 Y-4.365 E0.03692
G1 X1.496 Y-4.828 E0.04619
G1 X1.076 Y-5.186 E0.04589
G1 X0.572 Y-5.417 E0.0461
G1 X0.022 Y-5.5 E0.04625
G1 X-.42 Y-5.455 E0.03694
G1 X-.84 Y-5.316 E0.03679
G1 X-1.306 Y-5.015 E0.04613
G1 X-1.671 Y-4.6 E0.04596
G1 X-1.909 Y-4.097 E0.04627
M566 X1800 Y1800
G0 F3600 X-1.95 Y-3.851
G0 X-2.047 Y-3.867
G0 X-2.43 Y-5.93
G0 X-2.75 Y-6.25
M566 X1200 Y1200
G1 F3000 X2.75 Y-6.25 E0.45733
G1 X2.75 Y6.25 E1.03938
G1 X-2.75 Y6.25 E0.45733
G1 X-2.75 Y-6.25 E1.03938
M566 X1800 Y1800
G0 F3600 X-2.5 Y-6.25
G0 X-2.43 Y-5.93
G0 X-2.105 Y-2.608
G0 X-.438 Y1.705
G0 X-.395 Y2.053
M566 X1200 Y1200
G1 F3000 X-.779 Y2.217 E0.03472
G1 X-1.099 Y2.479 E0.03439
G1 X-1.337 Y2.82 E0.03458
G1 X-1.471 Y3.213 E0.03453
G1 X-1.495 Y3.629 E0.03465
G1 X-1.403 Y4.03 E0.03421
G1 X-1.202 Y4.398 E0.03487
G1 X-.906 Y4.696 E0.03493
G1 X-.469 Y4.926 E0.04106
G1 X-0.06 Y4.999 E0.03455
G1 X0.356 Y4.958 E0.03476
G1 X0.741 Y4.804 E0.03448
G1 X1.071 Y4.551 E0.03458
G1 X1.318 Y4.217 E0.03454
G1 X1.463 Y3.83 E0.03436
G1 X1.498 Y3.414 E0.03471
G1 X1.416 Y3.006 E0.0346
G1 X1.226 Y2.635 E0.03466
G1 X0.941 Y2.333 E0.03453
G1 X0.588 Y2.12 E0.03428
G1 X0.268 Y2.023 E0.0278
G1 X0.017 Y2 E0.02096
G1 X-.395 Y2.053 E0.03454
M566 X1800 Y1800
G0 F3600 X-.625 Y2.151
G0 X-.919 Y1.462
G1 F1500 E-6.5
;MESH:RoboCol25-Bd25Mnt.3mf(1)
G0 F3600 X-2.105 Y-2.608
G0 X-2.194 Y-4.14
G0 X-1.25 Y-5.98
G0 X-1.25 Y-7.165
G0 X-1.25 Y-12.835
G0 X-1.25 Y-14.02
G0 X-1.786 Y-16.346
G0 X-1.25 Y-19.213
M566 X1200 Y1200
;TYPE:WALL-INNER
G1 F1500 E6.5
G1 F3000 X-1.25 Y-20.236 E0.08506
G1 X-1.096 Y-20.16 E0.01428
G1 X-.159 Y-19.993 E0.07914
G1 X0.662 Y-20.052 E0.06844
G1 X1.25 Y-20.249 E0.05156
G1 X1.25 Y-19.232 E0.08456
G1 X1.203 Y-19.26 E0.00455
G1 X0.558 Y-19.456 E0.05605
G1 X-0.01 Y-19.509 E0.04743
G1 X-.794 Y-19.408 E0.06573
G1 X-1.25 Y-19.213 E0.04124
M566 X1800 Y1800
G0 F3600 X-1.303 Y-18.647
M566 X1200 Y1200
G1 F3000 X-1.75 Y-18.281 E0.04804
G1 X-1.75 Y-21.064 E0.23141
G1 X-1.688 Y-21.008 E0.00695
G1 X-.939 Y-20.64 E0.06939
G1 X-.133 Y-20.496 E0.06808
G1 X0.563 Y-20.546 E0.05802
G1 X1.326 Y-20.801 E0.06689
G1 X1.75 Y-21.074 E0.04193
G1 X1.75 Y-18.267 E0.2334
G1 X1.575 Y-18.453 E0.02124
G1 X0.998 Y-18.8 E0.05599
G1 X0.461 Y-18.963 E0.04666
G1 X-0.001 Y-19.006 E0.03858
G1 X-.661 Y-18.921 E0.05533
G1 X-1.303 Y-18.647 E0.05804
M566 X1800 Y1800
G0 F3600 X-1.041 Y-18.215
M566 X1200 Y1200
G1 F3000 X-1.469 Y-17.864 E0.04603
G1 X-1.787 Y-17.408 E0.04623
G1 X-1.966 Y-16.884 E0.04604
G1 X-1.998 Y-16.329 E0.04623
G1 X-1.875 Y-15.791 E0.04589
G1 X-1.607 Y-15.3 E0.04651
G1 X-1.207 Y-14.897 E0.04721
G1 X-.633 Y-14.595 E0.05393
G1 X-0.08 Y-14.497 E0.0467
G1 X0.476 Y-14.551 E0.04645
G1 X0.991 Y-14.757 E0.04612
G1 X1.431 Y-15.095 E0.04613
G1 X1.762 Y-15.542 E0.04625
G1 X1.955 Y-16.059 E0.04589
G1 X2.002 Y-16.615 E0.0464
G1 X1.893 Y-17.16 E0.04621
G1 X1.639 Y-17.656 E0.04634
G1 X1.258 Y-18.06 E0.04617
G1 X0.793 Y-18.34 E0.04513
G1 X0.364 Y-18.47 E0.03727
G1 X0.008 Y-18.503 E0.02973
G1 X-.528 Y-18.434 E0.04494
G1 X-1.041 Y-18.215 E0.04638
M566 X1800 Y1800
G0 F3600 X-2.25 Y-17.408
M566 X1200 Y1200
G1 F3000 X-2.25 Y-21.892 E0.37285
G1 X-2.25 Y-22.419 E0.04382
G1 X-1.921 Y-21.892 E0.02085
G1 X-1.405 Y-21.426 E0.05781
G1 X-.782 Y-21.12 E0.05771
G1 X-.106 Y-20.999 E0.0571
G1 X0.464 Y-21.04 E0.04752
G1 X1.108 Y-21.255 E0.05645
G1 X1.587 Y-21.563 E0.04735
G1 X2.054 Y-22.066 E0.05707
G1 X2.25 Y-22.452 E0.036
G1 X2.25 Y-17.16 E0.44003
G1 X2.25 Y-16.615 E0.02733
G1 X2.25 Y-16.059 E0.0251
G1 X2.25 Y-15.542 E0.03351
G1 X2.25 Y-14.25 E0.10743
G1 X0.992 Y-14.25 E0.1046
G1 X0.476 Y-14.25 E0.03421
G1 X-0.08 Y-14.25 E0.02532
G1 X-.633 Y-14.25 E0.02715
G1 X-2.25 Y-14.25 E0.13445
G1 X-2.25 Y-15.791 E0.12813
G1 X-2.25 Y-16.329 E0.02794
G1 X-2.25 Y-16.884 E0.02474
G1 X-2.25 Y-17.408 E0.03239
M566 X1800 Y1800
G0 F3600 X-2.25 Y-24.546
M566 X1200 Y1200
G1 F3000 X-2.25 Y-25.75 E0.10011
G1 X-1.636 Y-25.75 E0.05105
G1 X-1.09 Y-25.75 E0.0454
G1 X-1.636 Y-25.397 E0.0232
G1 X-2.093 Y-24.877 E0.05756
G1 X-2.25 Y-24.546 E0.03046
M566 X1800 Y1800
G0 F3600 X-1.496 Y-25.237
G0 X-.92 Y-25.593
G0 X0.614 Y-25.702
G0 X2.25 Y-24.595
M566 X1200 Y1200
G1 F3000 X1.874 Y-25.163 E0.05664
G1 X1.347 Y-25.612 E0.05757
G1 X1.046 Y-25.75 E0.02753
G1 X2.25 Y-25.75 E0.10011
G1 X2.25 Y-25.163 E0.04881
G1 X2.25 Y-24.595 E0.0162
M566 X1800 Y1800
G0 F3600 X1.803 Y-24.365
M566 X1200 Y1200
;TYPE:WALL-OUTER
G1 F3000 X1.496 Y-24.828 E0.04619
G1 X1.076 Y-25.186 E0.04589
G1 X0.572 Y-25.417 E0.0461
G1 X0.022 Y-25.5 E0.04625
G1 X-.42 Y-25.455 E0.03694
G1 X-.84 Y-25.316 E0.03679
G1 X-1.306 Y-25.015 E0.04613
G1 X-1.671 Y-24.6 E0.04596
G1 X-1.909 Y-24.097 E0.04627
G1 X-1.999 Y-23.556 E0.0456
G1 X-1.961 Y-23.108 E0.03739
G1 X-1.827 Y-22.686 E0.03682
G1 X-1.534 Y-22.216 E0.04605
G1 X-1.122 Y-21.844 E0.04616
G1 X-.625 Y-21.6 E0.04604
G1 X-0.079 Y-21.502 E0.04613
G1 X0.365 Y-21.534 E0.03701
G1 X0.89 Y-21.709 E0.04602
G1 X1.263 Y-21.949 E0.03688
G1 X1.64 Y-22.355 E0.04607
G1 X1.891 Y-22.848 E0.046
G1 X1.997 Y-23.393 E0.04617
G1 X1.95 Y-23.946 E0.04615
G1 X1.803 Y-24.365 E0.03692
M566 X1800 Y1800
G0 F3600 X1.665 Y-24.573
G0 X1.956 Y-24.765
G0 X2.43 Y-25.93
G0 X2.75 Y-26.25
M566 X1200 Y1200
G1 F3000 X2.75 Y-13.75 E1.03938
G1 X-2.75 Y-13.75 E0.45733
G1 X-2.75 Y-26.25 E1.03938
G1 X2.75 Y-26.25 E0.45733
M566 X1800 Y1800
G0 F3600 X2.75 Y-26
G0 X2.43 Y-25.93
G0 X2.176 Y-22.799
G0 X0.371 Y-18.31
G0 X0.268 Y-17.977
M566 X1200 Y1200
G1 F3000 X0.017 Y-18 E0.02096
G1 X-.395 Y-17.947 E0.03454
G1 X-.779 Y-17.783 E0.03472
G1 X-1.099 Y-17.521 E0.03439
G1 X-1.337 Y-17.18 E0.03458
G1 X-1.471 Y-16.787 E0.03453
G1 X-1.495 Y-16.371 E0.03465
G1 X-1.403 Y-15.97 E0.03421
G1 X-1.202 Y-15.602 E0.03487
G1 X-.906 Y-15.304 E0.03493
G1 X-.469 Y-15.074 E0.04106
G1 X-0.06 Y-15.001 E0.03455
G1 X0.356 Y-15.042 E0.03476
G1 X0.741 Y-15.196 E0.03448
G1 X1.071 Y-15.449 E0.03458
G1 X1.318 Y-15.783 E0.03454
G1 X1.463 Y-16.17 E0.03436
G1 X1.498 Y-16.586 E0.03471
G1 X1.416 Y-16.994 E0.0346
G1 X1.226 Y-17.365 E0.03466
G1 X0.941 Y-17.667 E0.03453
G1 X0.588 Y-17.88 E0.03428
G1 X0.268 Y-17.977 E0.0278
M566 X1800 Y1800
G0 F3600 X0.019 Y-17.999
G0 X0.086 Y-18.746
G1 F1500 E-6.5
;MESH:RoboCol25-Bd25Mnt.3mf(2)
G0 F3600 X1.123 Y-17.896
G0 X1.692 Y-17.089
G0 X1.767 Y-16.322
G0 X1.25 Y-14.02
G0 X1.25 Y-12.835
G0 X3.653 Y-7.153
G0 X3.653 Y7.153
G0 X1.25 Y12.835
G0 X1.25 Y14.02
G0 X2.075 Y15.548
G0 X2.176 Y17.201
G0 X1.25 Y19.751
M566 X1200 Y1200
;TYPE:WALL-INNER
G1 F1500 E6.5
G1 F3000 X1.25 Y20.768 E0.08456
G1 X1.203 Y20.74 E0.00455
G1 X0.558 Y20.544 E0.05605
G1 X-0.01 Y20.491 E0.04743
G1 X-.794 Y20.592 E0.06573
G1 X-1.25 Y20.787 E0.04124
G1 X-1.25 Y19.764 E0.08506
G1 X-1.096 Y19.84 E0.01428
G1 X-.159 Y20.007 E0.07914
G1 X0.662 Y19.948 E0.06844
G1 X1.25 Y19.751 E0.05156
M566 X1800 Y1800
G0 F3600 X1.326 Y19.199
M566 X1200 Y1200
G1 F3000 X1.75 Y18.926 E0.04193
G1 X1.75 Y21.733 E0.2334
G1 X1.575 Y21.547 E0.02124
G1 X0.998 Y21.2 E0.05599
G1 X0.461 Y21.037 E0.04666
G1 X-0.001 Y20.994 E0.03858
G1 X-.661 Y21.079 E0.05533
G1 X-1.303 Y21.353 E0.05804
G1 X-1.75 Y21.719 E0.04804
G1 X-1.75 Y18.936 E0.23141
G1 X-1.688 Y18.992 E0.00695
G1 X-.939 Y19.36 E0.06939
G1 X-.133 Y19.504 E0.06808
G1 X0.563 Y19.454 E0.05802
G1 X1.326 Y19.199 E0.06689
M566 X1800 Y1800
G0 F3600 X1.108 Y18.745
M566 X1200 Y1200
G1 F3000 X1.587 Y18.437 E0.04735
G1 X2.054 Y17.934 E0.05707
G1 X2.25 Y17.548 E0.036
G1 X2.25 Y22.84 E0.44003
G1 X2.25 Y23.385 E0.04532
G1 X2.25 Y23.941 E0.04623
G1 X2.25 Y24.458 E0.04299
G1 X2.25 Y25.75 E0.10743
G1 X0.992 Y25.75 E0.1046
G1 X0.476 Y25.75 E0.04291
G1 X-0.08 Y25.75 E0.04623
G1 X-.633 Y25.75 E0.04598
G1 X-2.25 Y25.75 E0.13445
G1 X-2.25 Y24.209 E0.12813
G1 X-2.25 Y23.671 E0.04473
G1 X-2.25 Y23.116 E0.04615
G1 X-2.25 Y22.592 E0.04357
G1 X-2.25 Y18.108 E0.37285
G1 X-2.25 Y17.581 E0.04382
G1 X-1.921 Y18.108 E0.02085
G1 X-1.405 Y18.574 E0.05781
G1 X-.782 Y18.88 E0.05771
G1 X-.106 Y19.001 E0.0571
G1 X0.464 Y18.96 E0.04752
G1 X1.108 Y18.745 E0.05645
M566 X1800 Y1800
G0 F3600 X0.793 Y21.66
M566 X1200 Y1200
G1 F3000 X0.364 Y21.53 E0.03727
G1 X0.008 Y21.497 E0.02973
G1 X-.528 Y21.566 E0.04494
G1 X-1.041 Y21.785 E0.04638
G1 X-1.469 Y22.136 E0.04603
G1 X-1.787 Y22.592 E0.04623
