;FLAVOR:RepRap
;TIME:256
;Filament used: 0.714053m
;Layer height: 0.3
;MINX:-14.25
;MINY:-14.25
;MINZ:0.4
;MAXX:14.25
;MAXY:14.25
;MAXZ:7
;POSTPROCESSED
;Generated with Cura_SteamEngine 4.13.1
T0
M190 S60
M104 S215
M109 S215
M82 ;absolute extrusion mode
G28 ;Home
G1 Z15.0 F6000 ;Move the platform down 15mm
;Prime the extruder
G92 E0
G1 F200 E3
G92 E0
M83 ;relative extrusion mode
G1 F1500 E-6.5
;LAYER_COUNT:23
;LAYER:0
M107 P1
M204 T5000
M566 X1800 Y1800
G0 F3600 X-14.25 Y6.352 Z0.4
M204 P3000
M566 X1200 Y1200
;TYPE:SKIRT
G1 F1500 E6.5
G1 F3000 X-14.25 Y-6.47 E1.06615
G1 X-14.242 Y-7.071 E0.04998
G1 X-14.208 Y-7.655 E0.04864
G1 X-14.092 Y-8.445 E0.06639
G1 X-13.937 Y-9.071 E0.05362
G1 X-13.753 Y-9.609 E0.04728
G1 X-13.445 Y-10.295 E0.06253
G1 X-13.029 Y-11.005 E0.06842
G1 X-12.55 Y-11.646 E0.06654
G1 X-12.075 Y-12.161 E0.05826
G1 X-11.603 Y-12.586 E0.05281
G1 X-11.099 Y-12.968 E0.05258
G1 X-10.625 Y-13.267 E0.0466
G1 X-10.099 Y-13.541 E0.04932
G1 X-9.9 Y-13.625 E0.01796
G1 X-9.407 Y-13.82 E0.04408
G1 X-8.891 Y-13.987 E0.0451
G1 X-8.265 Y-14.125 E0.0533
G1 X-7.444 Y-14.225 E0.06877
G1 X-6.957 Y-14.243 E0.04052
G1 X-6.425 Y-14.25 E0.04424
G1 X6.412 Y-14.25 E1.0674
G1 X7.08 Y-14.242 E0.05555
G1 X7.626 Y-14.211 E0.04547
G1 X8.402 Y-14.1 E0.06518
G1 X9.098 Y-13.928 E0.05961
G1 X9.628 Y-13.744 E0.04665
G1 X10.304 Y-13.44 E0.06163
G1 X10.98 Y-13.046 E0.06506
G1 X11.529 Y-12.646 E0.05648
G1 X12.016 Y-12.217 E0.05397
G1 X12.46 Y-11.752 E0.05346
G1 X12.876 Y-11.226 E0.05576
G1 X13.195 Y-10.745 E0.04799
G1 X13.578 Y-10.023 E0.06796
G1 X13.819 Y-9.434 E0.05292
G1 X13.972 Y-8.946 E0.04252
G1 X14.129 Y-8.252 E0.05916
G1 X14.221 Y-7.491 E0.06374
G1 X14.24 Y-7.152 E0.02823
G1 X14.25 Y-6.416 E0.0612
G1 X14.25 Y6.41 E1.06649
G1 X14.242 Y7.066 E0.05455
G1 X14.208 Y7.655 E0.04906
G1 X14.094 Y8.437 E0.06571
G1 X13.936 Y9.073 E0.05449
G1 X13.727 Y9.675 E0.05299
G1 X13.504 Y10.18 E0.0459
G1 X13.22 Y10.703 E0.04949
G1 X12.772 Y11.368 E0.06667
G1 X12.301 Y11.929 E0.06091
G1 X11.853 Y12.371 E0.05233
G1 X11.381 Y12.761 E0.05091
G1 X10.77 Y13.179 E0.06156
G1 X10.129 Y13.527 E0.06065
G1 X9.897 Y13.627 E0.02101
G1 X9.406 Y13.821 E0.0439
G1 X8.891 Y13.987 E0.04499
G1 X8.265 Y14.125 E0.0533
G1 X7.444 Y14.225 E0.06877
G1 X6.957 Y14.243 E0.04052
G1 X6.425 Y14.25 E0.04424
G1 X-6.412 Y14.25 E1.0674
G1 X-7.08 Y14.242 E0.05555
G1 X-7.626 Y14.211 E0.04547
G1 X-8.402 Y14.1 E0.06518
G1 X-9.188 Y13.9 E0.06744
G1 X-9.882 Y13.64 E0.06162
G1 X-10.372 Y13.407 E0.04512
G1 X-10.862 Y13.124 E0.04705
G1 X-11.389 Y12.755 E0.05349
G1 X-11.851 Y12.373 E0.04985
G1 X-12.292 Y11.94 E0.05139
G1 X-12.727 Y11.427 E0.05593
G1 X-13.077 Y10.935 E0.05021
G1 X-13.37 Y10.44 E0.04783
G1 X-13.682 Y9.784 E0.0604
G1 X-13.894 Y9.208 E0.05104
G1 X-14.088 Y8.465 E0.06385
G1 X-14.174 Y7.972 E0.04161
G1 X-14.223 Y7.468 E0.04211
G1 X-14.239 Y7.162 E0.02548
G1 X-14.25 Y6.352 E0.06736
M566 X1800 Y1800
G0 F3600 X-13.75 Y6.345
M566 X1200 Y1200
G1 F3000 X-13.75 Y-6.463 E1.06499
G1 X-13.742 Y-7.064 E0.04998
G1 X-13.709 Y-7.62 E0.04631
G1 X-13.6 Y-8.357 E0.06195
G1 X-13.456 Y-8.935 E0.04953
G1 X-13.284 Y-9.436 E0.04404
G1 X-12.994 Y-10.078 E0.05858
G1 X-12.62 Y-10.717 E0.06156
G1 X-12.172 Y-11.319 E0.0624
G1 X-11.732 Y-11.796 E0.05396
G1 X-11.29 Y-12.196 E0.04957
G1 X-10.823 Y-12.55 E0.04873
G1 X-10.38 Y-12.831 E0.04362
G1 X-9.896 Y-13.084 E0.04541
G1 X-9.716 Y-13.16 E0.01625
G1 X-9.223 Y-13.355 E0.04408
G1 X-8.65 Y-13.532 E0.04987
G1 X-7.889 Y-13.68 E0.06446
G1 X-7.052 Y-13.74 E0.06978
G1 X-6.418 Y-13.75 E0.05272
G1 X6.406 Y-13.75 E1.06632
G1 X7.074 Y-13.742 E0.05555
G1 X7.591 Y-13.712 E0.04306
G1 X8.318 Y-13.607 E0.06108
G1 X8.96 Y-13.447 E0.05502
G1 X9.456 Y-13.275 E0.04365
G1 X10.086 Y-12.99 E0.0575
G1 X10.715 Y-12.622 E0.0606
G1 X11.222 Y-12.252 E0.05219
G1 X11.677 Y-11.849 E0.05054
G1 X12.089 Y-11.417 E0.04964
G1 X12.475 Y-10.927 E0.05187
G1 X12.772 Y-10.478 E0.04476
G1 X13.12 Y-9.823 E0.06167
G1 X13.345 Y-9.273 E0.04941
G1 X13.539 Y-8.624 E0.05632
G1 X13.692 Y-7.785 E0.07091
G1 X13.74 Y-7.145 E0.05337
G1 X13.75 Y-6.409 E0.0612
G1 X13.75 Y6.404 E1.06541
G1 X13.742 Y7.06 E0.05455
G1 X13.709 Y7.62 E0.04664
G1 X13.601 Y8.35 E0.06136
G1 X13.455 Y8.936 E0.05022
G1 X13.266 Y9.483 E0.04812
G1 X13.058 Y9.953 E0.04274
G1 X12.795 Y10.438 E0.04588
G1 X12.381 Y11.056 E0.06185
G1 X11.94 Y11.583 E0.05714
G1 X11.525 Y11.993 E0.04851
G1 X11.086 Y12.357 E0.04742
G1 X10.519 Y12.747 E0.05722
G1 X9.923 Y13.072 E0.05645
G1 X9.713 Y13.162 E0.019
G1 X9.222 Y13.356 E0.0439
G1 X8.65 Y13.532 E0.04976
G1 X7.889 Y13.68 E0.06446
G1 X7.052 Y13.74 E0.06978
G1 X6.418 Y13.75 E0.05272
G1 X-6.406 Y13.75 E1.06632
G1 X-7.074 Y13.742 E0.05555
G1 X-7.591 Y13.712 E0.04306
G1 X-8.318 Y13.607 E0.06108
G1 X-9.048 Y13.42 E0.06266
G1 X-9.692 Y13.178 E0.0572
G1 X-10.146 Y12.961 E0.04184
G1 X-10.601 Y12.697 E0.04374
G1 X-11.093 Y12.352 E0.04997
G1 X-11.523 Y11.995 E0.04647
G1 X-11.932 Y11.593 E0.04769
G1 X-12.337 Y11.114 E0.05216
G1 X-12.661 Y10.657 E0.04658
G1 X-12.935 Y10.194 E0.04473
G1 X-13.225 Y9.583 E0.05624
G1 X-13.42 Y9.05 E0.04719
G1 X-13.597 Y8.371 E0.05835
G1 X-13.701 Y7.704 E0.05613
G1 X-13.739 Y7.155 E0.04576
G1 X-13.75 Y6.345 E0.06736
M566 X1800 Y1800
G0 F3600 X-13.25 Y6.338
M566 X1200 Y1200
G1 F3000 X-13.25 Y-6.456 E1.06383
G1 X-13.242 Y-7.057 E0.04998
G1 X-13.21 Y-7.586 E0.04407
G1 X-13.108 Y-8.27 E0.0575
G1 X-12.975 Y-8.799 E0.04536
G1 X-12.691 Y-9.556 E0.06723
G1 X-12.433 Y-10.071 E0.0479
G1 X-11.996 Y-10.734 E0.06603
G1 X-11.618 Y-11.195 E0.04957
G1 X-11.171 Y-11.638 E0.05233
G1 X-10.548 Y-12.133 E0.06616
G1 X-9.961 Y-12.493 E0.05726
G1 X-9.532 Y-12.695 E0.03943
G1 X-9.039 Y-12.89 E0.04408
G1 X-8.527 Y-13.048 E0.04455
G1 X-7.827 Y-13.184 E0.05929
G1 X-7.032 Y-13.24 E0.06627
G1 X-6.944 Y-13.243 E0.00732
G1 X-6.412 Y-13.25 E0.04424
G1 X6.4 Y-13.25 E1.06532
G1 X7.068 Y-13.242 E0.05555
G1 X7.875 Y-13.175 E0.06733
G1 X8.592 Y-13.033 E0.06078
G1 X9.283 Y-12.806 E0.06048
G1 X9.868 Y-12.54 E0.05344
G1 X10.449 Y-12.198 E0.05606
G1 X10.914 Y-11.858 E0.0479
G1 X11.339 Y-11.481 E0.04724
G1 X11.717 Y-11.083 E0.04564
G1 X12.075 Y-10.627 E0.04821
G1 X12.465 Y-10.012 E0.06055
G1 X12.772 Y-9.371 E0.0591
G1 X13.004 Y-8.694 E0.05951
G1 X13.147 Y-8.06 E0.05404
G1 X13.226 Y-7.398 E0.05544
G1 X13.24 Y-7.138 E0.02165
G1 X13.25 Y-6.402 E0.0612
G1 X13.25 Y6.398 E1.06432
G1 X13.242 Y7.054 E0.05455
G1 X13.21 Y7.586 E0.04432
G1 X13.109 Y8.263 E0.05692
G1 X12.974 Y8.8 E0.04604
G1 X12.804 Y9.29 E0.04313
G1 X12.512 Y9.924 E0.05804
G1 X12.205 Y10.44 E0.04993
G1 X11.778 Y11.011 E0.05929
G1 X11.409 Y11.415 E0.0455
G1 X11.006 Y11.782 E0.04532
G1 X10.546 Y12.132 E0.04806
G1 X10.015 Y12.462 E0.05198
G1 X9.529 Y12.697 E0.04489
G1 X9.038 Y12.891 E0.0439
G1 X8.527 Y13.048 E0.04445
G1 X7.827 Y13.184 E0.05929
G1 X7.032 Y13.24 E0.06627
G1 X6.944 Y13.243 E0.00732
G1 X6.412 Y13.25 E0.04424
G1 X-6.4 Y13.25 E1.06532
G1 X-7.068 Y13.242 E0.05555
G1 X-7.875 Y13.175 E0.06733
G1 X-8.607 Y13.029 E0.06206
G1 X-9.227 Y12.828 E0.05419
G1 X-9.733 Y12.61 E0.04581
G1 X-10.339 Y12.271 E0.05774
G1 X-10.797 Y11.949 E0.04655
G1 X-11.195 Y11.618 E0.04304
G1 X-11.572 Y11.245 E0.0441
G1 X-11.948 Y10.8 E0.04844
G1 X-12.246 Y10.378 E0.04296
G1 X-12.645 Y9.658 E0.06845
G1 X-12.876 Y9.099 E0.05029
G1 X-13.057 Y8.491 E0.05275
G1 X-13.177 Y7.884 E0.05145
G1 X-13.227 Y7.383 E0.04187
G1 X-13.239 Y7.148 E0.01957
G1 X-13.25 Y6.338 E0.06736
M566 X1800 Y1800
G1 F1500 E-6.5
;MESH:RoboCol25-GpsMnt.3mf
G0 F3600 X-10.665 Y6.338
G0 X-9.23 Y6.338
G0 X-8.25 Y6.943
M566 X1200 Y1200
;TYPE:WALL-INNER
G1 F1500 E6.5
G1 F3000 X-8.25 Y-6.919 E1.15263
G1 X-8.213 Y-7.265 E0.02893
G1 X-8.128 Y-7.517 E0.02211
G1 X-7.984 Y-7.756 E0.0232
G1 X-7.808 Y-7.941 E0.02123
G1 X-7.572 Y-8.102 E0.02375
G1 X-7.337 Y-8.194 E0.02098
G1 X-6.936 Y-8.25 E0.03367
G1 X6.912 Y-8.25 E1.15147
G1 X7.269 Y-8.211 E0.02986
G1 X7.521 Y-8.126 E0.02211
G1 X7.752 Y-7.987 E0.02242
G1 X7.948 Y-7.801 E0.02247
G1 X8.099 Y-7.578 E0.02239
G1 X8.194 Y-7.341 E0.02123
G1 X8.25 Y-6.961 E0.03194
G1 X8.25 Y6.917 E1.15396
G1 X8.213 Y7.259 E0.0286
G1 X8.123 Y7.526 E0.02343
G1 X7.981 Y7.761 E0.02283
G1 X7.81 Y7.941 E0.02064
G1 X7.577 Y8.099 E0.02341
G1 X7.336 Y8.194 E0.02154
G1 X6.936 Y8.25 E0.03358
G1 X-6.911 Y8.25 E1.15138
G1 X-7.266 Y8.211 E0.0297
G1 X-7.526 Y8.123 E0.02282
G1 X-7.754 Y7.986 E0.02212
G1 X-7.95 Y7.799 E0.02253
G1 X-8.097 Y7.581 E0.02186
G1 X-8.193 Y7.341 E0.02149
G1 X-8.25 Y6.943 E0.03343
M566 X1800 Y1800
G0 F3600 X-8.75 Y6.983
M566 X1200 Y1200
G1 F3000 X-8.75 Y-6.944 E1.15803
G1 X-8.704 Y-7.373 E0.03588
G1 X-8.585 Y-7.727 E0.03105
G1 X-8.383 Y-8.062 E0.03253
G1 X-8.132 Y-8.326 E0.03029
G1 X-7.808 Y-8.546 E0.03256
G1 X-7.466 Y-8.681 E0.03057
G1 X-6.969 Y-8.75 E0.04172
G1 X6.939 Y-8.75 E1.15645
G1 X7.379 Y-8.702 E0.0368
G1 X7.731 Y-8.583 E0.0309
G1 X8.056 Y-8.388 E0.03151
G1 X8.331 Y-8.127 E0.03153
G1 X8.545 Y-7.811 E0.03173
G1 X8.68 Y-7.472 E0.03034
G1 X8.75 Y-7 E0.03968
G1 X8.75 Y6.943 E1.15937
G1 X8.704 Y7.369 E0.03563
G1 X8.58 Y7.735 E0.03213
G1 X8.38 Y8.067 E0.03223
G1 X8.135 Y8.325 E0.02958
G1 X7.814 Y8.543 E0.03226
G1 X7.466 Y8.681 E0.03113
G1 X6.969 Y8.75 E0.04172
G1 X-6.939 Y8.75 E1.15645
G1 X-7.376 Y8.702 E0.03656
G1 X-7.738 Y8.58 E0.03176
G1 X-8.059 Y8.386 E0.03119
G1 X-8.333 Y8.124 E0.03152
G1 X-8.543 Y7.814 E0.03113
G1 X-8.679 Y7.472 E0.0306
G1 X-8.75 Y6.983 E0.04109
M566 X1800 Y1800
G0 F3600 X-9.25 Y7
M566 X1200 Y1200
G1 F3000 X-9.25 Y-6.969 E1.16153
G1 X-9.195 Y-7.481 E0.04282
G1 X-9.041 Y-7.94 E0.04026
G1 X-8.783 Y-8.366 E0.04141
G1 X-8.457 Y-8.71 E0.03941
G1 X-8.044 Y-8.99 E0.04149
G1 X-7.602 Y-9.165 E0.03953
G1 X-7.103 Y-9.247 E0.04205
G1 X-6.981 Y-9.25 E0.01015
G1 X6.966 Y-9.25 E1.1597
G1 X7.487 Y-9.193 E0.04358
G1 X7.945 Y-9.039 E0.04018
G1 X8.356 Y-8.792 E0.03987
G1 X8.716 Y-8.45 E0.04129
G1 X8.989 Y-8.046 E0.04054
G1 X9.164 Y-7.608 E0.03922
G1 X9.247 Y-7.1 E0.0428
G1 X9.25 Y-7 E0.00832
G1 X9.25 Y6.969 E1.16153
G1 X9.195 Y7.479 E0.04265
G1 X9.037 Y7.947 E0.04107
G1 X8.782 Y8.369 E0.041
G1 X8.458 Y8.71 E0.03911
G1 X8.05 Y8.988 E0.04105
G1 X7.602 Y9.165 E0.04005
G1 X7.103 Y9.247 E0.04205
G1 X6.981 Y9.25 E0.01015
G1 X-6.966 Y9.25 E1.1597
G1 X-7.486 Y9.193 E0.0435
G1 X-7.947 Y9.037 E0.04047
G1 X-8.365 Y8.785 E0.04058
G1 X-8.716 Y8.45 E0.04035
G1 X-8.988 Y8.048 E0.04036
G1 X-9.164 Y7.604 E0.03971
G1 X-9.247 Y7.086 E0.04362
G1 X-9.25 Y7 E0.00716
M566 X1800 Y1800
G0 F3600 X-9.75 Y7
M566 X1200 Y1200
;TYPE:WALL-OUTER
G1 F3000 X-9.75 Y-6.994 E1.16361
G1 X-9.686 Y-7.589 E0.04976
G1 X-9.497 Y-8.153 E0.04946
G1 X-9.183 Y-8.671 E0.05037
G1 X-8.783 Y-9.093 E0.04835
G1 X-8.278 Y-9.435 E0.05071
G1 X-7.738 Y-9.649 E0.0483
G1 X-7.146 Y-9.746 E0.04988
G1 X-6.994 Y-9.75 E0.01264
G1 X6.994 Y-9.75 E1.16311
G1 X7.595 Y-9.684 E0.05027
G1 X8.155 Y-9.496 E0.04912
G1 X8.662 Y-9.191 E0.0492
G1 X9.099 Y-8.776 E0.05011
G1 X9.433 Y-8.282 E0.04958
G1 X9.648 Y-7.743 E0.04825
G1 X9.746 Y-7.142 E0.05063
G1 X9.75 Y-7 E0.01181
G1 X9.75 Y6.994 E1.16361
G1 X9.686 Y7.589 E0.04976
G1 X9.494 Y8.159 E0.05001
G1 X9.184 Y8.671 E0.04977
G1 X8.783 Y9.093 E0.0484
G1 X8.283 Y9.433 E0.05028
G1 X7.738 Y9.649 E0.04875
G1 X7.146 Y9.746 E0.04988
G1 X6.994 Y9.75 E0.01264
G1 X-6.994 Y9.75 E1.16311
G1 X-7.595 Y9.684 E0.05027
G1 X-8.159 Y9.494 E0.04949
G1 X-8.67 Y9.185 E0.04965
G1 X-9.099 Y8.776 E0.04929
G1 X-9.433 Y8.282 E0.04958
G1 X-9.649 Y7.737 E0.04875
G1 X-9.746 Y7.134 E0.05078
G1 X-9.75 Y7 E0.01115
M566 X1800 Y1800
G0 F3600 X-9.75 Y6.75
G0 X-9.15 Y6.75
G0 X-7.76 Y6.909
M566 X1200 Y1200
;TYPE:SKIN
G1 F3000 X-7.76 Y-6.885 E1.14698
G1 X-7.681 Y-7.31 E0.03594
G1 X-7.491 Y-7.564 E0.02638
G1 X-7.216 Y-7.716 E0.02613
G1 X-6.896 Y-7.76 E0.02686
G1 X6.877 Y-7.76 E1.14523
G1 X7.314 Y-7.678 E0.03697
G1 X7.573 Y-7.481 E0.02706
G1 X7.72 Y-7.207 E0.02585
G1 X7.76 Y-6.931 E0.02319
G1 X7.76 Y6.882 E1.14856
G1 X7.676 Y7.316 E0.03676
G1 X7.492 Y7.564 E0.02568
G1 X7.213 Y7.716 E0.02642
G1 X6.896 Y7.76 E0.02661
G1 X-6.876 Y7.76 E1.14515
G1 X-7.32 Y7.675 E0.03759
G1 X-7.572 Y7.482 E0.02639
G1 X-7.717 Y7.213 E0.02541
G1 X-7.76 Y6.909 E0.02553
M566 X1800 Y1800
G0 F3600 X-7.534 Y6.607
M566 X1200 Y1200
G1 F3000 X-6.607 Y7.534 E0.10901
M566 X1800 Y1800
G0 F3600 X-5.9 Y7.534
M566 X1200 Y1200
G1 F3000 X-7.534 Y5.9 E0.19215
M566 X1800 Y1800
G0 F3600 X-7.534 Y5.192
M566 X1200 Y1200
G1 F3000 X-5.193 Y7.534 E0.27534
M566 X1800 Y1800
G0 F3600 X-4.486 Y7.534
M566 X1200 Y1200
G1 F3000 X-7.534 Y4.485 E0.35848
M566 X1800 Y1800
G0 F3600 X-7.534 Y3.778
M566 X1200 Y1200
G1 F3000 X-3.779 Y7.534 E0.44162
M566 X1800 Y1800
G0 F3600 X-3.072 Y7.534
M566 X1200 Y1200
G1 F3000 X-7.534 Y3.071 E0.52476
M566 X1800 Y1800
G0 F3600 X-7.534 Y2.364
M566 X1200 Y1200
G1 F3000 X-2.365 Y7.534 E0.60789
M566 X1800 Y1800
G0 F3600 X-1.658 Y7.534
M566 X1200 Y1200
G1 F3000 X-7.534 Y1.657 E0.69103
M566 X1800 Y1800
G0 F3600 X-7.534 Y0.95
M566 X1200 Y1200
G1 F3000 X-.951 Y7.534 E0.77417
M566 X1800 Y1800
G0 F3600 X-.243 Y7.534
M566 X1200 Y1200
G1 F3000 X-7.534 Y0.243 E0.85737
M566 X1800 Y1800
G0 F3600 X-7.534 Y-.463
M566 X1200 Y1200
G1 F3000 X0.463 Y7.534 E0.94039
M566 X1800 Y1800
G0 F3600 X1.17 Y7.534
M566 X1200 Y1200
G1 F3000 X-7.534 Y-1.17 E1.02352
M566 X1800 Y1800
G0 F3600 X-7.534 Y-1.878
M566 X1200 Y1200
G1 F3000 X1.877 Y7.534 E1.10672
M566 X1800 Y1800
G0 F3600 X2.584 Y7.534
M566 X1200 Y1200
G1 F3000 X-7.534 Y-2.585 E1.18986
M566 X1800 Y1800
G0 F3600 X-7.534 Y-3.292
M566 X1200 Y1200
G1 F3000 X3.291 Y7.534 E1.273
M566 X1800 Y1800
G0 F3600 X3.998 Y7.534
M566 X1200 Y1200
G1 F3000 X-7.534 Y-3.999 E1.35613
M566 X1800 Y1800
G0 F3600 X-7.534 Y-4.706
M566 X1200 Y1200
G1 F3000 X4.705 Y7.534 E1.43927
M566 X1800 Y1800
G0 F3600 X5.412 Y7.534
M566 X1200 Y1200
G1 F3000 X-7.534 Y-5.413 E1.52241
M566 X1800 Y1800
G0 F3600 X-7.534 Y-6.12
M566 X1200 Y1200
G1 F3000 X6.12 Y7.534 E1.60561
M566 X1800 Y1800
G0 F3600 X6.827 Y7.534
M566 X1200 Y1200
G1 F3000 X-7.534 Y-6.827 E1.68874
M566 X1800 Y1800
G0 F3600 X-7.361 Y-7.361
M566 X1200 Y1200
G1 F3000 X7.361 Y7.361 E1.73119
M566 X1800 Y1800
G0 F3600 X7.534 Y6.827
M566 X1200 Y1200
G1 F3000 X-6.827 Y-7.534 E1.68874
M566 X1800 Y1800
G0 F3600 X-6.12 Y-7.534
M566 X1200 Y1200
G1 F3000 X7.534 Y6.12 E1.60561
M566 X1800 Y1800
G0 F3600 X7.534 Y5.412
M566 X1200 Y1200
G1 F3000 X-5.412 Y-7.534 E1.52235
M566 X1800 Y1800
G0 F3600 X-4.705 Y-7.534
M566 X1200 Y1200
G1 F3000 X7.534 Y4.705 E1.43921
M566 X1800 Y1800
G0 F3600 X7.534 Y3.998
M566 X1200 Y1200
G1 F3000 X-3.998 Y-7.534 E1.35607
M566 X1800 Y1800
G0 F3600 X-3.291 Y-7.534
M566 X1200 Y1200
G1 F3000 X7.534 Y3.291 E1.27294
M566 X1800 Y1800
G0 F3600 X7.534 Y2.584
M566 X1200 Y1200
G1 F3000 X-2.584 Y-7.534 E1.1898
M566 X1800 Y1800
G0 F3600 X-1.877 Y-7.534
M566 X1200 Y1200
G1 F3000 X7.534 Y1.877 E1.10666
M566 X1800 Y1800
G0 F3600 X7.534 Y1.17
M566 X1200 Y1200
G1 F3000 X-1.17 Y-7.534 E1.02352
M566 X1800 Y1800
G0 F3600 X-.463 Y-7.534
M566 X1200 Y1200
G1 F3000 X7.534 Y0.463 E0.94039
M566 X1800 Y1800
G0 F3600 X7.534 Y-.243
M566 X1200 Y1200
G1 F3000 X0.243 Y-7.534 E0.85737
M566 X1800 Y1800
G0 F3600 X0.951 Y-7.534
M566 X1200 Y1200
G1 F3000 X7.534 Y-.951 E0.77411
M566 X1800 Y1800
G0 F3600 X7.534 Y-1.658
M566 X1200 Y1200
G1 F3000 X1.658 Y-7.534 E0.69097
M566 X1800 Y1800
G0 F3600 X2.365 Y-7.534
M566 X1200 Y1200
G1 F3000 X7.534 Y-2.365 E0.60783
M566 X1800 Y1800
G0 F3600 X7.534 Y-3.072
M566 X1200 Y1200
G1 F3000 X3.072 Y-7.534 E0.5247
M566 X1800 Y1800
G0 F3600 X3.779 Y-7.534
M566 X1200 Y1200
G1 F3000 X7.534 Y-3.779 E0.44156
M566 X1800 Y1800
G0 F3600 X7.534 Y-4.486
M566 X1200 Y1200
G1 F3000 X4.486 Y-7.534 E0.35842
M566 X1800 Y1800
G0 F3600 X5.193 Y-7.534
M566 X1200 Y1200
G1 F3000 X7.534 Y-5.193 E0.27528
M566 X1800 Y1800
G0 F3600 X7.534 Y-5.9
M566 X1200 Y1200
G1 F3000 X5.9 Y-7.534 E0.19215
M566 X1800 Y1800
G0 F3600 X6.607 Y-7.534
M566 X1200 Y1200
G1 F3000 X7.534 Y-6.607 E0.10901
G1 X7.622 Y-6.519
M566 X1800 Y1800
;MESH:NONMESH
G0 F600 X7.622 Y-6.519 Z0.7
G0 F3600 X-6.908 Y8.25
;TIME_ELAPSED:26.128252
;LAYER:1
M106 S42.5 P1
M566 X1200 Y1200
;TYPE:WALL-INNER
;MESH:RoboCol25-GpsMnt.3mf
G1 F4500 X-7.284 Y8.208 E0.02359
G1 X-7.518 Y8.128 E0.01542
G1 X-7.753 Y7.986 E0.01712
G1 X-7.95 Y7.798 E0.01698
G1 X-8.098 Y7.58 E0.01643
G1 X-8.195 Y7.334 E0.01649
G1 X-8.25 Y6.961 E0.02351
