;FLAVOR:RepRap
;TIME:403
;Filament used: 1.0228m
;Layer height: 0.3
;MINX:-16.25
;MINY:-17.583
;MINZ:0.4
;MAXX:16.25
;MAXY:10.917
;MAXZ:16.9
;POSTPROCESSED
;Generated with Cura_SteamEngine 4.13.1
T0
M190 S60
M104 S215
M109 S215
M82 ;absolute extrusion mode
G28 ;Home
G1 Z15.0 F6000 ;Move the platform down 15mm
;Prime the extruder
G92 E0
G1 F200 E3
G92 E0
M83 ;relative extrusion mode
G1 F1500 E-6.5
;LAYER_COUNT:56
;LAYER:0
M107 P1
M204 T5000
M566 X1800 Y1800
G0 F3600 X-11.348 Y10.917 Z0.4
M204 P3000
M566 X1200 Y1200
;TYPE:SKIRT
G1 F1500 E6.5
G1 F3000 X-12.046 Y10.908 E0.05804
G1 X-12.627 Y10.86 E0.04847
G1 X-13.195 Y10.734 E0.04838
G1 X-13.742 Y10.531 E0.04851
G1 X-14.255 Y10.255 E0.04844
G1 X-14.726 Y9.911 E0.0485
G1 X-15.145 Y9.507 E0.0484
G1 X-15.505 Y9.048 E0.0485
G1 X-15.799 Y8.545 E0.04844
G1 X-16.021 Y8.006 E0.04847
G1 X-16.168 Y7.442 E0.04846
G1 X-16.239 Y6.773 E0.05594
G1 X-16.25 Y6.325 E0.03726
G1 X-16.25 Y-12.717 E1.58335
G1 X-16.241 Y-13.382 E0.0553
G1 X-16.193 Y-13.962 E0.04839
G1 X-16.066 Y-14.531 E0.04848
G1 X-15.863 Y-15.077 E0.04844
G1 X-15.586 Y-15.59 E0.04848
G1 X-15.243 Y-16.061 E0.04845
G1 X-14.838 Y-16.48 E0.04846
G1 X-14.379 Y-16.84 E0.0485
G1 X-13.876 Y-17.133 E0.0484
G1 X-13.337 Y-17.355 E0.04847
G1 X-12.773 Y-17.501 E0.04844
G1 X-12.11 Y-17.572 E0.05544
G1 X-11.67 Y-17.583 E0.0366
G1 X11.354 Y-17.583 E1.91445
G1 X12.052 Y-17.573 E0.05804
G1 X12.633 Y-17.524 E0.04848
G1 X13.201 Y-17.397 E0.0484
G1 X13.747 Y-17.193 E0.04847
G1 X14.26 Y-16.917 E0.04844
G1 X14.73 Y-16.572 E0.04848
G1 X15.149 Y-16.167 E0.04846
G1 X15.509 Y-15.708 E0.0485
G1 X15.802 Y-15.205 E0.0484
G1 X16.023 Y-14.666 E0.04844
G1 X16.169 Y-14.101 E0.04852
G1 X16.239 Y-13.442 E0.0551
G1 X16.25 Y-13.003 E0.03651
G1 X16.25 Y5.984 E1.57878
G1 X16.241 Y6.711 E0.06045
G1 X16.194 Y7.291 E0.04839
G1 X16.067 Y7.86 E0.04848
G1 X15.865 Y8.407 E0.04849
G1 X15.589 Y8.92 E0.04844
G1 X15.246 Y9.391 E0.04845
G1 X14.841 Y9.811 E0.04851
G1 X14.383 Y10.171 E0.04844
G1 X13.88 Y10.465 E0.04844
G1 X13.342 Y10.688 E0.04843
G1 X12.778 Y10.835 E0.04846
G1 X12.11 Y10.906 E0.05586
G1 X11.67 Y10.917 E0.0366
G1 X-11.348 Y10.917 E1.91395
M566 X1800 Y1800
G0 F3600 X-11.341 Y10.417
M566 X1200 Y1200
G1 F3000 X-12.039 Y10.408 E0.05804
G1 X-12.585 Y10.361 E0.04557
G1 X-13.117 Y10.235 E0.04546
G1 X-13.626 Y10.033 E0.04553
G1 X-14.1 Y9.759 E0.04552
G1 X-14.529 Y9.419 E0.04552
G1 X-14.904 Y9.02 E0.04553
G1 X-15.217 Y8.571 E0.04551
G1 X-15.461 Y8.081 E0.04552
G1 X-15.631 Y7.561 E0.04549
G1 X-15.74 Y6.759 E0.0673
G1 X-15.75 Y6.325 E0.0361
G1 X-15.75 Y-12.71 E1.58277
G1 X-15.741 Y-13.375 E0.0553
G1 X-15.693 Y-13.92 E0.04549
G1 X-15.567 Y-14.453 E0.04554
G1 X-15.365 Y-14.961 E0.04546
G1 X-15.09 Y-15.435 E0.04557
G1 X-14.75 Y-15.864 E0.04552
G1 X-14.351 Y-16.238 E0.04547
G1 X-13.902 Y-16.551 E0.04551
G1 X-13.412 Y-16.795 E0.04552
G1 X-12.891 Y-16.964 E0.04554
G1 X-12.096 Y-17.073 E0.06672
G1 X-11.67 Y-17.083 E0.03543
G1 X11.347 Y-17.083 E1.91387
G1 X12.045 Y-17.073 E0.05804
G1 X12.59 Y-17.025 E0.04549
G1 X13.122 Y-16.898 E0.04548
G1 X13.631 Y-16.695 E0.04557
G1 X14.104 Y-16.421 E0.04545
G1 X14.533 Y-16.08 E0.04557
G1 X14.907 Y-15.681 E0.04547
G1 X15.219 Y-15.231 E0.04553
G1 X15.463 Y-14.741 E0.04552
G1 X15.632 Y-14.22 E0.04554
G1 X15.74 Y-13.428 E0.06646
G1 X15.75 Y-13.003 E0.03535
G1 X15.75 Y5.977 E1.57819
G1 X15.741 Y6.704 E0.06045
G1 X15.694 Y7.25 E0.04557
G1 X15.568 Y7.783 E0.04554
G1 X15.367 Y8.291 E0.04543
G1 X15.093 Y8.765 E0.04552
G1 X14.753 Y9.194 E0.04552
G1 X14.354 Y9.569 E0.04553
G1 X13.905 Y9.883 E0.04556
G1 X13.416 Y10.127 E0.04544
G1 X12.895 Y10.297 E0.04557
G1 X12.096 Y10.407 E0.06706
G1 X11.67 Y10.417 E0.03543
G1 X-11.341 Y10.417 E1.91337
M566 X1800 Y1800
G0 F3600 X-11.335 Y9.917
M566 X1200 Y1200
G1 F3000 X-12.033 Y9.908 E0.05804
G1 X-12.54 Y9.861 E0.04234
G1 X-13.034 Y9.736 E0.04237
G1 X-13.502 Y9.535 E0.04235
G1 X-13.934 Y9.264 E0.0424
G1 X-14.317 Y8.928 E0.04236
G1 X-14.643 Y8.537 E0.04233
G1 X-14.904 Y8.099 E0.0424
G1 X-15.093 Y7.626 E0.04235
G1 X-15.207 Y7.129 E0.0424
G1 X-15.249 Y6.413 E0.05964
G1 X-15.25 Y-12.703 E1.5895
G1 X-15.241 Y-13.368 E0.0553
G1 X-15.194 Y-13.875 E0.04234
G1 X-15.068 Y-14.369 E0.04239
G1 X-14.867 Y-14.837 E0.04235
G1 X-14.595 Y-15.268 E0.04238
G1 X-14.259 Y-15.651 E0.04236
G1 X-13.868 Y-15.977 E0.04233
G1 X-13.43 Y-16.238 E0.0424
G1 X-12.957 Y-16.427 E0.04235
G1 X-12.46 Y-16.54 E0.04238
G1 X-11.761 Y-16.582 E0.05823
G1 X11.34 Y-16.583 E1.92086
G1 X12.038 Y-16.573 E0.05804
G1 X12.545 Y-16.525 E0.04235
G1 X13.039 Y-16.4 E0.04237
G1 X13.507 Y-16.198 E0.04238
G1 X13.937 Y-15.926 E0.04231
G1 X14.32 Y-15.59 E0.04236
G1 X14.646 Y-15.198 E0.04239
G1 X14.906 Y-14.76 E0.04235
G1 X15.095 Y-14.287 E0.04235
G1 X15.207 Y-13.79 E0.04236
G1 X15.249 Y-13.094 E0.05798
G1 X15.25 Y5.971 E1.58526
G1 X15.241 Y6.698 E0.06045
G1 X15.195 Y7.206 E0.04241
G1 X15.07 Y7.7 E0.04237
G1 X14.869 Y8.168 E0.04235
G1 X14.598 Y8.599 E0.04233
G1 X14.262 Y8.983 E0.04243
G1 X13.871 Y9.309 E0.04233
G1 X13.433 Y9.57 E0.0424
G1 X12.961 Y9.76 E0.04231
G1 X12.464 Y9.873 E0.04238
G1 X11.761 Y9.916 E0.05856
G1 X-11.335 Y9.917 E1.92044
M566 X1800 Y1800
G1 F1500 E-6.5
;MESH:RoboCol25-GpsCap.3mf
G0 F3600 X-11.236 Y7.332
G0 X-11.236 Y5.903
G0 X-10.25 Y4.917
M566 X1200 Y1200
;TYPE:WALL-INNER
G1 F1500 E6.5
G1 F3000 X-10.25 Y-11.583 E1.37198
G1 X10.25 Y-11.583 E1.70458
G1 X10.25 Y4.917 E1.37198
G1 X-10.25 Y4.917 E1.70458
M566 X1800 Y1800
G0 F3600 X-10.75 Y5.417
M566 X1200 Y1200
G1 F3000 X-10.75 Y-12.083 E1.45513
G1 X10.75 Y-12.083 E1.78773
G1 X10.75 Y5.417 E1.45513
G1 X-10.75 Y5.417 E1.78773
M566 X1800 Y1800
G0 F3600 X-11.25 Y5.917
M566 X1200 Y1200
G1 F3000 X-11.25 Y-12.583 E1.53828
G1 X11.25 Y-12.583 E1.87088
G1 X11.25 Y5.917 E1.53828
G1 X-11.25 Y5.917 E1.87088
M566 X1800 Y1800
G0 F3600 X-11.75 Y6.417
M566 X1200 Y1200
;TYPE:WALL-OUTER
G1 F3000 X-11.75 Y-13.083 E1.62143
G1 X11.75 Y-13.083 E1.95403
G1 X11.75 Y6.417 E1.62143
G1 X-11.75 Y6.417 E1.95403
M566 X1800 Y1800
G0 F3600 X-11.75 Y6.167
G0 X-11.18 Y5.847
G0 X-9.76 Y4.427
M566 X1200 Y1200
;TYPE:SKIN
G1 F3000 X-9.76 Y-11.093 E1.29049
G1 X9.76 Y-11.093 E1.62309
G1 X9.76 Y4.427 E1.29049
G1 X-9.76 Y4.427 E1.62309
M566 X1800 Y1800
G0 F3600 X-9.233 Y4.201
M566 X1200 Y1200
G1 F3000 X-9.535 Y3.899 E0.03551
M566 X1800 Y1800
G0 F3600 X-9.535 Y3.192
M566 X1200 Y1200
G1 F3000 X-8.526 Y4.201 E0.11865
M566 X1800 Y1800
G0 F3600 X-7.819 Y4.201
M566 X1200 Y1200
G1 F3000 X-9.535 Y2.485 E0.20179
M566 X1800 Y1800
G0 F3600 X-9.535 Y1.778
M566 X1200 Y1200
G1 F3000 X-7.112 Y4.201 E0.28493
M566 X1800 Y1800
G0 F3600 X-6.404 Y4.201
M566 X1200 Y1200
G1 F3000 X-9.535 Y1.071 E0.36812
M566 X1800 Y1800
G0 F3600 X-9.535 Y0.364
M566 X1200 Y1200
G1 F3000 X-5.697 Y4.201 E0.45126
M566 X1800 Y1800
G0 F3600 X-4.99 Y4.201
M566 X1200 Y1200
G1 F3000 X-9.535 Y-.342 E0.53434
M566 X1800 Y1800
G0 F3600 X-9.535 Y-1.05
M566 X1200 Y1200
G1 F3000 X-4.283 Y4.201 E0.61754
M566 X1800 Y1800
G0 F3600 X-3.576 Y4.201
M566 X1200 Y1200
G1 F3000 X-9.535 Y-1.757 E0.70067
M566 X1800 Y1800
G0 F3600 X-9.535 Y-2.464
M566 X1200 Y1200
G1 F3000 X-2.869 Y4.201 E0.78381
M566 X1800 Y1800
G0 F3600 X-2.162 Y4.201
M566 X1200 Y1200
G1 F3000 X-9.535 Y-3.171 E0.86695
M566 X1800 Y1800
G0 F3600 X-9.535 Y-3.878
M566 X1200 Y1200
G1 F3000 X-1.455 Y4.201 E0.95009
M566 X1800 Y1800
G0 F3600 X-.748 Y4.201
M566 X1200 Y1200
G1 F3000 X-9.535 Y-4.585 E1.03323
M566 X1800 Y1800
G0 F3600 X-9.535 Y-5.292
M566 X1200 Y1200
G1 F3000 X-0.041 Y4.201 E1.11636
M566 X1800 Y1800
G0 F3600 X0.666 Y4.201
M566 X1200 Y1200
G1 F3000 X-9.535 Y-5.999 E1.1995
M566 X1800 Y1800
G0 F3600 X-9.535 Y-6.706
M566 X1200 Y1200
G1 F3000 X1.373 Y4.201 E1.28264
M566 X1800 Y1800
G0 F3600 X2.08 Y4.201
M566 X1200 Y1200
G1 F3000 X-9.535 Y-7.414 E1.36583
M566 X1800 Y1800
G0 F3600 X-9.535 Y-8.121
M566 X1200 Y1200
G1 F3000 X2.787 Y4.201 E1.44897
M566 X1800 Y1800
G0 F3600 X3.494 Y4.201
M566 X1200 Y1200
G1 F3000 X-9.535 Y-8.828 E1.53211
M566 X1800 Y1800
G0 F3600 X-9.535 Y-9.535
M566 X1200 Y1200
G1 F3000 X4.201 Y4.201 E1.61525
M566 X1800 Y1800
G0 F3600 X4.908 Y4.201
M566 X1200 Y1200
G1 F3000 X-9.535 Y-10.242 E1.69839
M566 X1800 Y1800
G0 F3600 X-9.453 Y-10.867
M566 X1200 Y1200
G1 F3000 X5.615 Y4.201 E1.77188
M566 X1800 Y1800
G0 F3600 X6.322 Y4.201
M566 X1200 Y1200
G1 F3000 X-8.746 Y-10.867 E1.77188
M566 X1800 Y1800
G0 F3600 X-8.039 Y-10.867
M566 X1200 Y1200
G1 F3000 X7.03 Y4.201 E1.77194
M566 X1800 Y1800
G0 F3600 X7.737 Y4.201
M566 X1200 Y1200
G1 F3000 X-7.331 Y-10.867 E1.77188
M566 X1800 Y1800
G0 F3600 X-6.624 Y-10.867
M566 X1200 Y1200
G1 F3000 X8.444 Y4.201 E1.77188
M566 X1800 Y1800
G0 F3600 X9.151 Y4.201
M566 X1200 Y1200
G1 F3000 X-5.917 Y-10.867 E1.77188
M566 X1800 Y1800
G0 F3600 X-5.21 Y-10.867
M566 X1200 Y1200
G1 F3000 X9.535 Y3.878 E1.7339
M566 X1800 Y1800
G0 F3600 X9.535 Y3.171
M566 X1200 Y1200
G1 F3000 X-4.503 Y-10.867 E1.65076
M566 X1800 Y1800
G0 F3600 X-3.796 Y-10.867
M566 X1200 Y1200
G1 F3000 X9.535 Y2.464 E1.56762
M566 X1800 Y1800
G0 F3600 X9.535 Y1.757
M566 X1200 Y1200
G1 F3000 X-3.089 Y-10.867 E1.48449
M566 X1800 Y1800
G0 F3600 X-2.382 Y-10.867
M566 X1200 Y1200
G1 F3000 X9.535 Y1.05 E1.40135
M566 X1800 Y1800
G0 F3600 X9.535 Y0.342
M566 X1200 Y1200
G1 F3000 X-1.675 Y-10.867 E1.31815
M566 X1800 Y1800
G0 F3600 X-.968 Y-10.867
M566 X1200 Y1200
G1 F3000 X9.535 Y-.364 E1.23507
M566 X1800 Y1800
G0 F3600 X9.535 Y-1.071
M566 X1200 Y1200
G1 F3000 X-.26 Y-10.867 E1.15188
M566 X1800 Y1800
G0 F3600 X0.446 Y-10.867
M566 X1200 Y1200
G1 F3000 X9.535 Y-1.778 E1.0688
M566 X1800 Y1800
G0 F3600 X9.535 Y-2.485
M566 X1200 Y1200
G1 F3000 X1.153 Y-10.867 E0.98566
M566 X1800 Y1800
G0 F3600 X1.86 Y-10.867
M566 X1200 Y1200
G1 F3000 X9.535 Y-3.192 E0.90252
M566 X1800 Y1800
G0 F3600 X9.535 Y-3.899
M566 X1200 Y1200
G1 F3000 X2.567 Y-10.867 E0.81938
M566 X1800 Y1800
G0 F3600 X3.274 Y-10.867
M566 X1200 Y1200
G1 F3000 X9.535 Y-4.606 E0.73625
M566 X1800 Y1800
G0 F3600 X9.535 Y-5.313
M566 X1200 Y1200
G1 F3000 X3.981 Y-10.867 E0.65311
M566 X1800 Y1800
G0 F3600 X4.688 Y-10.867
M566 X1200 Y1200
G1 F3000 X9.535 Y-6.021 E0.56991
M566 X1800 Y1800
G0 F3600 X9.535 Y-6.728
M566 X1200 Y1200
G1 F3000 X5.395 Y-10.867 E0.48677
M566 X1800 Y1800
G0 F3600 X6.103 Y-10.867
M566 X1200 Y1200
G1 F3000 X9.535 Y-7.435 E0.40358
M566 X1800 Y1800
G0 F3600 X9.535 Y-8.142
M566 X1200 Y1200
G1 F3000 X6.81 Y-10.867 E0.32044
M566 X1800 Y1800
G0 F3600 X7.517 Y-10.867
M566 X1200 Y1200
G1 F3000 X9.535 Y-8.849 E0.2373
M566 X1800 Y1800
G0 F3600 X9.535 Y-9.556
M566 X1200 Y1200
G1 F3000 X8.224 Y-10.867 E0.15416
M566 X1800 Y1800
G0 F3600 X8.931 Y-10.867
M566 X1200 Y1200
G1 F3000 X9.535 Y-10.263 E0.07103
M566 X1800 Y1800
;MESH:NONMESH
G0 F600 X9.535 Y-10.263 Z0.7
G0 F3600 X9.75 Y5.417
;TIME_ELAPSED:30.683061
;LAYER:1
M106 S42.5 P1
M566 X1200 Y1200
;TYPE:WALL-INNER
;MESH:RoboCol25-GpsCap.3mf
G1 F4500 X9.75 Y-12.083 E1.09135
G1 X10.75 Y-12.083 E0.06236
G1 X10.75 Y5.417 E1.09135
G1 X9.75 Y5.417 E0.06236
M566 X1800 Y1800
G0 F5400 X-9.75 Y5.417
M566 X1200 Y1200
G1 F4500 X-10.75 Y5.417 E0.06236
G1 X-10.75 Y-12.083 E1.09135
G1 X-9.75 Y-12.083 E0.06236
G1 X-9.75 Y5.417 E1.09135
M566 X1800 Y1800
G0 F5400 X-9.25 Y5.917
M566 X1200 Y1200
G1 F4500 X-11.25 Y5.917 E0.12473
G1 X-11.25 Y-12.583 E1.15371
G1 X-9.25 Y-12.583 E0.12473
G1 X9.25 Y-12.583 E1.15371
G1 X11.25 Y-12.583 E0.12473
G1 X11.25 Y5.917 E1.15371
G1 X9.25 Y5.917 E0.12473
G1 X9.25 Y-12.583 E1.15371
G1 X-9.25 Y-12.583
G1 X-9.25 Y5.917 E1.15371
M566 X1800 Y1800
G0 F5400 X-8.75 Y5.417
M566 X1200 Y1200
;TYPE:WALL-OUTER
G1 F3000 X8.75 Y5.417 E1.09135
G1 X8.75 Y-12.083 E1.09135
G1 X-8.75 Y-12.083 E1.09135
G1 X-8.75 Y5.417 E1.09135
M566 X1800 Y1800
G0 F5400 X-8.5 Y5.417
G0 X-8.5 Y5.517
G0 X-11.43 Y6.097
G0 X-11.75 Y6.417
M566 X1200 Y1200
G1 F3000 X-11.75 Y-13.083 E1.21607
G1 X11.75 Y-13.083 E1.46552
G1 X11.75 Y6.417 E1.21607
G1 X-11.75 Y6.417 E1.46552
M566 X1800 Y1800
G0 F5400 X-11.75 Y6.167
G0 X-11.43 Y6.097
G0 X-10.48 Y5.176
G0 X-10.235 Y4.931
M566 X1200 Y1200
;TYPE:SKIN
G1 F3000 X-10.249 Y4.592 E0.02251
G1 X-10.249 Y-11.316 E1.05537
G1 X-10.47 Y-11.803 E0.03548
M566 X1800 Y1800
G0 F5400 X-10.431 Y-11.842
G0 X-9.024 Y-12.541
G0 X-8.874 Y-12.691
M566 X1200 Y1200
G1 F3000 X-8.63 Y-12.582 E0.01764
G1 X8.693 Y-12.582 E1.14348
G1 X8.905 Y-12.441 E0.01681
M566 X1800 Y1800
G0 F5400 X8.787 Y-12.322
G0 X9.99 Y-11.757
G0 X10.032 Y-11.799
M566 X1200 Y1200
G1 F3000 X10.209 Y-11.623 E0.01613
G1 X10.249 Y-9.189 E0.15732
G1 X10.249 Y4.599 E0.89105
G1 X10.444 Y5.111 E0.03541
M566 X1800 Y1800
G0 F5400 X10.379 Y5.176
G0 X9.024 Y5.825
G0 X8.847 Y6.001
M566 X1200 Y1200
G1 F3000 X8.578 Y5.916 E0.01869
G1 X-8.745 Y5.916 E1.14785
G1 X-8.931 Y5.749 E0.01656
M566 X1800 Y1800
G0 F5400 X-8.838 Y5.656
G0 X-9.99 Y5.04
M566 X1200 Y1200
G1 F3000 X-10.126 Y5.176 E0.006
M566 X1800 Y1800
;MESH:NONMESH
G0 F600 X-10.126 Y5.176 Z1
G0 F5400 X-9.028 Y5.445
G0 X9.75 Y5.417
;TIME_ELAPSED:38.920451
;LAYER:2
M106 S85 P1
M566 X1200 Y1200
;TYPE:WALL-INNER
;MESH:RoboCol25-GpsCap.3mf
G1 F6000 X9.75 Y-12.083 E1.09135
G1 X10.75 Y-12.083 E0.06236
G1 X10.75 Y5.417 E1.09135
G1 X9.75 Y5.417 E0.06236
M566 X1800 Y1800
G0 F7200 X-9.75 Y5.417
M566 X1200 Y1200
G1 F6000 X-10.75 Y5.417 E0.06236
G1 X-10.75 Y-12.083 E1.09135
G1 X-9.75 Y-12.083 E0.06236
G1 X-9.75 Y5.417 E1.09135
M566 X1800 Y1800
G0 F7200 X-9.25 Y5.917
M566 X1200 Y1200
G1 F6000 X-11.25 Y5.917 E0.12473
G1 X-11.25 Y-12.583 E1.15371
G1 X-9.25 Y-12.583 E0.12473
G1 X9.25 Y-12.583 E1.15371
G1 X11.25 Y-12.583 E0.12473
G1 X11.25 Y5.917 E1.15371
G1 X9.25 Y5.917 E0.12473
G1 X9.25 Y-12.583 E1.15371
G1 X-9.25 Y-12.583
G1 X-9.25 Y5.917 E1.15371
M566 X1800 Y1800
G0 F7200 X-8.75 Y5.417
M566 X1200 Y1200
;TYPE:WALL-OUTER
G1 F3000 X8.75 Y5.417 E1.09135
G1 X8.75 Y-12.083 E1.09135
G1 X-8.75 Y-12.083 E1.09135
G1 X-8.75 Y5.417 E1.09135
M566 X1800 Y1800
G0 F7200 X-8.5 Y5.417
G0 X-8.5 Y5.517
G0 X-11.43 Y6.097
G0 X-11.75 Y6.417
M566 X1200 Y1200
G1 F3000 X-11.75 Y-13.083 E1.21607
G1 X11.75 Y-13.083 E1.46552
G1 X11.75 Y6.417 E1.21607
G1 X-11.75 Y6.417 E1.46552
M566 X1800 Y1800
G0 F7200 X-11.75 Y6.167
G0 X-11.43 Y6.097
G0 X-10.509 Y5.046
G0 X-10.444 Y5.111
M566 X1200 Y1200
;TYPE:SKIN
G1 F3000 X-10.267 Y4.934 E0.01622
G1 X-10.249 Y-.703 E0.36534
G1 X-10.249 Y-11.309 E0.68737
G1 X-10.031 Y-11.799 E0.03476
M566 X1800 Y1800
G0 F7200 X-10.074 Y-11.841
G0 X-9.025 Y-12.561
G0 X-8.906 Y-12.441
M566 X1200 Y1200
G1 F3000 X-8.693 Y-12.582 E0.0168
G1 X8.63 Y-12.582 E1.13953
G1 X8.874 Y-12.691 E0.01758
M566 X1800 Y1800
G0 F7200 X8.645 Y-12.842
G0 X10.078 Y-11.841
G0 X10.293 Y-11.625
M566 X1200 Y1200
G1 F3000 X10.249 Y-11.317 E0.02069
G1 X10.249 Y4.592 E1.05804
G1 X10.057 Y5.107 E0.03655
M566 X1800 Y1800
G0 F7200 X10.126 Y5.176
G0 X9.024 Y5.842
G0 X8.931 Y5.749
M566 X1200 Y1200
G1 F3000 X8.745 Y5.916 E0.01642
G1 X-8.578 Y5.916 E1.13824
G1 X-8.847 Y6.001 E0.01854
M566 X1800 Y1800
G0 F7200 X-8.645 Y6.177
G0 X9.028 Y5.445
G0 X10.431 Y-11.841
M566 X1200 Y1200
G1 F3000 X10.509 Y-11.764 E0.00342
M566 X1800 Y1800
;MESH:NONMESH
G0 F600 X10.509 Y-11.764 Z1.3
G0 F7200 X9.75 Y5.417
;TIME_ELAPSED:46.810027
;LAYER:3
M106 S127.5 P1
M566 X1200 Y1200
;TYPE:WALL-INNER
;MESH:RoboCol25-GpsCap.3mf
G1 F6000 X9.75 Y-12.083 E1.09135
G1 X10.75 Y-12.083 E0.06236
G1 X10.75 Y5.417 E1.09135
G1 X9.75 Y5.417 E0.06236
M566 X1800 Y1800
G0 F7200 X-9.75 Y5.417
M566 X1200 Y1200
G1 F6000 X-10.75 Y5.417 E0.06236
G1 X-10.75 Y-12.083 E1.09135
G1 X-9.75 Y-12.083 E0.06236
G1 X-9.75 Y5.417 E1.09135
M566 X1800 Y1800
G0 F7200 X-9.25 Y5.917
M566 X1200 Y1200
G1 F6000 X-11.25 Y5.917 E0.12473
G1 X-11.25 Y-12.583 E1.15371
G1 X-9.25 Y-12.583 E0.12473
G1 X9.25 Y-12.583 E1.15371
G1 X11.25 Y-12.583 E0.12473
G1 X11.25 Y5.917 E1.15371
G1 X9.25 Y5.917 E0.12473
G1 X9.25 Y-12.583 E1.15371
G1 X-9.25 Y-12.583
G1 X-9.25 Y5.917 E1.15371
M566 X1800 Y1800
G0 F7200 X-8.75 Y5.417
M566 X1200 Y1200
;TYPE:WALL-OUTER
G1 F3000 X8.75 Y5.417 E1.09135
G1 X8.75 Y-12.083 E1.09135
G1 X-8.75 Y-12.083 E1.09135
G1 X-8.75 Y5.417 E1.09135
M566 X1800 Y1800
G0 F7200 X-8.5 Y5.417
G0 X-8.5 Y5.517
G0 X-11.43 Y6.097
G0 X-11.75 Y6.417
M566 X1200 Y1200
G1 F3000 X-11.75 Y-13.083 E1.21607
G1 X11.75 Y-13.083 E1.46552
G1 X11.75 Y6.417 E1.21607
G1 X-11.75 Y6.417 E1.46552
