;FLAVOR:RepRap
;TIME:411
;Filament used: 0.999368m
;Layer height: 0.3
;MINX:-33.95
;MINY:-21.242
;MINZ:0.4
;MAXX:33.95
;MAXY:17.75
;MAXZ:12.1
;POSTPROCESSED
;Generated with Cura_SteamEngine 4.13.1
T0
M190 S60
M104 S220
M109 S220
M82 ;absolute extrusion mode
G28 ;Home
G1 Z15.0 F6000 ;Move the platform down 15mm
;Prime the extruder
G92 E0
G1 F200 E3
G92 E0
M83 ;relative extrusion mode
G1 F1500 E-6.5
;LAYER_COUNT:40
;LAYER:0
M107 P1
M204 T5000
M566 X1800 Y1800
G0 F3600 X1.223 Y17.572 Z0.4
M204 P3000
M566 X1200 Y1200
;TYPE:SKIRT
G1 F1500 E6.5
G1 F3000 X-1.458 Y17.574 E0.22293
G1 X-5.607 Y17.725 E0.34522
G1 X-6.222 Y17.748 E0.05117
G1 X-6.33 Y17.75 E0.00898
G1 X-13.352 Y17.75 E0.58388
G1 X-14.056 Y17.739 E0.05854
G1 X-14.601 Y17.69 E0.0455
G1 X-15.133 Y17.563 E0.04548
G1 X-15.641 Y17.359 E0.04552
G1 X-15.957 Y17.186 E0.02996
G1 X-16.466 Y16.873 E0.04969
G1 X-17.927 Y15.946 E0.14387
G1 X-20.239 Y14.569 E0.22376
G1 X-22.666 Y13.215 E0.23109
G1 X-25.055 Y11.969 E0.22404
G1 X-27.508 Y10.777 E0.22677
G1 X-29.988 Y9.657 E0.22627
G1 X-30.833 Y9.303 E0.07618
G1 X-31.683 Y8.934 E0.07705
G1 X-32.168 Y8.68 E0.04552
G1 X-32.611 Y8.358 E0.04554
G1 X-33.002 Y7.975 E0.04551
G1 X-33.333 Y7.539 E0.04552
G1 X-33.597 Y7.06 E0.04548
G1 X-33.789 Y6.547 E0.04555
G1 X-33.904 Y6.012 E0.0455
G1 X-33.948 Y5.274 E0.06147
G1 X-33.95 Y5.161 E0.0094
G1 X-33.95 Y4.118 E0.08673
G1 X-33.94 Y3.45 E0.05555
G1 X-33.891 Y2.905 E0.0455
G1 X-33.764 Y2.372 E0.04556
G1 X-33.561 Y1.864 E0.04549
G1 X-33.286 Y1.391 E0.04549
G1 X-32.945 Y0.962 E0.04557
G1 X-32.308 Y0.382 E0.07163
G1 X-30.276 Y-1.408 E0.22517
G1 X-28.271 Y-3.278 E0.22797
G1 X-26.339 Y-5.186 E0.22578
G1 X-24.46 Y-7.15 E0.22601
G1 X-22.628 Y-9.174 E0.227
G1 X-21.004 Y-11.07 E0.20758
G1 X-20.4 Y-11.792 E0.07827
G1 X-19.768 Y-12.513 E0.07972
G1 X-19.514 Y-12.786 E0.03101
G1 X-18.868 Y-13.451 E0.07709
G1 X-18.56 Y-13.752 E0.03581
G1 X-17.887 Y-14.379 E0.07648
G1 X-17.574 Y-14.657 E0.03481
G1 X-16.914 Y-15.214 E0.07181
G1 X-16.61 Y-15.458 E0.03241
G1 X-15.831 Y-16.054 E0.08156
G1 X-15.539 Y-16.265 E0.02996
G1 X-14.789 Y-16.781 E0.0757
G1 X-14.43 Y-17.014 E0.03559
G1 X-13.626 Y-17.511 E0.07859
G1 X-13.333 Y-17.681 E0.02817
G1 X-12.489 Y-18.146 E0.08013
G1 X-12.144 Y-18.325 E0.03232
G1 X-11.268 Y-18.754 E0.08111
G1 X-10.963 Y-18.892 E0.02784
G1 X-10.219 Y-19.213 E0.06738
G1 X-9.696 Y-19.422 E0.04683
G1 X-8.87 Y-19.728 E0.07324
G1 X-8.5 Y-19.855 E0.03253
G1 X-7.588 Y-20.144 E0.07955
G1 X-7.237 Y-20.244 E0.03035
G1 X-6.342 Y-20.479 E0.07694
G1 X-5.918 Y-20.578 E0.0362
G1 X-5.035 Y-20.764 E0.07503
G1 X-4.658 Y-20.833 E0.03187
G1 X-3.729 Y-20.98 E0.07821
G1 X-3.302 Y-21.037 E0.03582
G1 X-2.402 Y-21.134 E0.07527
G1 X-2.006 Y-21.166 E0.03303
G1 X-1.123 Y-21.219 E0.07355
G1 X-.663 Y-21.234 E0.03827
G1 X0.243 Y-21.242 E0.07534
G1 X0.638 Y-21.235 E0.03285
G1 X1.536 Y-21.198 E0.07473
G1 X1.948 Y-21.17 E0.03434
G1 X2.901 Y-21.085 E0.07956
G1 X3.278 Y-21.04 E0.03157
G1 X4.204 Y-20.91 E0.07775
G1 X4.537 Y-20.854 E0.02808
G1 X5.474 Y-20.675 E0.07932
G1 X5.856 Y-20.592 E0.0325
G1 X6.794 Y-20.366 E0.08023
G1 X7.124 Y-20.275 E0.02846
G1 X8.034 Y-20.007 E0.07888
G1 X8.442 Y-19.874 E0.03568
G1 X9.216 Y-19.604 E0.06816
G1 X9.636 Y-19.446 E0.03731
G1 X10.495 Y-19.097 E0.0771
G1 X10.913 Y-18.915 E0.03791
G1 X11.713 Y-18.541 E0.07343
G1 X12.048 Y-18.375 E0.03109
G1 X12.888 Y-17.932 E0.07896
G1 X13.213 Y-17.749 E0.03101
G1 X14.072 Y-17.24 E0.08302
G1 X14.388 Y-17.041 E0.03105
G1 X15.115 Y-16.561 E0.07244
G1 X15.483 Y-16.304 E0.03732
G1 X16.241 Y-15.746 E0.07826
G1 X16.565 Y-15.493 E0.03418
G1 X17.281 Y-14.908 E0.07688
G1 X17.55 Y-14.677 E0.02948
G1 X18.273 Y-14.026 E0.0809
G1 X18.512 Y-13.799 E0.02741
G1 X19.153 Y-13.162 E0.07514
G1 X19.451 Y-12.851 E0.03582
G1 X20.03 Y-12.219 E0.07127
G1 X22.389 Y-9.439 E0.30317
G1 X24.22 Y-7.403 E0.22768
G1 X26.111 Y-5.418 E0.22796
G1 X28.021 Y-3.521 E0.22384
G1 X30.018 Y-1.647 E0.22771
G1 X32.071 Y0.173 E0.22813
G1 X32.667 Y0.688 E0.0655
G1 X33.05 Y1.079 E0.04551
G1 X33.373 Y1.521 E0.04552
G1 X33.628 Y2.006 E0.04556
G1 X33.809 Y2.522 E0.04547
G1 X33.914 Y3.059 E0.0455
G1 X33.948 Y3.715 E0.05462
G1 X33.95 Y3.83 E0.00956
G1 X33.95 Y4.812 E0.08165
G1 X33.94 Y5.544 E0.06087
G1 X33.892 Y6.09 E0.04558
G1 X33.766 Y6.622 E0.04546
G1 X33.564 Y7.131 E0.04553
G1 X33.289 Y7.604 E0.04549
G1 X32.949 Y8.033 E0.04552
G1 X32.55 Y8.408 E0.04553
G1 X32.1 Y8.72 E0.04553
G1 X31.644 Y8.95 E0.04247
G1 X31.185 Y9.143 E0.0414
G1 X28.695 Y10.227 E0.22581
G1 X26.23 Y11.386 E0.22649
G1 X23.778 Y12.623 E0.22836
G1 X21.417 Y13.899 E0.22315
G1 X19.022 Y15.283 E0.23
G1 X16.658 Y16.741 E0.23095
G1 X16.01 Y17.153 E0.06385
G1 X15.528 Y17.413 E0.04554
G1 X15.013 Y17.599 E0.04553
G1 X14.723 Y17.668 E0.02479
G1 X14.094 Y17.739 E0.05263
G1 X13.67 Y17.75 E0.03527
G1 X6.654 Y17.75 E0.58338
G1 X5.843 Y17.737 E0.06744
G1 X4.711 Y17.688 E0.09421
G1 X3.978 Y17.647 E0.06104
G1 X1.223 Y17.572 E0.22916
M566 X1800 Y1800
G0 F3600 X1.237 Y17.072
M566 X1200 Y1200
G1 F3000 X-1.477 Y17.074 E0.22567
G1 X-5.654 Y17.226 E0.34755
G1 X-6.236 Y17.249 E0.04843
G1 X-13.344 Y17.25 E0.59103
G1 X-14.048 Y17.239 E0.05854
G1 X-14.555 Y17.191 E0.04235
G1 X-15.049 Y17.064 E0.04241
G1 X-15.696 Y16.76 E0.05944
G1 X-16.198 Y16.451 E0.04902
G1 X-17.656 Y15.526 E0.14357
G1 X-20.018 Y14.12 E0.22856
G1 X-22.401 Y12.79 E0.22692
G1 X-24.857 Y11.509 E0.23033
G1 X-27.293 Y10.326 E0.22518
G1 X-29.769 Y9.208 E0.2259
G1 X-30.634 Y8.844 E0.07803
G1 X-31.484 Y8.475 E0.07705
G1 X-31.934 Y8.236 E0.04237
G1 X-32.341 Y7.93 E0.04234
G1 X-32.696 Y7.564 E0.0424
G1 X-32.988 Y7.147 E0.04233
G1 X-33.212 Y6.689 E0.04239
G1 X-33.362 Y6.202 E0.04237
G1 X-33.439 Y5.592 E0.05112
G1 X-33.45 Y5.161 E0.03585
G1 X-33.45 Y4.125 E0.08614
G1 X-33.44 Y3.457 E0.05555
G1 X-33.392 Y2.95 E0.04235
G1 X-33.266 Y2.456 E0.04239
G1 X-33.064 Y1.989 E0.04231
G1 X-32.792 Y1.558 E0.04238
G1 X-32.306 Y1.039 E0.05912
G1 X-31.983 Y0.762 E0.03538
G1 X-29.941 Y-1.037 E0.22629
G1 X-27.914 Y-2.928 E0.2305
G1 X-25.998 Y-4.821 E0.22396
G1 X-24.056 Y-6.849 E0.23348
G1 X-22.249 Y-8.848 E0.22406
G1 X-20.65 Y-10.714 E0.20433
G1 X-20.023 Y-11.463 E0.08122
G1 X-19.4 Y-12.173 E0.07854
G1 X-19.155 Y-12.438 E0.03001
G1 X-18.518 Y-13.094 E0.07603
G1 X-18.219 Y-13.387 E0.03481
G1 X-17.555 Y-14.006 E0.07548
G1 X-17.251 Y-14.275 E0.03375
G1 X-16.531 Y-14.881 E0.07825
G1 X-16.306 Y-15.061 E0.02396
G1 X-15.537 Y-15.65 E0.08054
G1 X-15.255 Y-15.854 E0.02894
G1 X-14.582 Y-16.318 E0.06797
G1 X-14.166 Y-16.589 E0.04128
G1 X-13.374 Y-17.079 E0.07744
G1 X-13.091 Y-17.243 E0.0272
G1 X-12.257 Y-17.703 E0.0792
G1 X-11.924 Y-17.877 E0.03124
G1 X-11.151 Y-18.257 E0.07162
G1 X-10.764 Y-18.433 E0.03535
G1 X-9.939 Y-18.788 E0.07468
G1 X-9.522 Y-18.953 E0.03729
G1 X-8.706 Y-19.256 E0.07238
G1 X-8.349 Y-19.379 E0.0314
G1 X-7.527 Y-19.64 E0.07171
G1 X-7.11 Y-19.761 E0.0361
G1 X-6.31 Y-19.972 E0.0688
G1 X-5.815 Y-20.089 E0.04229
G1 X-4.943 Y-20.272 E0.07409
G1 X-4.579 Y-20.339 E0.03078
G1 X-3.662 Y-20.485 E0.07721
G1 X-3.248 Y-20.54 E0.03473
G1 X-2.361 Y-20.636 E0.07419
G1 X-1.976 Y-20.667 E0.03212
G1 X-1.105 Y-20.719 E0.07255
G1 X-.658 Y-20.734 E0.03719
G1 X0.236 Y-20.742 E0.07434
G1 X0.618 Y-20.735 E0.03177
G1 X1.503 Y-20.699 E0.07365
G1 X1.904 Y-20.672 E0.03342
G1 X2.844 Y-20.588 E0.07847
G1 X3.209 Y-20.545 E0.03056
G1 X4.122 Y-20.417 E0.07666
G1 X4.443 Y-20.363 E0.02707
G1 X5.369 Y-20.186 E0.07839
G1 X5.739 Y-20.106 E0.03148
G1 X6.664 Y-19.883 E0.07912
G1 X6.984 Y-19.796 E0.02757
G1 X7.879 Y-19.532 E0.07759
G1 X8.277 Y-19.402 E0.03481
G1 X9.126 Y-19.105 E0.07479
G1 X9.448 Y-18.982 E0.02866
G1 X10.298 Y-18.637 E0.07628
G1 X10.702 Y-18.462 E0.03661
G1 X11.494 Y-18.092 E0.07269
G1 X11.815 Y-17.933 E0.02979
G1 X12.644 Y-17.495 E0.07796
G1 X12.959 Y-17.319 E0.03
G1 X13.738 Y-16.859 E0.07522
G1 X14.113 Y-16.624 E0.0368
G1 X14.83 Y-16.15 E0.07147
G1 X15.187 Y-15.901 E0.03619
G1 X15.934 Y-15.351 E0.07713
G1 X16.249 Y-15.106 E0.03318
G1 X16.956 Y-14.528 E0.07593
G1 X17.216 Y-14.305 E0.02848
G1 X17.93 Y-13.662 E0.0799
G1 X18.16 Y-13.444 E0.02635
G1 X18.793 Y-12.815 E0.0742
G1 X19.082 Y-12.513 E0.03476
G1 X19.722 Y-11.813 E0.07887
G1 X20.256 Y-11.179 E0.06893
G1 X22.023 Y-9.098 E0.227
G1 X23.856 Y-7.06 E0.22792
G1 X25.75 Y-5.072 E0.22831
G1 X27.68 Y-3.155 E0.22619
G1 X29.698 Y-1.261 E0.23013
G1 X31.702 Y0.515 E0.22265
G1 X32.337 Y1.064 E0.0698
G1 X32.692 Y1.429 E0.04234
G1 X32.985 Y1.846 E0.04238
G1 X33.21 Y2.303 E0.04236
G1 X33.361 Y2.79 E0.0424
G1 X33.438 Y3.404 E0.05145
G1 X33.45 Y3.83 E0.03544
G1 X33.45 Y4.805 E0.08107
G1 X33.44 Y5.537 E0.06087
G1 X33.393 Y6.045 E0.04242
G1 X33.267 Y6.539 E0.04239
G1 X33.066 Y7.007 E0.04235
G1 X32.794 Y7.438 E0.04238
G1 X32.458 Y7.821 E0.04236
G1 X32.067 Y8.147 E0.04233
G1 X31.45 Y8.489 E0.05866
G1 X30.991 Y8.682 E0.0414
G1 X28.476 Y9.777 E0.22808
G1 X25.988 Y10.947 E0.22861
G1 X23.567 Y12.169 E0.2255
G1 X21.157 Y13.471 E0.22777
G1 X18.776 Y14.847 E0.22866
G1 X16.434 Y16.292 E0.22882
G1 X15.742 Y16.732 E0.06819
G1 X15.292 Y16.97 E0.04233
G1 X14.625 Y17.178 E0.0581
G1 X14.08 Y17.24 E0.04561
G1 X13.67 Y17.25 E0.0341
G1 X6.661 Y17.25 E0.5828
G1 X5.956 Y17.24 E0.05863
G1 X4.739 Y17.189 E0.10128
G1 X3.984 Y17.147 E0.06288
G1 X1.237 Y17.072 E0.2285
M566 X1800 Y1800
G1 F1500 E-6.5
;MESH:RoboCol25-WifiAntennaMnt.3mf
G0 F3600 X5.347 Y5.347
G0 X17.853 Y-4.236
G0 X19.111 Y-4.926
G0 X19.077 Y-5.757
G1 F1500 E6.5
G0 F3600 X19.6 Y-6.05
M566 X1200 Y1200
;TYPE:WALL-OUTER
G1 F3000 X20.161 Y-5.039 E0.09614
G1 X20.651 Y-4.045 E0.09215
G1 X21.093 Y-3.025 E0.09243
G1 X21.488 Y-1.972 E0.09351
G1 X21.831 Y-.9 E0.09359
G1 X22.124 Y0.199 E0.09457
G1 X22.356 Y1.287 E0.0925
G1 X22.541 Y2.429 E0.0962
G1 X22.69 Y3.75 E0.11054
G1 X29.95 Y3.75 E0.60367
G1 X29.95 Y5.25 E0.12473
G1 X21.244 Y5.25 E0.72391
G1 X21.223 Y4.423 E0.06879
G1 X21.143 Y3.367 E0.08806
G1 X21.012 Y2.333 E0.08666
G1 X20.829 Y1.29 E0.08805
G1 X20.593 Y0.256 E0.08819
G1 X20.301 Y-.78 E0.0895
G1 X19.969 Y-1.768 E0.08667
G1 X19.574 Y-2.77 E0.08956
G1 X19.137 Y-3.736 E0.08816
G1 X18.655 Y-4.678 E0.08799
G1 X18.123 Y-5.595 E0.08815
G1 X17.538 Y-6.498 E0.08946
G1 X16.921 Y-7.355 E0.08781
G1 X16.252 Y-8.189 E0.0889
G1 X15.566 Y-8.966 E0.08619
G1 X14.812 Y-9.736 E0.08961
G1 X14.039 Y-10.451 E0.08756
G1 X13.235 Y-11.126 E0.08729
G1 X12.409 Y-11.751 E0.08613
G1 X11.514 Y-12.359 E0.08997
G1 X10.625 Y-12.904 E0.08671
G1 X9.679 Y-13.417 E0.08948
G1 X8.724 Y-13.877 E0.08814
G1 X7.747 Y-14.287 E0.0881
G1 X6.752 Y-14.648 E0.08801
G1 X5.756 Y-14.956 E0.08669
G1 X4.712 Y-15.22 E0.08954
G1 X3.69 Y-15.427 E0.08671
G1 X2.625 Y-15.586 E0.08954
G1 X1.588 Y-15.69 E0.08666
G1 X0.513 Y-15.743 E0.0895
G1 X-.53 Y-15.743 E0.08673
G1 X-1.588 Y-15.69 E0.08808
G1 X-2.659 Y-15.583 E0.0895
G1 X-3.708 Y-15.424 E0.08822
G1 X-4.729 Y-15.217 E0.08662
G1 X-5.772 Y-14.951 E0.0895
G1 X-6.784 Y-14.637 E0.08811
G1 X-7.779 Y-14.274 E0.08807
G1 X-8.755 Y-13.863 E0.08806
G1 X-9.709 Y-13.401 E0.08814
G1 X-10.64 Y-12.895 E0.08811
G1 X-11.529 Y-12.35 E0.08671
G1 X-12.429 Y-11.736 E0.09059
G1 X-13.259 Y-11.106 E0.08664
G1 X-14.065 Y-10.429 E0.08752
G1 X-14.853 Y-9.697 E0.08943
G1 X-15.601 Y-8.929 E0.08914
G1 X-16.294 Y-8.141 E0.08726
G1 X-16.944 Y-7.324 E0.08681
G1 X-17.567 Y-6.457 E0.08877
G1 X-18.14 Y-5.565 E0.08815
G1 X-18.671 Y-4.647 E0.08818
G1 X-19.152 Y-3.704 E0.08802
G1 X-19.587 Y-2.738 E0.08809
G1 X-19.969 Y-1.767 E0.08676
G1 X-20.31 Y-.747 E0.08943
G1 X-20.597 Y0.273 E0.08811
G1 X-20.832 Y1.307 E0.08817
G1 X-21.014 Y2.35 E0.08804
G1 X-21.146 Y3.401 E0.08808
G1 X-21.224 Y4.458 E0.08813
G1 X-21.244 Y5.25 E0.06588
G1 X-29.95 Y5.25 E0.72391
G1 X-29.95 Y3.75 E0.12473
G1 X-22.69 Y3.75 E0.60367
G1 X-22.539 Y2.41 E0.11213
G1 X-22.356 Y1.287 E0.09461
G1 X-22.123 Y0.199 E0.09252
G1 X-21.831 Y-.9 E0.09455
G1 X-21.492 Y-1.96 E0.09254
G1 X-21.093 Y-3.025 E0.09457
G1 X-20.651 Y-4.046 E0.09251
G1 X-20.154 Y-5.055 E0.09352
G1 X-19.607 Y-6.039 E0.09361
G1 X-19.013 Y-6.993 E0.09345
G1 X-18.351 Y-7.946 E0.09648
G1 X-17.658 Y-8.843 E0.09425
G1 X-16.958 Y-9.666 E0.08984
G1 X-16.165 Y-10.509 E0.09624
G1 X-15.364 Y-11.278 E0.09233
G1 X-14.503 Y-12.027 E0.09489
G1 X-13.646 Y-12.703 E0.09076
G1 X-12.728 Y-13.356 E0.09367
G1 X-11.77 Y-13.968 E0.09453
G1 X-10.799 Y-14.523 E0.093
G1 X-9.79 Y-15.036 E0.09412
G1 X-8.774 Y-15.49 E0.09253
G1 X-7.714 Y-15.902 E0.09456
G1 X-6.658 Y-16.254 E0.09256
G1 X-5.568 Y-16.557 E0.09407
G1 X-4.465 Y-16.807 E0.09404
G1 X-3.367 Y-16.999 E0.09268
G1 X-2.223 Y-17.141 E0.09585
G1 X-1.131 Y-17.222 E0.09105
G1 X0.019 Y-17.25 E0.09565
G1 X1.131 Y-17.222 E0.09249
G1 X2.261 Y-17.138 E0.09422
G1 X3.367 Y-16.999 E0.09269
G1 X4.465 Y-16.807 E0.09268
G1 X5.568 Y-16.557 E0.09404
G1 X6.658 Y-16.254 E0.09407
G1 X7.714 Y-15.902 E0.09256
G1 X8.774 Y-15.49 E0.09456
G1 X9.79 Y-15.036 E0.09253
G1 X10.799 Y-14.523 E0.09412
G1 X11.77 Y-13.968 E0.093
G1 X12.728 Y-13.356 E0.09453
G1 X13.672 Y-12.683 E0.0964
G1 X14.551 Y-11.988 E0.09318
G1 X15.372 Y-11.271 E0.09064
G1 X16.177 Y-10.497 E0.09286
G1 X16.957 Y-9.666 E0.09477
G1 X17.696 Y-8.796 E0.09492
G1 X18.366 Y-7.926 E0.09131
G1 X19.006 Y-7.004 E0.09332
G1 X19.6 Y-6.05 E0.09345
M566 X1800 Y1800
G0 F3600 X19.721 Y-5.832
G0 X19.196 Y-5.542
G0 X15.961 Y-9.334
G0 X14.396 Y-10.856
G0 X12.724 Y-12.189
G0 X10.894 Y-13.371
G0 X8.945 Y-14.369
G0 X6.923 Y-15.159
G0 X4.831 Y-15.747
G0 X2.691 Y-16.121
G0 X0.525 Y-16.282
G0 X-1.627 Y-16.228
G0 X-3.801 Y-15.955
G0 X-5.918 Y-15.47
G0 X-7.976 Y-14.777
G0 X-9.955 Y-13.881
G0 X-11.822 Y-12.803
G0 X-13.595 Y-11.528
G0 X-15.229 Y-10.083
G0 X-16.708 Y-8.487
G0 X-18.014 Y-6.76
G0 X-19.145 Y-4.905
G0 X-20.084 Y-2.947
G0 X-21.178 Y0.126
G0 X-21.082 Y0.15
M566 X1200 Y1200
;TYPE:WALL-INNER
G1 F3000 X-21.322 Y1.209 E0.09029
G1 X-21.509 Y2.276 E0.09007
G1 X-21.644 Y3.351 E0.09009
G1 X-21.724 Y4.433 E0.09021
G1 X-21.732 Y4.75 E0.02637
G1 X-22.243 Y4.75 E0.04249
G1 X-29.45 Y4.75 E0.59926
G1 X-29.45 Y4.25 E0.04158
G1 X-22.243 Y4.25 E0.59926
G1 X-22.136 Y3.296 E0.07982
G1 X-22.042 Y2.466 E0.06883
G1 X-21.867 Y1.392 E0.08981
G1 X-21.634 Y0.304 E0.0917
G1 X-21.348 Y-.771 E0.0925
G1 X-21.02 Y-1.797 E0.08957
G1 X-20.634 Y-2.826 E0.09138
G1 X-20.202 Y-3.825 E0.0905
G1 X-19.705 Y-4.834 E0.09352
G1 X-19.17 Y-5.796 E0.09153
G1 X-18.602 Y-6.708 E0.08934
G1 X-17.955 Y-7.64 E0.09434
G1 X-17.262 Y-8.537 E0.09425
G1 X-16.585 Y-9.332 E0.08683
G1 X-15.808 Y-10.159 E0.09435
G1 X-15.018 Y-10.917 E0.09104
G1 X-14.193 Y-11.634 E0.09089
G1 X-13.336 Y-12.31 E0.09076
G1 X-12.446 Y-12.943 E0.09081
G1 X-11.516 Y-13.538 E0.0918
G1 X-10.572 Y-14.077 E0.09039
G1 X-9.563 Y-14.59 E0.09412
G1 X-8.588 Y-15.026 E0.08881
G1 X-7.539 Y-15.434 E0.09359
G1 X-6.524 Y-15.772 E0.08895
G1 X-6.041 Y-15.906 E0.04168
G1 X-5.449 Y-16.071 E0.0511
G1 X-4.95 Y-16.184 E0.04254
G1 X-4.366 Y-16.316 E0.04978
G1 X-3.281 Y-16.506 E0.09159
G1 X-2.782 Y-16.567 E0.0418
G1 X-2.184 Y-16.642 E0.05011
G1 X-1.662 Y-16.68 E0.04352
G1 X-1.102 Y-16.722 E0.04669
G1 X-.556 Y-16.735 E0.04541
G1 X0.018 Y-16.75 E0.04774
G1 X0.537 Y-16.737 E0.04317
G1 X1.102 Y-16.722 E0.047
G1 X1.661 Y-16.681 E0.04661
G1 X2.221 Y-16.639 E0.04669
G1 X2.748 Y-16.573 E0.04416
G1 X3.281 Y-16.506 E0.04467
G1 X3.861 Y-16.405 E0.04895
G1 X4.366 Y-16.316 E0.04264
G1 X4.931 Y-16.189 E0.04815
G1 X5.449 Y-16.071 E0.04418
G1 X6.022 Y-15.912 E0.04945
G1 X6.524 Y-15.772 E0.04333
G1 X7.539 Y-15.434 E0.08895
G1 X8.107 Y-15.213 E0.05068
G1 X8.588 Y-15.026 E0.04291
G1 X9.563 Y-14.59 E0.08881
G1 X10.572 Y-14.077 E0.09412
G1 X11.516 Y-13.538 E0.09039
G1 X12.446 Y-12.943 E0.0918
G1 X13.372 Y-12.283 E0.09455
G1 X14.222 Y-11.611 E0.0901
G1 X15.043 Y-10.894 E0.09064
G1 X15.819 Y-10.148 E0.08951
G1 X16.585 Y-9.332 E0.09306
G1 X17.315 Y-8.472 E0.0938
G1 X17.959 Y-7.636 E0.08775
G1 X18.595 Y-6.719 E0.09279
G1 X19.163 Y-5.807 E0.08934
G1 X19.724 Y-4.796 E0.09614
G1 X20.192 Y-3.846 E0.08806
G1 X20.634 Y-2.826 E0.09243
G1 X21.02 Y-1.796 E0.09146
G1 X21.348 Y-.771 E0.08949
G1 X21.635 Y0.304 E0.09252
G1 X21.862 Y1.367 E0.09038
G1 X22.047 Y2.509 E0.0962
G1 X22.131 Y3.261 E0.06292
G1 X22.243 Y4.25 E0.08276
G1 X29.45 Y4.25 E0.59926
G1 X29.45 Y4.75 E0.04158
G1 X22.243 Y4.75 E0.59926
G1 X21.732 Y4.75 E0.04249
G1 X21.723 Y4.398 E0.02928
G1 X21.641 Y3.317 E0.09014
