;FLAVOR:RepRap
;TIME:1497
;Filament used: 4.9376m
;Layer height: 0.3
;MINX:-13.75
;MINY:-36.75
;MINZ:0.4
;MAXX:13.75
;MAXY:36.75
;MAXZ:15.1
;POSTPROCESSED
;Generated with Cura_SteamEngine 4.13.1
T0
M190 S60
M104 S215
M109 S215
M82 ;absolute extrusion mode
G28 ;Home
G1 Z15.0 F6000 ;Move the platform down 15mm
;Prime the extruder
G92 E0
G1 F200 E3
G92 E0
M83 ;relative extrusion mode
G1 F1500 E-6.5
;LAYER_COUNT:50
;LAYER:0
M107 P1
M204 T5000
M566 X1800 Y1800
G0 F3600 X13.75 Y32.31 Z0.4
M204 P3000
M566 X1200 Y1200
;TYPE:SKIRT
G1 F1500 E6.5
G1 F3000 X13.741 Y33.037 E0.06045
G1 X13.694 Y33.583 E0.04557
G1 X13.568 Y34.116 E0.04554
G1 X13.367 Y34.624 E0.04543
G1 X13.093 Y35.098 E0.04552
G1 X12.753 Y35.527 E0.04552
G1 X12.354 Y35.902 E0.04553
G1 X11.905 Y36.216 E0.04556
G1 X11.416 Y36.46 E0.04544
G1 X10.895 Y36.63 E0.04557
G1 X10.096 Y36.74 E0.06706
G1 X9.67 Y36.75 E0.03543
G1 X-9.341 Y36.75 E1.58077
G1 X-10.039 Y36.741 E0.05804
G1 X-10.585 Y36.694 E0.04557
G1 X-11.117 Y36.568 E0.04546
G1 X-11.626 Y36.366 E0.04553
G1 X-12.1 Y36.092 E0.04552
G1 X-12.529 Y35.752 E0.04552
G1 X-12.904 Y35.353 E0.04553
G1 X-13.217 Y34.904 E0.04551
G1 X-13.461 Y34.414 E0.04552
G1 X-13.631 Y33.894 E0.04549
G1 X-13.74 Y33.092 E0.0673
G1 X-13.75 Y32.658 E0.0361
G1 X-13.75 Y-32.377 E5.40768
G1 X-13.741 Y-33.042 E0.0553
G1 X-13.693 Y-33.587 E0.04549
G1 X-13.567 Y-34.12 E0.04554
G1 X-13.365 Y-34.628 E0.04546
G1 X-13.09 Y-35.102 E0.04557
G1 X-12.75 Y-35.531 E0.04552
G1 X-12.351 Y-35.905 E0.04547
G1 X-11.902 Y-36.218 E0.04551
G1 X-11.412 Y-36.462 E0.04552
G1 X-10.891 Y-36.631 E0.04554
G1 X-10.096 Y-36.74 E0.06672
G1 X-9.67 Y-36.75 E0.03543
G1 X9.347 Y-36.75 E1.58127
G1 X10.045 Y-36.74 E0.05804
G1 X10.59 Y-36.692 E0.04549
G1 X11.122 Y-36.565 E0.04548
G1 X11.631 Y-36.362 E0.04557
G1 X12.104 Y-36.088 E0.04545
G1 X12.533 Y-35.747 E0.04557
G1 X12.907 Y-35.348 E0.04547
G1 X13.219 Y-34.898 E0.04553
G1 X13.463 Y-34.408 E0.04552
G1 X13.632 Y-33.887 E0.04554
G1 X13.74 Y-33.095 E0.06646
G1 X13.75 Y-32.67 E0.03535
G1 X13.75 Y32.31 E5.40311
M566 X1800 Y1800
G0 F3600 X13.25 Y32.304
M566 X1200 Y1200
G1 F3000 X13.241 Y33.031 E0.06045
G1 X13.195 Y33.539 E0.04241
G1 X13.07 Y34.033 E0.04237
G1 X12.869 Y34.501 E0.04235
G1 X12.598 Y34.932 E0.04233
G1 X12.262 Y35.316 E0.04243
G1 X11.871 Y35.642 E0.04233
G1 X11.433 Y35.903 E0.0424
G1 X10.961 Y36.093 E0.04231
G1 X10.464 Y36.206 E0.04238
G1 X9.761 Y36.249 E0.05856
G1 X-9.335 Y36.25 E1.58784
G1 X-10.033 Y36.241 E0.05804
G1 X-10.54 Y36.194 E0.04234
G1 X-11.034 Y36.069 E0.04237
G1 X-11.502 Y35.868 E0.04235
G1 X-11.934 Y35.597 E0.0424
G1 X-12.317 Y35.261 E0.04236
G1 X-12.643 Y34.87 E0.04233
G1 X-12.904 Y34.432 E0.0424
G1 X-13.093 Y33.959 E0.04235
G1 X-13.207 Y33.462 E0.0424
G1 X-13.249 Y32.746 E0.05964
G1 X-13.25 Y-32.37 E5.41442
G1 X-13.241 Y-33.035 E0.0553
G1 X-13.194 Y-33.542 E0.04234
G1 X-13.068 Y-34.036 E0.04239
G1 X-12.867 Y-34.504 E0.04235
G1 X-12.595 Y-34.935 E0.04238
G1 X-12.259 Y-35.318 E0.04236
G1 X-11.868 Y-35.644 E0.04233
G1 X-11.43 Y-35.905 E0.0424
G1 X-10.957 Y-36.094 E0.04235
G1 X-10.46 Y-36.207 E0.04238
G1 X-9.761 Y-36.249 E0.05823
G1 X9.34 Y-36.25 E1.58825
G1 X10.038 Y-36.24 E0.05804
G1 X10.545 Y-36.192 E0.04235
G1 X11.039 Y-36.067 E0.04237
G1 X11.507 Y-35.865 E0.04238
G1 X11.937 Y-35.593 E0.04231
G1 X12.32 Y-35.257 E0.04236
G1 X12.646 Y-34.865 E0.04239
G1 X12.906 Y-34.427 E0.04235
G1 X13.095 Y-33.954 E0.04235
G1 X13.207 Y-33.457 E0.04236
G1 X13.249 Y-32.761 E0.05798
G1 X13.25 Y32.304 E5.41018
M566 X1800 Y1800
G1 F1500 E-6.5
;MESH:RoboCol25-PlatformRearAttach.amf
G0 F3600 X10.665 Y32.236
G0 X9.236 Y32.236
G0 X8.25 Y31.25
M566 X1200 Y1200
;TYPE:WALL-INNER
G1 F1500 E6.5
G1 F3000 X-8.25 Y31.25 E1.37198
G1 X-8.25 Y-31.25 E5.1969
G1 X8.25 Y-31.25 E1.37198
G1 X8.25 Y31.25 E5.1969
M566 X1800 Y1800
G0 F3600 X3.305 Y24.799
M566 X1200 Y1200
G1 F3000 X3.638 Y23.945 E0.07622
G1 X3.757 Y23.168 E0.06536
G1 X3.686 Y22.247 E0.07681
G1 X3.387 Y21.363 E0.0776
G1 X2.879 Y20.578 E0.07775
G1 X2.195 Y19.946 E0.07744
G1 X1.374 Y19.498 E0.07777
G1 X0.516 Y19.282 E0.07357
G1 X0.037 Y19.245 E0.03995
G1 X-.844 Y19.334 E0.07363
G1 X-1.721 Y19.656 E0.07768
G1 X-2.491 Y20.179 E0.0774
G1 X-3.108 Y20.881 E0.07771
G1 X-3.533 Y21.713 E0.07768
G1 X-3.742 Y22.626 E0.07788
G1 X-3.719 Y23.57 E0.07852
G1 X-3.464 Y24.468 E0.07762
G1 X-2.997 Y25.273 E0.07738
G1 X-2.341 Y25.944 E0.07803
G1 X-1.547 Y26.428 E0.07732
G1 X-.651 Y26.704 E0.07796
G1 X0.279 Y26.749 E0.07742
G1 X1.196 Y26.567 E0.07774
G1 X2.043 Y26.159 E0.07817
G1 X2.756 Y25.559 E0.07748
G1 X3.305 Y24.799 E0.07796
M566 X1800 Y1800
G0 F3600 X1.228 Y-19.338
M566 X1200 Y1200
G1 F3000 X2.094 Y-19.757 E0.07999
G1 X2.829 Y-20.372 E0.07969
G1 X3.391 Y-21.154 E0.08007
G1 X3.742 Y-22.048 E0.07986
G1 X3.861 Y-22.991 E0.07903
G1 X3.745 Y-23.951 E0.0804
G1 X3.39 Y-24.846 E0.08006
G1 X2.829 Y-25.628 E0.08003
G1 X2.094 Y-26.243 E0.07969
G1 X1.225 Y-26.663 E0.08025
G1 X0.361 Y-26.834 E0.07324
G1 X0.022 Y-26.852 E0.02823
G1 X-.865 Y-26.763 E0.07412
G1 X-1.765 Y-26.433 E0.07971
G1 X-2.555 Y-25.896 E0.07943
G1 X-3.193 Y-25.175 E0.08005
G1 X-3.627 Y-24.32 E0.07973
G1 X-3.845 Y-23.383 E0.07999
G1 X-3.817 Y-22.416 E0.08044
G1 X-3.556 Y-21.491 E0.07992
G1 X-3.076 Y-20.666 E0.07937
G1 X-2.403 Y-19.978 E0.08003
G1 X-1.588 Y-19.481 E0.07937
G1 X-.67 Y-19.198 E0.07988
G1 X0.286 Y-19.151 E0.07959
G1 X1.228 Y-19.338 E0.07986
M566 X1800 Y1800
G0 F3600 X1.068 Y-19.816
M566 X1200 Y1200
G1 F3000 X1.821 Y-20.18 E0.06954
G1 X2.46 Y-20.715 E0.0693
G1 X2.948 Y-21.395 E0.0696
G1 X3.254 Y-22.173 E0.06951
G1 X3.357 Y-22.992 E0.06864
G1 X3.256 Y-23.827 E0.06994
G1 X2.948 Y-24.605 E0.06958
G1 X2.46 Y-25.285 E0.0696
G1 X1.821 Y-25.82 E0.0693
G1 X1.065 Y-26.185 E0.0698
G1 X0.299 Y-26.337 E0.06494
G1 X0.034 Y-26.351 E0.02207
G1 X-.752 Y-26.272 E0.06569
G1 X-1.535 Y-25.985 E0.06934
G1 X-2.222 Y-25.518 E0.06907
G1 X-2.776 Y-24.892 E0.06951
G1 X-3.154 Y-24.148 E0.06939
G1 X-3.343 Y-23.333 E0.06957
G1 X-3.319 Y-22.492 E0.06996
G1 X-3.092 Y-21.688 E0.06947
G1 X-2.675 Y-20.971 E0.06897
G1 X-2.089 Y-20.372 E0.06968
G1 X-1.381 Y-19.94 E0.06896
G1 X-.583 Y-19.694 E0.06944
G1 X0.249 Y-19.653 E0.06927
G1 X1.068 Y-19.816 E0.06944
M566 X1800 Y1800
G0 F3600 X2.12 Y-21.031
G0 X8.75 Y-31.75
M566 X1200 Y1200
G1 F3000 X8.75 Y31.75 E5.28005
G1 X-8.75 Y31.75 E1.45513
G1 X-8.75 Y-31.75 E5.28005
G1 X8.75 Y-31.75 E1.45513
M566 X1800 Y1800
G0 F3600 X0.043 Y19.747
M566 X1200 Y1200
G1 F3000 X-.731 Y19.825 E0.06468
G1 X-1.491 Y20.104 E0.06732
G1 X-2.157 Y20.557 E0.06697
G1 X-2.691 Y21.164 E0.06722
G1 X-3.06 Y21.885 E0.06735
G1 X-3.241 Y22.676 E0.06747
G1 X-3.221 Y23.494 E0.06804
G1 X-3 Y24.271 E0.06717
G1 X-2.596 Y24.968 E0.06699
G1 X-2.027 Y25.55 E0.06768
G1 X-1.34 Y25.969 E0.06691
G1 X-.564 Y26.208 E0.06752
G1 X0.242 Y26.247 E0.0671
G1 X1.036 Y26.089 E0.06732
G1 X1.769 Y25.736 E0.06765
G1 X2.387 Y25.216 E0.06716
G1 X2.862 Y24.558 E0.06748
G1 X3.152 Y23.815 E0.06632
G1 X3.254 Y23.149 E0.05602
G1 X3.192 Y22.348 E0.0668
G1 X2.933 Y21.582 E0.06724
G1 X2.493 Y20.902 E0.06735
G1 X1.901 Y20.355 E0.06702
G1 X1.19 Y19.967 E0.06735
G1 X0.435 Y19.777 E0.06474
G1 X0.043 Y19.747 E0.03269
M566 X1800 Y1800
G0 F3600 X0.049 Y20.249
M566 X1200 Y1200
G1 F3000 X-.618 Y20.316 E0.05574
G1 X-1.261 Y20.552 E0.05695
G1 X-1.823 Y20.935 E0.05655
G1 X-2.274 Y21.448 E0.0568
G1 X-2.587 Y22.058 E0.05701
G1 X-2.74 Y22.726 E0.05698
G1 X-2.723 Y23.418 E0.05756
G1 X-2.536 Y24.074 E0.05672
G1 X-2.195 Y24.663 E0.05659
G1 X-1.713 Y25.156 E0.05733
G1 X-1.133 Y25.51 E0.0565
G1 X-.477 Y25.712 E0.05707
G1 X0.205 Y25.745 E0.05677
G1 X0.876 Y25.611 E0.0569
G1 X1.495 Y25.313 E0.05712
G1 X2.018 Y24.873 E0.05683
G1 X2.419 Y24.317 E0.057
G1 X2.666 Y23.685 E0.05642
G1 X2.751 Y23.13 E0.04669
G1 X2.698 Y22.449 E0.0568
G1 X2.479 Y21.801 E0.05688
G1 X2.107 Y21.226 E0.05694
G1 X1.607 Y20.764 E0.05661
G1 X1.006 Y20.436 E0.05693
G1 X0.355 Y20.272 E0.05582
G1 X0.049 Y20.249 E0.02552
M566 X1800 Y1800
G0 F3600 X0.048 Y20.15
G0 X1.02 Y20.399
G0 X1.63 Y20.732
G0 X9.18 Y32.18
G0 X9.25 Y32.25
M566 X1200 Y1200
G1 F3000 X-9.25 Y32.25 E1.53828
G1 X-9.25 Y-32.25 E5.3632
G1 X9.25 Y-32.25 E1.53828
G1 X9.25 Y32.25 E5.3632
M566 X1800 Y1800
G0 F3600 X9.18 Y32.18
G0 X0.219 Y-20.056
G0 X0.212 Y-20.155
M566 X1200 Y1200
G1 F3000 X0.908 Y-20.294 E0.05902
G1 X1.548 Y-20.603 E0.05909
G1 X2.091 Y-21.058 E0.05891
G1 X2.506 Y-21.636 E0.05917
G1 X2.766 Y-22.297 E0.05906
G1 X2.853 Y-22.993 E0.05832
G1 X2.767 Y-23.703 E0.05947
G1 X2.506 Y-24.364 E0.05909
G1 X2.091 Y-24.942 E0.05917
G1 X1.548 Y-25.397 E0.05891
G1 X0.905 Y-25.707 E0.05935
G1 X0.237 Y-25.84 E0.05663
G1 X0.046 Y-25.85 E0.0159
G1 X-.639 Y-25.781 E0.05725
G1 X-1.305 Y-25.537 E0.05898
G1 X-1.889 Y-25.14 E0.05872
G1 X-2.359 Y-24.608 E0.05903
G1 X-2.681 Y-23.976 E0.05898
G1 X-2.841 Y-23.283 E0.05914
G1 X-2.821 Y-22.568 E0.05948
G1 X-2.628 Y-21.885 E0.05902
G1 X-2.274 Y-21.276 E0.05857
G1 X-1.775 Y-20.766 E0.05933
G1 X-1.174 Y-20.399 E0.05855
G1 X-.496 Y-20.19 E0.05899
G1 X0.212 Y-20.155 E0.05894
M566 X1800 Y1800
G0 F3600 X0.175 Y-20.657
M566 X1200 Y1200
;TYPE:WALL-OUTER
G1 F3000 X0.748 Y-20.772 E0.0486
G1 X1.275 Y-21.026 E0.04864
G1 X1.722 Y-21.401 E0.04852
G1 X2.064 Y-21.877 E0.04874
G1 X2.278 Y-22.421 E0.04861
G1 X2.349 Y-22.994 E0.04801
G1 X2.278 Y-23.579 E0.049
G1 X2.064 Y-24.123 E0.04861
G1 X1.722 Y-24.599 E0.04874
G1 X1.275 Y-24.974 E0.04852
G1 X0.745 Y-25.229 E0.04891
G1 X0.175 Y-25.343 E0.04833
G1 X0.058 Y-25.349 E0.00974
G1 X-.526 Y-25.29 E0.04881
G1 X-1.075 Y-25.089 E0.04861
G1 X-1.556 Y-24.762 E0.04836
G1 X-1.942 Y-24.324 E0.04854
G1 X-2.208 Y-23.804 E0.04857
G1 X-2.339 Y-23.233 E0.04871
G1 X-2.323 Y-22.644 E0.04899
G1 X-2.164 Y-22.082 E0.04856
G1 X-1.873 Y-21.581 E0.04818
G1 X-1.461 Y-21.16 E0.04898
G1 X-.967 Y-20.858 E0.04814
G1 X-.409 Y-20.686 E0.04855
G1 X0.175 Y-20.657 E0.04862
M566 X1800 Y1800
G0 F3600 X0.42 Y-20.706
G0 X0.536 Y-20.118
G0 X1.569 Y-20.57
G0 X2.12 Y-21.031
G0 X9.18 Y-32.18
G0 X9.75 Y-32.75
M566 X1200 Y1200
G1 F3000 X9.75 Y32.75 E5.44635
G1 X-9.75 Y32.75 E1.62143
G1 X-9.75 Y-32.75 E5.44635
G1 X9.75 Y-32.75 E1.62143
M566 X1800 Y1800
G0 F3600 X9.75 Y-32.5
G0 X9.18 Y-32.18
G0 X0.101 Y20.153
G0 X0.056 Y20.751
M566 X1200 Y1200
G1 F3000 X-.505 Y20.807 E0.04688
G1 X-1.03 Y21 E0.04651
G1 X-1.489 Y21.313 E0.0462
G1 X-1.858 Y21.732 E0.04642
G1 X-2.114 Y22.231 E0.04663
G1 X-2.239 Y22.776 E0.04649
G1 X-2.225 Y23.342 E0.04708
G1 X-2.072 Y23.877 E0.04627
G1 X-1.794 Y24.358 E0.04619
G1 X-1.399 Y24.762 E0.04698
G1 X-.926 Y25.051 E0.04609
G1 X-.39 Y25.216 E0.04663
G1 X0.167 Y25.243 E0.04637
G1 X0.716 Y25.133 E0.04656
G1 X1.221 Y24.89 E0.0466
G1 X1.649 Y24.53 E0.0465
G1 X1.976 Y24.076 E0.04652
G1 X2.18 Y23.554 E0.0466
G1 X2.248 Y23.111 E0.03727
G1 X2.204 Y22.55 E0.04679
G1 X2.025 Y22.02 E0.04652
G1 X1.721 Y21.55 E0.04654
G1 X1.313 Y21.173 E0.04619
G1 X0.822 Y20.905 E0.04651
G1 X0.275 Y20.767 E0.04691
G1 X0.056 Y20.751 E0.01826
M566 X1800 Y1800
G0 F3600 X-.193 Y20.775
G0 X-.252 Y20.179
G0 X0.031 Y18.753
M566 X1200 Y1200
;TYPE:SKIN
G1 F3000 X-.955 Y18.852 E0.0824
G1 X-1.946 Y19.217 E0.08781
G1 X-2.818 Y19.809 E0.08764
G1 X-3.516 Y20.603 E0.08791
G1 X-3.997 Y21.544 E0.08787
G1 X-4.234 Y22.577 E0.08813
G1 X-4.207 Y23.644 E0.08875
G1 X-3.919 Y24.66 E0.08781
G1 X-3.391 Y25.571 E0.08755
G1 X-2.649 Y26.33 E0.08826
G1 X-1.749 Y26.879 E0.08766
G1 X-.737 Y27.19 E0.08803
G1 X0.316 Y27.241 E0.08766
G1 X1.353 Y27.035 E0.08791
G1 X2.311 Y26.574 E0.0884
G1 X3.118 Y25.895 E0.08769
G1 X3.738 Y25.036 E0.08809
G1 X4.114 Y24.072 E0.08604
G1 X4.249 Y23.186 E0.07452
G1 X4.17 Y22.149 E0.08648
G1 X3.832 Y21.148 E0.08785
G1 X3.257 Y20.26 E0.08797
G1 X2.483 Y19.545 E0.08762
G1 X1.554 Y19.038 E0.088
G1 X0.595 Y18.796 E0.08224
G1 X0.031 Y18.753 E0.04703
M566 X1800 Y1800
G0 F3600 X-2.307 Y21.426
G0 X-7.76 Y30.76
M566 X1200 Y1200
G1 F3000 X-7.76 Y-30.76 E5.11541
G1 X7.76 Y-30.76 E1.29049
G1 X7.76 Y30.76 E5.11541
G1 X-7.76 Y30.76 E1.29049
M566 X1800 Y1800
G0 F3600 X0.322 Y-18.659
M566 X1200 Y1200
G1 F3000 X1.385 Y-18.87 E0.09011
G1 X2.362 Y-19.342 E0.09022
G1 X3.191 Y-20.035 E0.08984
G1 X3.824 Y-20.918 E0.09034
G1 X4.22 Y-21.926 E0.09005
G1 X4.355 Y-22.989 E0.0891
G1 X4.224 Y-24.073 E0.09079
G1 X3.823 Y-25.083 E0.09036
G1 X3.191 Y-25.964 E0.09016
G1 X2.362 Y-26.658 E0.0899
G1 X1.382 Y-27.131 E0.09048
G1 X0.422 Y-27.322 E0.08139
G1 X0.01 Y-27.344 E0.03431
G1 X-.975 Y-27.245 E0.08232
G1 X-1.99 Y-26.872 E0.08992
G1 X-2.881 Y-26.267 E0.08955
G1 X-3.601 Y-25.453 E0.09036
G1 X-4.091 Y-24.489 E0.08992
G1 X-4.337 Y-23.432 E0.09024
G1 X-4.305 Y-22.341 E0.09076
G1 X-4.011 Y-21.299 E0.09003
G1 X-3.468 Y-20.367 E0.08969
G1 X-2.711 Y-19.592 E0.09008
G1 X-1.79 Y-19.03 E0.08971
G1 X-.756 Y-18.712 E0.08995
G1 X0.322 Y-18.659 E0.08974
M566 X1800 Y1800
G0 F3600 X2.541 Y-21.617
G0 X6.942 Y-30.534
M566 X1200 Y1200
G1 F3000 X7.534 Y-29.941 E0.06967
M566 X1800 Y1800
G0 F3600 X7.534 Y-29.234
M566 X1200 Y1200
G1 F3000 X6.235 Y-30.534 E0.15281
M566 X1800 Y1800
G0 F3600 X5.528 Y-30.534
M566 X1200 Y1200
G1 F3000 X7.534 Y-28.527 E0.23595
M566 X1800 Y1800
G0 F3600 X7.534 Y-27.82
M566 X1200 Y1200
G1 F3000 X4.821 Y-30.534 E0.31909
M566 X1800 Y1800
G0 F3600 X4.113 Y-30.534
M566 X1200 Y1200
G1 F3000 X7.534 Y-27.113 E0.40228
M566 X1800 Y1800
G0 F3600 X7.534 Y-26.406
M566 X1200 Y1200
G1 F3000 X3.406 Y-30.534 E0.48542
M566 X1800 Y1800
G0 F3600 X2.699 Y-30.534
M566 X1200 Y1200
G1 F3000 X7.534 Y-25.699 E0.56856
M566 X1800 Y1800
G0 F3600 X7.534 Y-24.991
M566 X1200 Y1200
G1 F3000 X1.992 Y-30.534 E0.65176
M566 X1800 Y1800
G0 F3600 X1.285 Y-30.534
M566 X1200 Y1200
G1 F3000 X7.534 Y-24.284 E0.73489
M566 X1800 Y1800
G0 F3600 X7.534 Y-23.577
M566 X1200 Y1200
G1 F3000 X0.578 Y-30.534 E0.81803
M566 X1800 Y1800
G0 F3600 X-.128 Y-30.534
M566 X1200 Y1200
G1 F3000 X7.534 Y-22.87 E0.90111
M566 X1800 Y1800
G0 F3600 X7.534 Y-22.163
M566 X1200 Y1200
G1 F3000 X-.835 Y-30.534 E0.98425
M566 X1800 Y1800
G0 F3600 X-1.542 Y-30.534
M566 X1200 Y1200
G1 F3000 X1.825 Y-27.165 E0.39605
G1 X1.913 Y-27.077
M566 X1800 Y1800
G0 F3600 X0.811 Y-27.473
M566 X1200 Y1200
G1 F3000 X-2.25 Y-30.534 E0.35995
M566 X1800 Y1800
G0 F3600 X-2.957 Y-30.534
M566 X1200 Y1200
G1 F3000 X0.007 Y-27.569 E0.3486
M566 X1800 Y1800
G0 F3600 X-.634 Y-27.505
M566 X1200 Y1200
G1 F3000 X-3.664 Y-30.534 E0.35625
M566 X1800 Y1800
G0 F3600 X-4.371 Y-30.534
M566 X1200 Y1200
G1 F3000 X-1.228 Y-27.391 E0.36959
M566 X1800 Y1800
G0 F3600 X-1.745 Y-27.201
M566 X1200 Y1200
G1 F3000 X-5.078 Y-30.534 E0.39194
M566 X1800 Y1800
G0 F3600 X-5.785 Y-30.534
M566 X1200 Y1200
G1 F3000 X-2.23 Y-26.979 E0.41804
M566 X1800 Y1800
G0 F3600 X-2.651 Y-26.693
M566 X1200 Y1200
G1 F3000 X-6.492 Y-30.534 E0.45167
M566 X1800 Y1800
G0 F3600 X-7.199 Y-30.534
M566 X1200 Y1200
G1 F3000 X-3.062 Y-26.397 E0.48648
M566 X1800 Y1800
G0 F3600 X-3.394 Y-26.022
M566 X1200 Y1200
G1 F3000 X-7.534 Y-30.162 E0.48683
M566 X1800 Y1800
G0 F3600 X-7.534 Y-29.455
M566 X1200 Y1200
G1 F3000 X-3.727 Y-25.647 E0.44773
M566 X1800 Y1800
G0 F3600 X-3.983 Y-25.196
M566 X1200 Y1200
G1 F3000 X-7.534 Y-28.748 E0.41763
M566 X1800 Y1800
G0 F3600 X-7.534 Y-28.041
M566 X1200 Y1200
G1 F3000 X-4.221 Y-24.727 E0.38964
M566 X1800 Y1800
G0 F3600 X-4.391 Y-24.19
M566 X1200 Y1200
G1 F3000 X-7.534 Y-27.333 E0.36959
M566 X1800 Y1800
G0 F3600 X-7.534 Y-26.626
M566 X1200 Y1200
G1 F3000 X-4.524 Y-23.616 E0.35395
M566 X1800 Y1800
G0 F3600 X-4.547 Y-22.932
M566 X1200 Y1200
G1 F3000 X-7.534 Y-25.919 E0.35125
M566 X1800 Y1800
G0 F3600 X-7.534 Y-25.212
M566 X1200 Y1200
G1 F3000 X-4.49 Y-22.167 E0.35801
G1 X-4.402 Y-22.079
M566 X1800 Y1800
G0 F3600 X-4.191 Y-21.162
M566 X1200 Y1200
G1 F3000 X-7.534 Y-24.505 E0.39311
M566 X1800 Y1800
G0 F3600 X-7.534 Y-23.798
M566 X1200 Y1200
G1 F3000 X7.534 Y-8.728 E1.772
M566 X1800 Y1800
G0 F3600 X7.534 Y-9.435
M566 X1200 Y1200
G1 F3000 X-1.837 Y-18.807 E1.10202
G1 X-1.925 Y-18.895
M566 X1800 Y1800
G0 F3600 X-.816 Y-18.493
M566 X1200 Y1200
G1 F3000 X7.534 Y-10.142 E0.98195
M566 X1800 Y1800
G0 F3600 X7.534 Y-10.849
M566 X1200 Y1200
G1 F3000 X-0.067 Y-18.451 E0.89388
M566 X1800 Y1800
G0 F3600 X0.606 Y-18.485
M566 X1200 Y1200
G1 F3000 X7.534 Y-11.556 E0.81474
M566 X1800 Y1800
G0 F3600 X7.534 Y-12.264
M566 X1200 Y1200
